( Spielfeld 6x6 Pockets Buche - LinuxCNC Vorlage )
( NULL: obere Fläche Brett, Ursprung unten-links 194x194-Aussen )
( Tiefenlage prüfen: Restboden ca. 8.5 mm bei 18 mm Material )
G21 G17 G90
G54
M3 S10000 ( Drehzahl an Werkzeug/Holz anpassen )
G0 Z5.0000
G0 X0 Y0
( --- Simulation/Dry-Run: M3 aus und Z offset nutzen, oder Geschwindigkeit reduzieren --- )
( Feld ix=0 iy=0 )
G0 Z5.0000
G0 X7.0000 Y7.0000
( pocket pass Z-2.00 )
G1 X7.0000 Y7.0000 Z-2.0000 F200.0
G1 X27.0000 Y7.0000 F900.0
G1 X27.0000 Y27.0000 F900.0
G1 X7.0000 Y27.0000 F900.0
G1 X7.0000 Y7.0000 F900.0
G0 Z5.0000
G0 X7.0000 Y7.0000
( pocket pass Z-4.00 )
G1 X7.0000 Y7.0000 Z-4.0000 F200.0
G1 X27.0000 Y7.0000 F900.0
G1 X27.0000 Y27.0000 F900.0
G1 X7.0000 Y27.0000 F900.0
G1 X7.0000 Y7.0000 F900.0
G0 Z5.0000
G0 X7.0000 Y7.0000
( pocket pass Z-6.00 )
G1 X7.0000 Y7.0000 Z-6.0000 F200.0
G1 X27.0000 Y7.0000 F900.0
G1 X27.0000 Y27.0000 F900.0
G1 X7.0000 Y27.0000 F900.0
G1 X7.0000 Y7.0000 F900.0
G0 Z5.0000
G0 X7.0000 Y7.0000
( pocket pass Z-8.00 )
G1 X7.0000 Y7.0000 Z-8.0000 F200.0
G1 X27.0000 Y7.0000 F900.0
G1 X27.0000 Y27.0000 F900.0
G1 X7.0000 Y27.0000 F900.0
G1 X7.0000 Y7.0000 F900.0
G0 Z5.0000
G0 X7.0000 Y7.0000
( pocket pass Z-9.50 )
G1 X7.0000 Y7.0000 Z-9.5000 F200.0
G1 X27.0000 Y7.0000 F900.0
G1 X27.0000 Y27.0000 F900.0
G1 X7.0000 Y27.0000 F900.0
G1 X7.0000 Y7.0000 F900.0
( Feld ix=1 iy=0 )
G0 Z5.0000
G0 X39.0000 Y7.0000
( pocket pass Z-2.00 )
G1 X39.0000 Y7.0000 Z-2.0000 F200.0
G1 X59.0000 Y7.0000 F900.0
G1 X59.0000 Y27.0000 F900.0
G1 X39.0000 Y27.0000 F900.0
G1 X39.0000 Y7.0000 F900.0
G0 Z5.0000
G0 X39.0000 Y7.0000
( pocket pass Z-4.00 )
G1 X39.0000 Y7.0000 Z-4.0000 F200.0
G1 X59.0000 Y7.0000 F900.0
G1 X59.0000 Y27.0000 F900.0
G1 X39.0000 Y27.0000 F900.0
G1 X39.0000 Y7.0000 F900.0
G0 Z5.0000
G0 X39.0000 Y7.0000
( pocket pass Z-6.00 )
G1 X39.0000 Y7.0000 Z-6.0000 F200.0
G1 X59.0000 Y7.0000 F900.0
G1 X59.0000 Y27.0000 F900.0
G1 X39.0000 Y27.0000 F900.0
G1 X39.0000 Y7.0000 F900.0
G0 Z5.0000
G0 X39.0000 Y7.0000
( pocket pass Z-8.00 )
G1 X39.0000 Y7.0000 Z-8.0000 F200.0
G1 X59.0000 Y7.0000 F900.0
G1 X59.0000 Y27.0000 F900.0
G1 X39.0000 Y27.0000 F900.0
G1 X39.0000 Y7.0000 F900.0
G0 Z5.0000
G0 X39.0000 Y7.0000
( pocket pass Z-9.50 )
G1 X39.0000 Y7.0000 Z-9.5000 F200.0
G1 X59.0000 Y7.0000 F900.0
G1 X59.0000 Y27.0000 F900.0
G1 X39.0000 Y27.0000 F900.0
G1 X39.0000 Y7.0000 F900.0
( Feld ix=2 iy=0 )
G0 Z5.0000
G0 X71.0000 Y7.0000
( pocket pass Z-2.00 )
G1 X71.0000 Y7.0000 Z-2.0000 F200.0
G1 X91.0000 Y7.0000 F900.0
G1 X91.0000 Y27.0000 F900.0
G1 X71.0000 Y27.0000 F900.0
G1 X71.0000 Y7.0000 F900.0
G0 Z5.0000
G0 X71.0000 Y7.0000
( pocket pass Z-4.00 )
G1 X71.0000 Y7.0000 Z-4.0000 F200.0
G1 X91.0000 Y7.0000 F900.0
G1 X91.0000 Y27.0000 F900.0
G1 X71.0000 Y27.0000 F900.0
G1 X71.0000 Y7.0000 F900.0
G0 Z5.0000
G0 X71.0000 Y7.0000
( pocket pass Z-6.00 )
G1 X71.0000 Y7.0000 Z-6.0000 F200.0
G1 X91.0000 Y7.0000 F900.0
G1 X91.0000 Y27.0000 F900.0
G1 X71.0000 Y27.0000 F900.0
G1 X71.0000 Y7.0000 F900.0
G0 Z5.0000
G0 X71.0000 Y7.0000
( pocket pass Z-8.00 )
G1 X71.0000 Y7.0000 Z-8.0000 F200.0
G1 X91.0000 Y7.0000 F900.0
G1 X91.0000 Y27.0000 F900.0
G1 X71.0000 Y27.0000 F900.0
G1 X71.0000 Y7.0000 F900.0
G0 Z5.0000
G0 X71.0000 Y7.0000
( pocket pass Z-9.50 )
G1 X71.0000 Y7.0000 Z-9.5000 F200.0
G1 X91.0000 Y7.0000 F900.0
G1 X91.0000 Y27.0000 F900.0
G1 X71.0000 Y27.0000 F900.0
G1 X71.0000 Y7.0000 F900.0
( Feld ix=3 iy=0 )
G0 Z5.0000
G0 X103.0000 Y7.0000
( pocket pass Z-2.00 )
G1 X103.0000 Y7.0000 Z-2.0000 F200.0
G1 X123.0000 Y7.0000 F900.0
G1 X123.0000 Y27.0000 F900.0
G1 X103.0000 Y27.0000 F900.0
G1 X103.0000 Y7.0000 F900.0
G0 Z5.0000
G0 X103.0000 Y7.0000
( pocket pass Z-4.00 )
G1 X103.0000 Y7.0000 Z-4.0000 F200.0
G1 X123.0000 Y7.0000 F900.0
G1 X123.0000 Y27.0000 F900.0
G1 X103.0000 Y27.0000 F900.0
G1 X103.0000 Y7.0000 F900.0
G0 Z5.0000
G0 X103.0000 Y7.0000
( pocket pass Z-6.00 )
G1 X103.0000 Y7.0000 Z-6.0000 F200.0
G1 X123.0000 Y7.0000 F900.0
G1 X123.0000 Y27.0000 F900.0
G1 X103.0000 Y27.0000 F900.0
G1 X103.0000 Y7.0000 F900.0
G0 Z5.0000
G0 X103.0000 Y7.0000
( pocket pass Z-8.00 )
G1 X103.0000 Y7.0000 Z-8.0000 F200.0
G1 X123.0000 Y7.0000 F900.0
G1 X123.0000 Y27.0000 F900.0
G1 X103.0000 Y27.0000 F900.0
G1 X103.0000 Y7.0000 F900.0
G0 Z5.0000
G0 X103.0000 Y7.0000
( pocket pass Z-9.50 )
G1 X103.0000 Y7.0000 Z-9.5000 F200.0
G1 X123.0000 Y7.0000 F900.0
G1 X123.0000 Y27.0000 F900.0
G1 X103.0000 Y27.0000 F900.0
G1 X103.0000 Y7.0000 F900.0
( Feld ix=4 iy=0 )
G0 Z5.0000
G0 X135.0000 Y7.0000
( pocket pass Z-2.00 )
G1 X135.0000 Y7.0000 Z-2.0000 F200.0
G1 X155.0000 Y7.0000 F900.0
G1 X155.0000 Y27.0000 F900.0
G1 X135.0000 Y27.0000 F900.0
G1 X135.0000 Y7.0000 F900.0
G0 Z5.0000
G0 X135.0000 Y7.0000
( pocket pass Z-4.00 )
G1 X135.0000 Y7.0000 Z-4.0000 F200.0
G1 X155.0000 Y7.0000 F900.0
G1 X155.0000 Y27.0000 F900.0
G1 X135.0000 Y27.0000 F900.0
G1 X135.0000 Y7.0000 F900.0
G0 Z5.0000
G0 X135.0000 Y7.0000
( pocket pass Z-6.00 )
G1 X135.0000 Y7.0000 Z-6.0000 F200.0
G1 X155.0000 Y7.0000 F900.0
G1 X155.0000 Y27.0000 F900.0
G1 X135.0000 Y27.0000 F900.0
G1 X135.0000 Y7.0000 F900.0
G0 Z5.0000
G0 X135.0000 Y7.0000
( pocket pass Z-8.00 )
G1 X135.0000 Y7.0000 Z-8.0000 F200.0
G1 X155.0000 Y7.0000 F900.0
G1 X155.0000 Y27.0000 F900.0
G1 X135.0000 Y27.0000 F900.0
G1 X135.0000 Y7.0000 F900.0
G0 Z5.0000
G0 X135.0000 Y7.0000
( pocket pass Z-9.50 )
G1 X135.0000 Y7.0000 Z-9.5000 F200.0
G1 X155.0000 Y7.0000 F900.0
G1 X155.0000 Y27.0000 F900.0
G1 X135.0000 Y27.0000 F900.0
G1 X135.0000 Y7.0000 F900.0
( Feld ix=5 iy=0 )
G0 Z5.0000
G0 X167.0000 Y7.0000
( pocket pass Z-2.00 )
G1 X167.0000 Y7.0000 Z-2.0000 F200.0
G1 X187.0000 Y7.0000 F900.0
G1 X187.0000 Y27.0000 F900.0
G1 X167.0000 Y27.0000 F900.0
G1 X167.0000 Y7.0000 F900.0
G0 Z5.0000
G0 X167.0000 Y7.0000
( pocket pass Z-4.00 )
G1 X167.0000 Y7.0000 Z-4.0000 F200.0
G1 X187.0000 Y7.0000 F900.0
G1 X187.0000 Y27.0000 F900.0
G1 X167.0000 Y27.0000 F900.0
G1 X167.0000 Y7.0000 F900.0
G0 Z5.0000
G0 X167.0000 Y7.0000
( pocket pass Z-6.00 )
G1 X167.0000 Y7.0000 Z-6.0000 F200.0
G1 X187.0000 Y7.0000 F900.0
G1 X187.0000 Y27.0000 F900.0
G1 X167.0000 Y27.0000 F900.0
G1 X167.0000 Y7.0000 F900.0
G0 Z5.0000
G0 X167.0000 Y7.0000
( pocket pass Z-8.00 )
G1 X167.0000 Y7.0000 Z-8.0000 F200.0
G1 X187.0000 Y7.0000 F900.0
G1 X187.0000 Y27.0000 F900.0
G1 X167.0000 Y27.0000 F900.0
G1 X167.0000 Y7.0000 F900.0
G0 Z5.0000
G0 X167.0000 Y7.0000
( pocket pass Z-9.50 )
G1 X167.0000 Y7.0000 Z-9.5000 F200.0
G1 X187.0000 Y7.0000 F900.0
G1 X187.0000 Y27.0000 F900.0
G1 X167.0000 Y27.0000 F900.0
G1 X167.0000 Y7.0000 F900.0
( Feld ix=5 iy=1 )
G0 Z5.0000
G0 X167.0000 Y39.0000
( pocket pass Z-2.00 )
G1 X167.0000 Y39.0000 Z-2.0000 F200.0
G1 X187.0000 Y39.0000 F900.0
G1 X187.0000 Y59.0000 F900.0
G1 X167.0000 Y59.0000 F900.0
G1 X167.0000 Y39.0000 F900.0
G0 Z5.0000
G0 X167.0000 Y39.0000
( pocket pass Z-4.00 )
G1 X167.0000 Y39.0000 Z-4.0000 F200.0
G1 X187.0000 Y39.0000 F900.0
G1 X187.0000 Y59.0000 F900.0
G1 X167.0000 Y59.0000 F900.0
G1 X167.0000 Y39.0000 F900.0
G0 Z5.0000
G0 X167.0000 Y39.0000
( pocket pass Z-6.00 )
G1 X167.0000 Y39.0000 Z-6.0000 F200.0
G1 X187.0000 Y39.0000 F900.0
G1 X187.0000 Y59.0000 F900.0
G1 X167.0000 Y59.0000 F900.0
G1 X167.0000 Y39.0000 F900.0
G0 Z5.0000
G0 X167.0000 Y39.0000
( pocket pass Z-8.00 )
G1 X167.0000 Y39.0000 Z-8.0000 F200.0
G1 X187.0000 Y39.0000 F900.0
G1 X187.0000 Y59.0000 F900.0
G1 X167.0000 Y59.0000 F900.0
G1 X167.0000 Y39.0000 F900.0
G0 Z5.0000
G0 X167.0000 Y39.0000
( pocket pass Z-9.50 )
G1 X167.0000 Y39.0000 Z-9.5000 F200.0
G1 X187.0000 Y39.0000 F900.0
G1 X187.0000 Y59.0000 F900.0
G1 X167.0000 Y59.0000 F900.0
G1 X167.0000 Y39.0000 F900.0
( Feld ix=4 iy=1 )
G0 Z5.0000
G0 X135.0000 Y39.0000
( pocket pass Z-2.00 )
G1 X135.0000 Y39.0000 Z-2.0000 F200.0
G1 X155.0000 Y39.0000 F900.0
G1 X155.0000 Y59.0000 F900.0
G1 X135.0000 Y59.0000 F900.0
G1 X135.0000 Y39.0000 F900.0
G0 Z5.0000
G0 X135.0000 Y39.0000
( pocket pass Z-4.00 )
G1 X135.0000 Y39.0000 Z-4.0000 F200.0
G1 X155.0000 Y39.0000 F900.0
G1 X155.0000 Y59.0000 F900.0
G1 X135.0000 Y59.0000 F900.0
G1 X135.0000 Y39.0000 F900.0
G0 Z5.0000
G0 X135.0000 Y39.0000
( pocket pass Z-6.00 )
G1 X135.0000 Y39.0000 Z-6.0000 F200.0
G1 X155.0000 Y39.0000 F900.0
G1 X155.0000 Y59.0000 F900.0
G1 X135.0000 Y59.0000 F900.0
G1 X135.0000 Y39.0000 F900.0
G0 Z5.0000
G0 X135.0000 Y39.0000
( pocket pass Z-8.00 )
G1 X135.0000 Y39.0000 Z-8.0000 F200.0
G1 X155.0000 Y39.0000 F900.0
G1 X155.0000 Y59.0000 F900.0
G1 X135.0000 Y59.0000 F900.0
G1 X135.0000 Y39.0000 F900.0
G0 Z5.0000
G0 X135.0000 Y39.0000
( pocket pass Z-9.50 )
G1 X135.0000 Y39.0000 Z-9.5000 F200.0
G1 X155.0000 Y39.0000 F900.0
G1 X155.0000 Y59.0000 F900.0
G1 X135.0000 Y59.0000 F900.0
G1 X135.0000 Y39.0000 F900.0
( Feld ix=3 iy=1 )
G0 Z5.0000
G0 X103.0000 Y39.0000
( pocket pass Z-2.00 )
G1 X103.0000 Y39.0000 Z-2.0000 F200.0
G1 X123.0000 Y39.0000 F900.0
G1 X123.0000 Y59.0000 F900.0
G1 X103.0000 Y59.0000 F900.0
G1 X103.0000 Y39.0000 F900.0
G0 Z5.0000
G0 X103.0000 Y39.0000
( pocket pass Z-4.00 )
G1 X103.0000 Y39.0000 Z-4.0000 F200.0
G1 X123.0000 Y39.0000 F900.0
G1 X123.0000 Y59.0000 F900.0
G1 X103.0000 Y59.0000 F900.0
G1 X103.0000 Y39.0000 F900.0
G0 Z5.0000
G0 X103.0000 Y39.0000
( pocket pass Z-6.00 )
G1 X103.0000 Y39.0000 Z-6.0000 F200.0
G1 X123.0000 Y39.0000 F900.0
G1 X123.0000 Y59.0000 F900.0
G1 X103.0000 Y59.0000 F900.0
G1 X103.0000 Y39.0000 F900.0
G0 Z5.0000
G0 X103.0000 Y39.0000
( pocket pass Z-8.00 )
G1 X103.0000 Y39.0000 Z-8.0000 F200.0
G1 X123.0000 Y39.0000 F900.0
G1 X123.0000 Y59.0000 F900.0
G1 X103.0000 Y59.0000 F900.0
G1 X103.0000 Y39.0000 F900.0
G0 Z5.0000
G0 X103.0000 Y39.0000
( pocket pass Z-9.50 )
G1 X103.0000 Y39.0000 Z-9.5000 F200.0
G1 X123.0000 Y39.0000 F900.0
G1 X123.0000 Y59.0000 F900.0
G1 X103.0000 Y59.0000 F900.0
G1 X103.0000 Y39.0000 F900.0
( Feld ix=2 iy=1 )
G0 Z5.0000
G0 X71.0000 Y39.0000
( pocket pass Z-2.00 )
G1 X71.0000 Y39.0000 Z-2.0000 F200.0
G1 X91.0000 Y39.0000 F900.0
G1 X91.0000 Y59.0000 F900.0
G1 X71.0000 Y59.0000 F900.0
G1 X71.0000 Y39.0000 F900.0
G0 Z5.0000
G0 X71.0000 Y39.0000
( pocket pass Z-4.00 )
G1 X71.0000 Y39.0000 Z-4.0000 F200.0
G1 X91.0000 Y39.0000 F900.0
G1 X91.0000 Y59.0000 F900.0
G1 X71.0000 Y59.0000 F900.0
G1 X71.0000 Y39.0000 F900.0
G0 Z5.0000
G0 X71.0000 Y39.0000
( pocket pass Z-6.00 )
G1 X71.0000 Y39.0000 Z-6.0000 F200.0
G1 X91.0000 Y39.0000 F900.0
G1 X91.0000 Y59.0000 F900.0
G1 X71.0000 Y59.0000 F900.0
G1 X71.0000 Y39.0000 F900.0
G0 Z5.0000
G0 X71.0000 Y39.0000
( pocket pass Z-8.00 )
G1 X71.0000 Y39.0000 Z-8.0000 F200.0
G1 X91.0000 Y39.0000 F900.0
G1 X91.0000 Y59.0000 F900.0
G1 X71.0000 Y59.0000 F900.0
G1 X71.0000 Y39.0000 F900.0
G0 Z5.0000
G0 X71.0000 Y39.0000
( pocket pass Z-9.50 )
G1 X71.0000 Y39.0000 Z-9.5000 F200.0
G1 X91.0000 Y39.0000 F900.0
G1 X91.0000 Y59.0000 F900.0
G1 X71.0000 Y59.0000 F900.0
G1 X71.0000 Y39.0000 F900.0
( Feld ix=1 iy=1 )
G0 Z5.0000
G0 X39.0000 Y39.0000
( pocket pass Z-2.00 )
G1 X39.0000 Y39.0000 Z-2.0000 F200.0
G1 X59.0000 Y39.0000 F900.0
G1 X59.0000 Y59.0000 F900.0
G1 X39.0000 Y59.0000 F900.0
G1 X39.0000 Y39.0000 F900.0
G0 Z5.0000
G0 X39.0000 Y39.0000
( pocket pass Z-4.00 )
G1 X39.0000 Y39.0000 Z-4.0000 F200.0
G1 X59.0000 Y39.0000 F900.0
G1 X59.0000 Y59.0000 F900.0
G1 X39.0000 Y59.0000 F900.0
G1 X39.0000 Y39.0000 F900.0
G0 Z5.0000
G0 X39.0000 Y39.0000
( pocket pass Z-6.00 )
G1 X39.0000 Y39.0000 Z-6.0000 F200.0
G1 X59.0000 Y39.0000 F900.0
G1 X59.0000 Y59.0000 F900.0
G1 X39.0000 Y59.0000 F900.0
G1 X39.0000 Y39.0000 F900.0
G0 Z5.0000
G0 X39.0000 Y39.0000
( pocket pass Z-8.00 )
G1 X39.0000 Y39.0000 Z-8.0000 F200.0
G1 X59.0000 Y39.0000 F900.0
G1 X59.0000 Y59.0000 F900.0
G1 X39.0000 Y59.0000 F900.0
G1 X39.0000 Y39.0000 F900.0
G0 Z5.0000
G0 X39.0000 Y39.0000
( pocket pass Z-9.50 )
G1 X39.0000 Y39.0000 Z-9.5000 F200.0
G1 X59.0000 Y39.0000 F900.0
G1 X59.0000 Y59.0000 F900.0
G1 X39.0000 Y59.0000 F900.0
G1 X39.0000 Y39.0000 F900.0
( Feld ix=0 iy=1 )
G0 Z5.0000
G0 X7.0000 Y39.0000
( pocket pass Z-2.00 )
G1 X7.0000 Y39.0000 Z-2.0000 F200.0
G1 X27.0000 Y39.0000 F900.0
G1 X27.0000 Y59.0000 F900.0
G1 X7.0000 Y59.0000 F900.0
G1 X7.0000 Y39.0000 F900.0
G0 Z5.0000
G0 X7.0000 Y39.0000
( pocket pass Z-4.00 )
G1 X7.0000 Y39.0000 Z-4.0000 F200.0
G1 X27.0000 Y39.0000 F900.0
G1 X27.0000 Y59.0000 F900.0
G1 X7.0000 Y59.0000 F900.0
G1 X7.0000 Y39.0000 F900.0
G0 Z5.0000
G0 X7.0000 Y39.0000
( pocket pass Z-6.00 )
G1 X7.0000 Y39.0000 Z-6.0000 F200.0
G1 X27.0000 Y39.0000 F900.0
G1 X27.0000 Y59.0000 F900.0
G1 X7.0000 Y59.0000 F900.0
G1 X7.0000 Y39.0000 F900.0
G0 Z5.0000
G0 X7.0000 Y39.0000
( pocket pass Z-8.00 )
G1 X7.0000 Y39.0000 Z-8.0000 F200.0
G1 X27.0000 Y39.0000 F900.0
G1 X27.0000 Y59.0000 F900.0
G1 X7.0000 Y59.0000 F900.0
G1 X7.0000 Y39.0000 F900.0
G0 Z5.0000
G0 X7.0000 Y39.0000
( pocket pass Z-9.50 )
G1 X7.0000 Y39.0000 Z-9.5000 F200.0
G1 X27.0000 Y39.0000 F900.0
G1 X27.0000 Y59.0000 F900.0
G1 X7.0000 Y59.0000 F900.0
G1 X7.0000 Y39.0000 F900.0
( Feld ix=0 iy=2 )
G0 Z5.0000
G0 X7.0000 Y71.0000
( pocket pass Z-2.00 )
G1 X7.0000 Y71.0000 Z-2.0000 F200.0
G1 X27.0000 Y71.0000 F900.0
G1 X27.0000 Y91.0000 F900.0
G1 X7.0000 Y91.0000 F900.0
G1 X7.0000 Y71.0000 F900.0
G0 Z5.0000
G0 X7.0000 Y71.0000
( pocket pass Z-4.00 )
G1 X7.0000 Y71.0000 Z-4.0000 F200.0
G1 X27.0000 Y71.0000 F900.0
G1 X27.0000 Y91.0000 F900.0
G1 X7.0000 Y91.0000 F900.0
G1 X7.0000 Y71.0000 F900.0
G0 Z5.0000
G0 X7.0000 Y71.0000
( pocket pass Z-6.00 )
G1 X7.0000 Y71.0000 Z-6.0000 F200.0
G1 X27.0000 Y71.0000 F900.0
G1 X27.0000 Y91.0000 F900.0
G1 X7.0000 Y91.0000 F900.0
G1 X7.0000 Y71.0000 F900.0
G0 Z5.0000
G0 X7.0000 Y71.0000
( pocket pass Z-8.00 )
G1 X7.0000 Y71.0000 Z-8.0000 F200.0
G1 X27.0000 Y71.0000 F900.0
G1 X27.0000 Y91.0000 F900.0
G1 X7.0000 Y91.0000 F900.0
G1 X7.0000 Y71.0000 F900.0
G0 Z5.0000
G0 X7.0000 Y71.0000
( pocket pass Z-9.50 )
G1 X7.0000 Y71.0000 Z-9.5000 F200.0
G1 X27.0000 Y71.0000 F900.0
G1 X27.0000 Y91.0000 F900.0
G1 X7.0000 Y91.0000 F900.0
G1 X7.0000 Y71.0000 F900.0
( Feld ix=1 iy=2 )
G0 Z5.0000
G0 X39.0000 Y71.0000
( pocket pass Z-2.00 )
G1 X39.0000 Y71.0000 Z-2.0000 F200.0
G1 X59.0000 Y71.0000 F900.0
G1 X59.0000 Y91.0000 F900.0
G1 X39.0000 Y91.0000 F900.0
G1 X39.0000 Y71.0000 F900.0
G0 Z5.0000
G0 X39.0000 Y71.0000
( pocket pass Z-4.00 )
G1 X39.0000 Y71.0000 Z-4.0000 F200.0
G1 X59.0000 Y71.0000 F900.0
G1 X59.0000 Y91.0000 F900.0
G1 X39.0000 Y91.0000 F900.0
G1 X39.0000 Y71.0000 F900.0
G0 Z5.0000
G0 X39.0000 Y71.0000
( pocket pass Z-6.00 )
G1 X39.0000 Y71.0000 Z-6.0000 F200.0
G1 X59.0000 Y71.0000 F900.0
G1 X59.0000 Y91.0000 F900.0
G1 X39.0000 Y91.0000 F900.0
G1 X39.0000 Y71.0000 F900.0
G0 Z5.0000
G0 X39.0000 Y71.0000
( pocket pass Z-8.00 )
G1 X39.0000 Y71.0000 Z-8.0000 F200.0
G1 X59.0000 Y71.0000 F900.0
G1 X59.0000 Y91.0000 F900.0
G1 X39.0000 Y91.0000 F900.0
G1 X39.0000 Y71.0000 F900.0
G0 Z5.0000
G0 X39.0000 Y71.0000
( pocket pass Z-9.50 )
G1 X39.0000 Y71.0000 Z-9.5000 F200.0
G1 X59.0000 Y71.0000 F900.0
G1 X59.0000 Y91.0000 F900.0
G1 X39.0000 Y91.0000 F900.0
G1 X39.0000 Y71.0000 F900.0
( Feld ix=2 iy=2 )
G0 Z5.0000
G0 X71.0000 Y71.0000
( pocket pass Z-2.00 )
G1 X71.0000 Y71.0000 Z-2.0000 F200.0
G1 X91.0000 Y71.0000 F900.0
G1 X91.0000 Y91.0000 F900.0
G1 X71.0000 Y91.0000 F900.0
G1 X71.0000 Y71.0000 F900.0
G0 Z5.0000
G0 X71.0000 Y71.0000
( pocket pass Z-4.00 )
G1 X71.0000 Y71.0000 Z-4.0000 F200.0
G1 X91.0000 Y71.0000 F900.0
G1 X91.0000 Y91.0000 F900.0
G1 X71.0000 Y91.0000 F900.0
G1 X71.0000 Y71.0000 F900.0
G0 Z5.0000
G0 X71.0000 Y71.0000
( pocket pass Z-6.00 )
G1 X71.0000 Y71.0000 Z-6.0000 F200.0
G1 X91.0000 Y71.0000 F900.0
G1 X91.0000 Y91.0000 F900.0
G1 X71.0000 Y91.0000 F900.0
G1 X71.0000 Y71.0000 F900.0
G0 Z5.0000
G0 X71.0000 Y71.0000
( pocket pass Z-8.00 )
G1 X71.0000 Y71.0000 Z-8.0000 F200.0
G1 X91.0000 Y71.0000 F900.0
G1 X91.0000 Y91.0000 F900.0
G1 X71.0000 Y91.0000 F900.0
G1 X71.0000 Y71.0000 F900.0
G0 Z5.0000
G0 X71.0000 Y71.0000
( pocket pass Z-9.50 )
G1 X71.0000 Y71.0000 Z-9.5000 F200.0
G1 X91.0000 Y71.0000 F900.0
G1 X91.0000 Y91.0000 F900.0
G1 X71.0000 Y91.0000 F900.0
G1 X71.0000 Y71.0000 F900.0
( Feld ix=3 iy=2 )
G0 Z5.0000
G0 X103.0000 Y71.0000
( pocket pass Z-2.00 )
G1 X103.0000 Y71.0000 Z-2.0000 F200.0
G1 X123.0000 Y71.0000 F900.0
G1 X123.0000 Y91.0000 F900.0
G1 X103.0000 Y91.0000 F900.0
G1 X103.0000 Y71.0000 F900.0
G0 Z5.0000
G0 X103.0000 Y71.0000
( pocket pass Z-4.00 )
G1 X103.0000 Y71.0000 Z-4.0000 F200.0
G1 X123.0000 Y71.0000 F900.0
G1 X123.0000 Y91.0000 F900.0
G1 X103.0000 Y91.0000 F900.0
G1 X103.0000 Y71.0000 F900.0
G0 Z5.0000
G0 X103.0000 Y71.0000
( pocket pass Z-6.00 )
G1 X103.0000 Y71.0000 Z-6.0000 F200.0
G1 X123.0000 Y71.0000 F900.0
G1 X123.0000 Y91.0000 F900.0
G1 X103.0000 Y91.0000 F900.0
G1 X103.0000 Y71.0000 F900.0
G0 Z5.0000
G0 X103.0000 Y71.0000
( pocket pass Z-8.00 )
G1 X103.0000 Y71.0000 Z-8.0000 F200.0
G1 X123.0000 Y71.0000 F900.0
G1 X123.0000 Y91.0000 F900.0
G1 X103.0000 Y91.0000 F900.0
G1 X103.0000 Y71.0000 F900.0
G0 Z5.0000
G0 X103.0000 Y71.0000
( pocket pass Z-9.50 )
G1 X103.0000 Y71.0000 Z-9.5000 F200.0
G1 X123.0000 Y71.0000 F900.0
G1 X123.0000 Y91.0000 F900.0
G1 X103.0000 Y91.0000 F900.0
G1 X103.0000 Y71.0000 F900.0
( Feld ix=4 iy=2 )
G0 Z5.0000
G0 X135.0000 Y71.0000
( pocket pass Z-2.00 )
G1 X135.0000 Y71.0000 Z-2.0000 F200.0
G1 X155.0000 Y71.0000 F900.0
G1 X155.0000 Y91.0000 F900.0
G1 X135.0000 Y91.0000 F900.0
G1 X135.0000 Y71.0000 F900.0
G0 Z5.0000
G0 X135.0000 Y71.0000
( pocket pass Z-4.00 )
G1 X135.0000 Y71.0000 Z-4.0000 F200.0
G1 X155.0000 Y71.0000 F900.0
G1 X155.0000 Y91.0000 F900.0
G1 X135.0000 Y91.0000 F900.0
G1 X135.0000 Y71.0000 F900.0
G0 Z5.0000
G0 X135.0000 Y71.0000
( pocket pass Z-6.00 )
G1 X135.0000 Y71.0000 Z-6.0000 F200.0
G1 X155.0000 Y71.0000 F900.0
G1 X155.0000 Y91.0000 F900.0
G1 X135.0000 Y91.0000 F900.0
G1 X135.0000 Y71.0000 F900.0
G0 Z5.0000
G0 X135.0000 Y71.0000
( pocket pass Z-8.00 )
G1 X135.0000 Y71.0000 Z-8.0000 F200.0
G1 X155.0000 Y71.0000 F900.0
G1 X155.0000 Y91.0000 F900.0
G1 X135.0000 Y91.0000 F900.0
G1 X135.0000 Y71.0000 F900.0
G0 Z5.0000
G0 X135.0000 Y71.0000
( pocket pass Z-9.50 )
G1 X135.0000 Y71.0000 Z-9.5000 F200.0
G1 X155.0000 Y71.0000 F900.0
G1 X155.0000 Y91.0000 F900.0
G1 X135.0000 Y91.0000 F900.0
G1 X135.0000 Y71.0000 F900.0
( Feld ix=5 iy=2 )
G0 Z5.0000
G0 X167.0000 Y71.0000
( pocket pass Z-2.00 )
G1 X167.0000 Y71.0000 Z-2.0000 F200.0
G1 X187.0000 Y71.0000 F900.0
G1 X187.0000 Y91.0000 F900.0
G1 X167.0000 Y91.0000 F900.0
G1 X167.0000 Y71.0000 F900.0
G0 Z5.0000
G0 X167.0000 Y71.0000
( pocket pass Z-4.00 )
G1 X167.0000 Y71.0000 Z-4.0000 F200.0
G1 X187.0000 Y71.0000 F900.0
G1 X187.0000 Y91.0000 F900.0
G1 X167.0000 Y91.0000 F900.0
G1 X167.0000 Y71.0000 F900.0
G0 Z5.0000
G0 X167.0000 Y71.0000
( pocket pass Z-6.00 )
G1 X167.0000 Y71.0000 Z-6.0000 F200.0
G1 X187.0000 Y71.0000 F900.0
G1 X187.0000 Y91.0000 F900.0
G1 X167.0000 Y91.0000 F900.0
G1 X167.0000 Y71.0000 F900.0
G0 Z5.0000
G0 X167.0000 Y71.0000
( pocket pass Z-8.00 )
G1 X167.0000 Y71.0000 Z-8.0000 F200.0
G1 X187.0000 Y71.0000 F900.0
G1 X187.0000 Y91.0000 F900.0
G1 X167.0000 Y91.0000 F900.0
G1 X167.0000 Y71.0000 F900.0
G0 Z5.0000
G0 X167.0000 Y71.0000
( pocket pass Z-9.50 )
G1 X167.0000 Y71.0000 Z-9.5000 F200.0
G1 X187.0000 Y71.0000 F900.0
G1 X187.0000 Y91.0000 F900.0
G1 X167.0000 Y91.0000 F900.0
G1 X167.0000 Y71.0000 F900.0
( Feld ix=5 iy=3 )
G0 Z5.0000
G0 X167.0000 Y103.0000
( pocket pass Z-2.00 )
G1 X167.0000 Y103.0000 Z-2.0000 F200.0
G1 X187.0000 Y103.0000 F900.0
G1 X187.0000 Y123.0000 F900.0
G1 X167.0000 Y123.0000 F900.0
G1 X167.0000 Y103.0000 F900.0
G0 Z5.0000
G0 X167.0000 Y103.0000
( pocket pass Z-4.00 )
G1 X167.0000 Y103.0000 Z-4.0000 F200.0
G1 X187.0000 Y103.0000 F900.0
G1 X187.0000 Y123.0000 F900.0
G1 X167.0000 Y123.0000 F900.0
G1 X167.0000 Y103.0000 F900.0
G0 Z5.0000
G0 X167.0000 Y103.0000
( pocket pass Z-6.00 )
G1 X167.0000 Y103.0000 Z-6.0000 F200.0
G1 X187.0000 Y103.0000 F900.0
G1 X187.0000 Y123.0000 F900.0
G1 X167.0000 Y123.0000 F900.0
G1 X167.0000 Y103.0000 F900.0
G0 Z5.0000
G0 X167.0000 Y103.0000
( pocket pass Z-8.00 )
G1 X167.0000 Y103.0000 Z-8.0000 F200.0
G1 X187.0000 Y103.0000 F900.0
G1 X187.0000 Y123.0000 F900.0
G1 X167.0000 Y123.0000 F900.0
G1 X167.0000 Y103.0000 F900.0
G0 Z5.0000
G0 X167.0000 Y103.0000
( pocket pass Z-9.50 )
G1 X167.0000 Y103.0000 Z-9.5000 F200.0
G1 X187.0000 Y103.0000 F900.0
G1 X187.0000 Y123.0000 F900.0
G1 X167.0000 Y123.0000 F900.0
G1 X167.0000 Y103.0000 F900.0
( Feld ix=4 iy=3 )
G0 Z5.0000
G0 X135.0000 Y103.0000
( pocket pass Z-2.00 )
G1 X135.0000 Y103.0000 Z-2.0000 F200.0
G1 X155.0000 Y103.0000 F900.0
G1 X155.0000 Y123.0000 F900.0
G1 X135.0000 Y123.0000 F900.0
G1 X135.0000 Y103.0000 F900.0
G0 Z5.0000
G0 X135.0000 Y103.0000
( pocket pass Z-4.00 )
G1 X135.0000 Y103.0000 Z-4.0000 F200.0
G1 X155.0000 Y103.0000 F900.0
G1 X155.0000 Y123.0000 F900.0
G1 X135.0000 Y123.0000 F900.0
G1 X135.0000 Y103.0000 F900.0
G0 Z5.0000
G0 X135.0000 Y103.0000
( pocket pass Z-6.00 )
G1 X135.0000 Y103.0000 Z-6.0000 F200.0
G1 X155.0000 Y103.0000 F900.0
G1 X155.0000 Y123.0000 F900.0
G1 X135.0000 Y123.0000 F900.0
G1 X135.0000 Y103.0000 F900.0
G0 Z5.0000
G0 X135.0000 Y103.0000
( pocket pass Z-8.00 )
G1 X135.0000 Y103.0000 Z-8.0000 F200.0
G1 X155.0000 Y103.0000 F900.0
G1 X155.0000 Y123.0000 F900.0
G1 X135.0000 Y123.0000 F900.0
G1 X135.0000 Y103.0000 F900.0
G0 Z5.0000
G0 X135.0000 Y103.0000
( pocket pass Z-9.50 )
G1 X135.0000 Y103.0000 Z-9.5000 F200.0
G1 X155.0000 Y103.0000 F900.0
G1 X155.0000 Y123.0000 F900.0
G1 X135.0000 Y123.0000 F900.0
G1 X135.0000 Y103.0000 F900.0
( Feld ix=3 iy=3 )
G0 Z5.0000
G0 X103.0000 Y103.0000
( pocket pass Z-2.00 )
G1 X103.0000 Y103.0000 Z-2.0000 F200.0
G1 X123.0000 Y103.0000 F900.0
G1 X123.0000 Y123.0000 F900.0
G1 X103.0000 Y123.0000 F900.0
G1 X103.0000 Y103.0000 F900.0
G0 Z5.0000
G0 X103.0000 Y103.0000
( pocket pass Z-4.00 )
G1 X103.0000 Y103.0000 Z-4.0000 F200.0
G1 X123.0000 Y103.0000 F900.0
G1 X123.0000 Y123.0000 F900.0
G1 X103.0000 Y123.0000 F900.0
G1 X103.0000 Y103.0000 F900.0
G0 Z5.0000
G0 X103.0000 Y103.0000
( pocket pass Z-6.00 )
G1 X103.0000 Y103.0000 Z-6.0000 F200.0
G1 X123.0000 Y103.0000 F900.0
G1 X123.0000 Y123.0000 F900.0
G1 X103.0000 Y123.0000 F900.0
G1 X103.0000 Y103.0000 F900.0
G0 Z5.0000
G0 X103.0000 Y103.0000
( pocket pass Z-8.00 )
G1 X103.0000 Y103.0000 Z-8.0000 F200.0
G1 X123.0000 Y103.0000 F900.0
G1 X123.0000 Y123.0000 F900.0
G1 X103.0000 Y123.0000 F900.0
G1 X103.0000 Y103.0000 F900.0
G0 Z5.0000
G0 X103.0000 Y103.0000
( pocket pass Z-9.50 )
G1 X103.0000 Y103.0000 Z-9.5000 F200.0
G1 X123.0000 Y103.0000 F900.0
G1 X123.0000 Y123.0000 F900.0
G1 X103.0000 Y123.0000 F900.0
G1 X103.0000 Y103.0000 F900.0
( Feld ix=2 iy=3 )
G0 Z5.0000
G0 X71.0000 Y103.0000
( pocket pass Z-2.00 )
G1 X71.0000 Y103.0000 Z-2.0000 F200.0
G1 X91.0000 Y103.0000 F900.0
G1 X91.0000 Y123.0000 F900.0
G1 X71.0000 Y123.0000 F900.0
G1 X71.0000 Y103.0000 F900.0
G0 Z5.0000
G0 X71.0000 Y103.0000
( pocket pass Z-4.00 )
G1 X71.0000 Y103.0000 Z-4.0000 F200.0
G1 X91.0000 Y103.0000 F900.0
G1 X91.0000 Y123.0000 F900.0
G1 X71.0000 Y123.0000 F900.0
G1 X71.0000 Y103.0000 F900.0
G0 Z5.0000
G0 X71.0000 Y103.0000
( pocket pass Z-6.00 )
G1 X71.0000 Y103.0000 Z-6.0000 F200.0
G1 X91.0000 Y103.0000 F900.0
G1 X91.0000 Y123.0000 F900.0
G1 X71.0000 Y123.0000 F900.0
G1 X71.0000 Y103.0000 F900.0
G0 Z5.0000
G0 X71.0000 Y103.0000
( pocket pass Z-8.00 )
G1 X71.0000 Y103.0000 Z-8.0000 F200.0
G1 X91.0000 Y103.0000 F900.0
G1 X91.0000 Y123.0000 F900.0
G1 X71.0000 Y123.0000 F900.0
G1 X71.0000 Y103.0000 F900.0
G0 Z5.0000
G0 X71.0000 Y103.0000
( pocket pass Z-9.50 )
G1 X71.0000 Y103.0000 Z-9.5000 F200.0
G1 X91.0000 Y103.0000 F900.0
G1 X91.0000 Y123.0000 F900.0
G1 X71.0000 Y123.0000 F900.0
G1 X71.0000 Y103.0000 F900.0
( Feld ix=1 iy=3 )
G0 Z5.0000
G0 X39.0000 Y103.0000
( pocket pass Z-2.00 )
G1 X39.0000 Y103.0000 Z-2.0000 F200.0
G1 X59.0000 Y103.0000 F900.0
G1 X59.0000 Y123.0000 F900.0
G1 X39.0000 Y123.0000 F900.0
G1 X39.0000 Y103.0000 F900.0
G0 Z5.0000
G0 X39.0000 Y103.0000
( pocket pass Z-4.00 )
G1 X39.0000 Y103.0000 Z-4.0000 F200.0
G1 X59.0000 Y103.0000 F900.0
G1 X59.0000 Y123.0000 F900.0
G1 X39.0000 Y123.0000 F900.0
G1 X39.0000 Y103.0000 F900.0
G0 Z5.0000
G0 X39.0000 Y103.0000
( pocket pass Z-6.00 )
G1 X39.0000 Y103.0000 Z-6.0000 F200.0
G1 X59.0000 Y103.0000 F900.0
G1 X59.0000 Y123.0000 F900.0
G1 X39.0000 Y123.0000 F900.0
G1 X39.0000 Y103.0000 F900.0
G0 Z5.0000
G0 X39.0000 Y103.0000
( pocket pass Z-8.00 )
G1 X39.0000 Y103.0000 Z-8.0000 F200.0
G1 X59.0000 Y103.0000 F900.0
G1 X59.0000 Y123.0000 F900.0
G1 X39.0000 Y123.0000 F900.0
G1 X39.0000 Y103.0000 F900.0
G0 Z5.0000
G0 X39.0000 Y103.0000
( pocket pass Z-9.50 )
G1 X39.0000 Y103.0000 Z-9.5000 F200.0
G1 X59.0000 Y103.0000 F900.0
G1 X59.0000 Y123.0000 F900.0
G1 X39.0000 Y123.0000 F900.0
G1 X39.0000 Y103.0000 F900.0
( Feld ix=0 iy=3 )
G0 Z5.0000
G0 X7.0000 Y103.0000
( pocket pass Z-2.00 )
G1 X7.0000 Y103.0000 Z-2.0000 F200.0
G1 X27.0000 Y103.0000 F900.0
G1 X27.0000 Y123.0000 F900.0
G1 X7.0000 Y123.0000 F900.0
G1 X7.0000 Y103.0000 F900.0
G0 Z5.0000
G0 X7.0000 Y103.0000
( pocket pass Z-4.00 )
G1 X7.0000 Y103.0000 Z-4.0000 F200.0
G1 X27.0000 Y103.0000 F900.0
G1 X27.0000 Y123.0000 F900.0
G1 X7.0000 Y123.0000 F900.0
G1 X7.0000 Y103.0000 F900.0
G0 Z5.0000
G0 X7.0000 Y103.0000
( pocket pass Z-6.00 )
G1 X7.0000 Y103.0000 Z-6.0000 F200.0
G1 X27.0000 Y103.0000 F900.0
G1 X27.0000 Y123.0000 F900.0
G1 X7.0000 Y123.0000 F900.0
G1 X7.0000 Y103.0000 F900.0
G0 Z5.0000
G0 X7.0000 Y103.0000
( pocket pass Z-8.00 )
G1 X7.0000 Y103.0000 Z-8.0000 F200.0
G1 X27.0000 Y103.0000 F900.0
G1 X27.0000 Y123.0000 F900.0
G1 X7.0000 Y123.0000 F900.0
G1 X7.0000 Y103.0000 F900.0
G0 Z5.0000
G0 X7.0000 Y103.0000
( pocket pass Z-9.50 )
G1 X7.0000 Y103.0000 Z-9.5000 F200.0
G1 X27.0000 Y103.0000 F900.0
G1 X27.0000 Y123.0000 F900.0
G1 X7.0000 Y123.0000 F900.0
G1 X7.0000 Y103.0000 F900.0
( Feld ix=0 iy=4 )
G0 Z5.0000
G0 X7.0000 Y135.0000
( pocket pass Z-2.00 )
G1 X7.0000 Y135.0000 Z-2.0000 F200.0
G1 X27.0000 Y135.0000 F900.0
G1 X27.0000 Y155.0000 F900.0
G1 X7.0000 Y155.0000 F900.0
G1 X7.0000 Y135.0000 F900.0
G0 Z5.0000
G0 X7.0000 Y135.0000
( pocket pass Z-4.00 )
G1 X7.0000 Y135.0000 Z-4.0000 F200.0
G1 X27.0000 Y135.0000 F900.0
G1 X27.0000 Y155.0000 F900.0
G1 X7.0000 Y155.0000 F900.0
G1 X7.0000 Y135.0000 F900.0
G0 Z5.0000
G0 X7.0000 Y135.0000
( pocket pass Z-6.00 )
G1 X7.0000 Y135.0000 Z-6.0000 F200.0
G1 X27.0000 Y135.0000 F900.0
G1 X27.0000 Y155.0000 F900.0
G1 X7.0000 Y155.0000 F900.0
G1 X7.0000 Y135.0000 F900.0
G0 Z5.0000
G0 X7.0000 Y135.0000
( pocket pass Z-8.00 )
G1 X7.0000 Y135.0000 Z-8.0000 F200.0
G1 X27.0000 Y135.0000 F900.0
G1 X27.0000 Y155.0000 F900.0
G1 X7.0000 Y155.0000 F900.0
G1 X7.0000 Y135.0000 F900.0
G0 Z5.0000
G0 X7.0000 Y135.0000
( pocket pass Z-9.50 )
G1 X7.0000 Y135.0000 Z-9.5000 F200.0
G1 X27.0000 Y135.0000 F900.0
G1 X27.0000 Y155.0000 F900.0
G1 X7.0000 Y155.0000 F900.0
G1 X7.0000 Y135.0000 F900.0
( Feld ix=1 iy=4 )
G0 Z5.0000
G0 X39.0000 Y135.0000
( pocket pass Z-2.00 )
G1 X39.0000 Y135.0000 Z-2.0000 F200.0
G1 X59.0000 Y135.0000 F900.0
G1 X59.0000 Y155.0000 F900.0
G1 X39.0000 Y155.0000 F900.0
G1 X39.0000 Y135.0000 F900.0
G0 Z5.0000
G0 X39.0000 Y135.0000
( pocket pass Z-4.00 )
G1 X39.0000 Y135.0000 Z-4.0000 F200.0
G1 X59.0000 Y135.0000 F900.0
G1 X59.0000 Y155.0000 F900.0
G1 X39.0000 Y155.0000 F900.0
G1 X39.0000 Y135.0000 F900.0
G0 Z5.0000
G0 X39.0000 Y135.0000
( pocket pass Z-6.00 )
G1 X39.0000 Y135.0000 Z-6.0000 F200.0
G1 X59.0000 Y135.0000 F900.0
G1 X59.0000 Y155.0000 F900.0
G1 X39.0000 Y155.0000 F900.0
G1 X39.0000 Y135.0000 F900.0
G0 Z5.0000
G0 X39.0000 Y135.0000
( pocket pass Z-8.00 )
G1 X39.0000 Y135.0000 Z-8.0000 F200.0
G1 X59.0000 Y135.0000 F900.0
G1 X59.0000 Y155.0000 F900.0
G1 X39.0000 Y155.0000 F900.0
G1 X39.0000 Y135.0000 F900.0
G0 Z5.0000
G0 X39.0000 Y135.0000
( pocket pass Z-9.50 )
G1 X39.0000 Y135.0000 Z-9.5000 F200.0
G1 X59.0000 Y135.0000 F900.0
G1 X59.0000 Y155.0000 F900.0
G1 X39.0000 Y155.0000 F900.0
G1 X39.0000 Y135.0000 F900.0
( Feld ix=2 iy=4 )
G0 Z5.0000
G0 X71.0000 Y135.0000
( pocket pass Z-2.00 )
G1 X71.0000 Y135.0000 Z-2.0000 F200.0
G1 X91.0000 Y135.0000 F900.0
G1 X91.0000 Y155.0000 F900.0
G1 X71.0000 Y155.0000 F900.0
G1 X71.0000 Y135.0000 F900.0
G0 Z5.0000
G0 X71.0000 Y135.0000
( pocket pass Z-4.00 )
G1 X71.0000 Y135.0000 Z-4.0000 F200.0
G1 X91.0000 Y135.0000 F900.0
G1 X91.0000 Y155.0000 F900.0
G1 X71.0000 Y155.0000 F900.0
G1 X71.0000 Y135.0000 F900.0
G0 Z5.0000
G0 X71.0000 Y135.0000
( pocket pass Z-6.00 )
G1 X71.0000 Y135.0000 Z-6.0000 F200.0
G1 X91.0000 Y135.0000 F900.0
G1 X91.0000 Y155.0000 F900.0
G1 X71.0000 Y155.0000 F900.0
G1 X71.0000 Y135.0000 F900.0
G0 Z5.0000
G0 X71.0000 Y135.0000
( pocket pass Z-8.00 )
G1 X71.0000 Y135.0000 Z-8.0000 F200.0
G1 X91.0000 Y135.0000 F900.0
G1 X91.0000 Y155.0000 F900.0
G1 X71.0000 Y155.0000 F900.0
G1 X71.0000 Y135.0000 F900.0
G0 Z5.0000
G0 X71.0000 Y135.0000
( pocket pass Z-9.50 )
G1 X71.0000 Y135.0000 Z-9.5000 F200.0
G1 X91.0000 Y135.0000 F900.0
G1 X91.0000 Y155.0000 F900.0
G1 X71.0000 Y155.0000 F900.0
G1 X71.0000 Y135.0000 F900.0
( Feld ix=3 iy=4 )
G0 Z5.0000
G0 X103.0000 Y135.0000
( pocket pass Z-2.00 )
G1 X103.0000 Y135.0000 Z-2.0000 F200.0
G1 X123.0000 Y135.0000 F900.0
G1 X123.0000 Y155.0000 F900.0
G1 X103.0000 Y155.0000 F900.0
G1 X103.0000 Y135.0000 F900.0
G0 Z5.0000
G0 X103.0000 Y135.0000
( pocket pass Z-4.00 )
G1 X103.0000 Y135.0000 Z-4.0000 F200.0
G1 X123.0000 Y135.0000 F900.0
G1 X123.0000 Y155.0000 F900.0
G1 X103.0000 Y155.0000 F900.0
G1 X103.0000 Y135.0000 F900.0
G0 Z5.0000
G0 X103.0000 Y135.0000
( pocket pass Z-6.00 )
G1 X103.0000 Y135.0000 Z-6.0000 F200.0
G1 X123.0000 Y135.0000 F900.0
G1 X123.0000 Y155.0000 F900.0
G1 X103.0000 Y155.0000 F900.0
G1 X103.0000 Y135.0000 F900.0
G0 Z5.0000
G0 X103.0000 Y135.0000
( pocket pass Z-8.00 )
G1 X103.0000 Y135.0000 Z-8.0000 F200.0
G1 X123.0000 Y135.0000 F900.0
G1 X123.0000 Y155.0000 F900.0
G1 X103.0000 Y155.0000 F900.0
G1 X103.0000 Y135.0000 F900.0
G0 Z5.0000
G0 X103.0000 Y135.0000
( pocket pass Z-9.50 )
G1 X103.0000 Y135.0000 Z-9.5000 F200.0
G1 X123.0000 Y135.0000 F900.0
G1 X123.0000 Y155.0000 F900.0
G1 X103.0000 Y155.0000 F900.0
G1 X103.0000 Y135.0000 F900.0
( Feld ix=4 iy=4 )
G0 Z5.0000
G0 X135.0000 Y135.0000
( pocket pass Z-2.00 )
G1 X135.0000 Y135.0000 Z-2.0000 F200.0
G1 X155.0000 Y135.0000 F900.0
G1 X155.0000 Y155.0000 F900.0
G1 X135.0000 Y155.0000 F900.0
G1 X135.0000 Y135.0000 F900.0
G0 Z5.0000
G0 X135.0000 Y135.0000
( pocket pass Z-4.00 )
G1 X135.0000 Y135.0000 Z-4.0000 F200.0
G1 X155.0000 Y135.0000 F900.0
G1 X155.0000 Y155.0000 F900.0
G1 X135.0000 Y155.0000 F900.0
G1 X135.0000 Y135.0000 F900.0
G0 Z5.0000
G0 X135.0000 Y135.0000
( pocket pass Z-6.00 )
G1 X135.0000 Y135.0000 Z-6.0000 F200.0
G1 X155.0000 Y135.0000 F900.0
G1 X155.0000 Y155.0000 F900.0
G1 X135.0000 Y155.0000 F900.0
G1 X135.0000 Y135.0000 F900.0
G0 Z5.0000
G0 X135.0000 Y135.0000
( pocket pass Z-8.00 )
G1 X135.0000 Y135.0000 Z-8.0000 F200.0
G1 X155.0000 Y135.0000 F900.0
G1 X155.0000 Y155.0000 F900.0
G1 X135.0000 Y155.0000 F900.0
G1 X135.0000 Y135.0000 F900.0
G0 Z5.0000
G0 X135.0000 Y135.0000
( pocket pass Z-9.50 )
G1 X135.0000 Y135.0000 Z-9.5000 F200.0
G1 X155.0000 Y135.0000 F900.0
G1 X155.0000 Y155.0000 F900.0
G1 X135.0000 Y155.0000 F900.0
G1 X135.0000 Y135.0000 F900.0
( Feld ix=5 iy=4 )
G0 Z5.0000
G0 X167.0000 Y135.0000
( pocket pass Z-2.00 )
G1 X167.0000 Y135.0000 Z-2.0000 F200.0
G1 X187.0000 Y135.0000 F900.0
G1 X187.0000 Y155.0000 F900.0
G1 X167.0000 Y155.0000 F900.0
G1 X167.0000 Y135.0000 F900.0
G0 Z5.0000
G0 X167.0000 Y135.0000
( pocket pass Z-4.00 )
G1 X167.0000 Y135.0000 Z-4.0000 F200.0
G1 X187.0000 Y135.0000 F900.0
G1 X187.0000 Y155.0000 F900.0
G1 X167.0000 Y155.0000 F900.0
G1 X167.0000 Y135.0000 F900.0
G0 Z5.0000
G0 X167.0000 Y135.0000
( pocket pass Z-6.00 )
G1 X167.0000 Y135.0000 Z-6.0000 F200.0
G1 X187.0000 Y135.0000 F900.0
G1 X187.0000 Y155.0000 F900.0
G1 X167.0000 Y155.0000 F900.0
G1 X167.0000 Y135.0000 F900.0
G0 Z5.0000
G0 X167.0000 Y135.0000
( pocket pass Z-8.00 )
G1 X167.0000 Y135.0000 Z-8.0000 F200.0
G1 X187.0000 Y135.0000 F900.0
G1 X187.0000 Y155.0000 F900.0
G1 X167.0000 Y155.0000 F900.0
G1 X167.0000 Y135.0000 F900.0
G0 Z5.0000
G0 X167.0000 Y135.0000
( pocket pass Z-9.50 )
G1 X167.0000 Y135.0000 Z-9.5000 F200.0
G1 X187.0000 Y135.0000 F900.0
G1 X187.0000 Y155.0000 F900.0
G1 X167.0000 Y155.0000 F900.0
G1 X167.0000 Y135.0000 F900.0
( Feld ix=5 iy=5 )
G0 Z5.0000
G0 X167.0000 Y167.0000
( pocket pass Z-2.00 )
G1 X167.0000 Y167.0000 Z-2.0000 F200.0
G1 X187.0000 Y167.0000 F900.0
G1 X187.0000 Y187.0000 F900.0
G1 X167.0000 Y187.0000 F900.0
G1 X167.0000 Y167.0000 F900.0
G0 Z5.0000
G0 X167.0000 Y167.0000
( pocket pass Z-4.00 )
G1 X167.0000 Y167.0000 Z-4.0000 F200.0
G1 X187.0000 Y167.0000 F900.0
G1 X187.0000 Y187.0000 F900.0
G1 X167.0000 Y187.0000 F900.0
G1 X167.0000 Y167.0000 F900.0
G0 Z5.0000
G0 X167.0000 Y167.0000
( pocket pass Z-6.00 )
G1 X167.0000 Y167.0000 Z-6.0000 F200.0
G1 X187.0000 Y167.0000 F900.0
G1 X187.0000 Y187.0000 F900.0
G1 X167.0000 Y187.0000 F900.0
G1 X167.0000 Y167.0000 F900.0
G0 Z5.0000
G0 X167.0000 Y167.0000
( pocket pass Z-8.00 )
G1 X167.0000 Y167.0000 Z-8.0000 F200.0
G1 X187.0000 Y167.0000 F900.0
G1 X187.0000 Y187.0000 F900.0
G1 X167.0000 Y187.0000 F900.0
G1 X167.0000 Y167.0000 F900.0
G0 Z5.0000
G0 X167.0000 Y167.0000
( pocket pass Z-9.50 )
G1 X167.0000 Y167.0000 Z-9.5000 F200.0
G1 X187.0000 Y167.0000 F900.0
G1 X187.0000 Y187.0000 F900.0
G1 X167.0000 Y187.0000 F900.0
G1 X167.0000 Y167.0000 F900.0
( Feld ix=4 iy=5 )
G0 Z5.0000
G0 X135.0000 Y167.0000
( pocket pass Z-2.00 )
G1 X135.0000 Y167.0000 Z-2.0000 F200.0
G1 X155.0000 Y167.0000 F900.0
G1 X155.0000 Y187.0000 F900.0
G1 X135.0000 Y187.0000 F900.0
G1 X135.0000 Y167.0000 F900.0
G0 Z5.0000
G0 X135.0000 Y167.0000
( pocket pass Z-4.00 )
G1 X135.0000 Y167.0000 Z-4.0000 F200.0
G1 X155.0000 Y167.0000 F900.0
G1 X155.0000 Y187.0000 F900.0
G1 X135.0000 Y187.0000 F900.0
G1 X135.0000 Y167.0000 F900.0
G0 Z5.0000
G0 X135.0000 Y167.0000
( pocket pass Z-6.00 )
G1 X135.0000 Y167.0000 Z-6.0000 F200.0
G1 X155.0000 Y167.0000 F900.0
G1 X155.0000 Y187.0000 F900.0
G1 X135.0000 Y187.0000 F900.0
G1 X135.0000 Y167.0000 F900.0
G0 Z5.0000
G0 X135.0000 Y167.0000
( pocket pass Z-8.00 )
G1 X135.0000 Y167.0000 Z-8.0000 F200.0
G1 X155.0000 Y167.0000 F900.0
G1 X155.0000 Y187.0000 F900.0
G1 X135.0000 Y187.0000 F900.0
G1 X135.0000 Y167.0000 F900.0
G0 Z5.0000
G0 X135.0000 Y167.0000
( pocket pass Z-9.50 )
G1 X135.0000 Y167.0000 Z-9.5000 F200.0
G1 X155.0000 Y167.0000 F900.0
G1 X155.0000 Y187.0000 F900.0
G1 X135.0000 Y187.0000 F900.0
G1 X135.0000 Y167.0000 F900.0
( Feld ix=3 iy=5 )
G0 Z5.0000
G0 X103.0000 Y167.0000
( pocket pass Z-2.00 )
G1 X103.0000 Y167.0000 Z-2.0000 F200.0
G1 X123.0000 Y167.0000 F900.0
G1 X123.0000 Y187.0000 F900.0
G1 X103.0000 Y187.0000 F900.0
G1 X103.0000 Y167.0000 F900.0
G0 Z5.0000
G0 X103.0000 Y167.0000
( pocket pass Z-4.00 )
G1 X103.0000 Y167.0000 Z-4.0000 F200.0
G1 X123.0000 Y167.0000 F900.0
G1 X123.0000 Y187.0000 F900.0
G1 X103.0000 Y187.0000 F900.0
G1 X103.0000 Y167.0000 F900.0
G0 Z5.0000
G0 X103.0000 Y167.0000
( pocket pass Z-6.00 )
G1 X103.0000 Y167.0000 Z-6.0000 F200.0
G1 X123.0000 Y167.0000 F900.0
G1 X123.0000 Y187.0000 F900.0
G1 X103.0000 Y187.0000 F900.0
G1 X103.0000 Y167.0000 F900.0
G0 Z5.0000
G0 X103.0000 Y167.0000
( pocket pass Z-8.00 )
G1 X103.0000 Y167.0000 Z-8.0000 F200.0
G1 X123.0000 Y167.0000 F900.0
G1 X123.0000 Y187.0000 F900.0
G1 X103.0000 Y187.0000 F900.0
G1 X103.0000 Y167.0000 F900.0
G0 Z5.0000
G0 X103.0000 Y167.0000
( pocket pass Z-9.50 )
G1 X103.0000 Y167.0000 Z-9.5000 F200.0
G1 X123.0000 Y167.0000 F900.0
G1 X123.0000 Y187.0000 F900.0
G1 X103.0000 Y187.0000 F900.0
G1 X103.0000 Y167.0000 F900.0
( Feld ix=2 iy=5 )
G0 Z5.0000
G0 X71.0000 Y167.0000
( pocket pass Z-2.00 )
G1 X71.0000 Y167.0000 Z-2.0000 F200.0
G1 X91.0000 Y167.0000 F900.0
G1 X91.0000 Y187.0000 F900.0
G1 X71.0000 Y187.0000 F900.0
G1 X71.0000 Y167.0000 F900.0
G0 Z5.0000
G0 X71.0000 Y167.0000
( pocket pass Z-4.00 )
G1 X71.0000 Y167.0000 Z-4.0000 F200.0
G1 X91.0000 Y167.0000 F900.0
G1 X91.0000 Y187.0000 F900.0
G1 X71.0000 Y187.0000 F900.0
G1 X71.0000 Y167.0000 F900.0
G0 Z5.0000
G0 X71.0000 Y167.0000
( pocket pass Z-6.00 )
G1 X71.0000 Y167.0000 Z-6.0000 F200.0
G1 X91.0000 Y167.0000 F900.0
G1 X91.0000 Y187.0000 F900.0
G1 X71.0000 Y187.0000 F900.0
G1 X71.0000 Y167.0000 F900.0
G0 Z5.0000
G0 X71.0000 Y167.0000
( pocket pass Z-8.00 )
G1 X71.0000 Y167.0000 Z-8.0000 F200.0
G1 X91.0000 Y167.0000 F900.0
G1 X91.0000 Y187.0000 F900.0
G1 X71.0000 Y187.0000 F900.0
G1 X71.0000 Y167.0000 F900.0
G0 Z5.0000
G0 X71.0000 Y167.0000
( pocket pass Z-9.50 )
G1 X71.0000 Y167.0000 Z-9.5000 F200.0
G1 X91.0000 Y167.0000 F900.0
G1 X91.0000 Y187.0000 F900.0
G1 X71.0000 Y187.0000 F900.0
G1 X71.0000 Y167.0000 F900.0
( Feld ix=1 iy=5 )
G0 Z5.0000
G0 X39.0000 Y167.0000
( pocket pass Z-2.00 )
G1 X39.0000 Y167.0000 Z-2.0000 F200.0
G1 X59.0000 Y167.0000 F900.0
G1 X59.0000 Y187.0000 F900.0
G1 X39.0000 Y187.0000 F900.0
G1 X39.0000 Y167.0000 F900.0
G0 Z5.0000
G0 X39.0000 Y167.0000
( pocket pass Z-4.00 )
G1 X39.0000 Y167.0000 Z-4.0000 F200.0
G1 X59.0000 Y167.0000 F900.0
G1 X59.0000 Y187.0000 F900.0
G1 X39.0000 Y187.0000 F900.0
G1 X39.0000 Y167.0000 F900.0
G0 Z5.0000
G0 X39.0000 Y167.0000
( pocket pass Z-6.00 )
G1 X39.0000 Y167.0000 Z-6.0000 F200.0
G1 X59.0000 Y167.0000 F900.0
G1 X59.0000 Y187.0000 F900.0
G1 X39.0000 Y187.0000 F900.0
G1 X39.0000 Y167.0000 F900.0
G0 Z5.0000
G0 X39.0000 Y167.0000
( pocket pass Z-8.00 )
G1 X39.0000 Y167.0000 Z-8.0000 F200.0
G1 X59.0000 Y167.0000 F900.0
G1 X59.0000 Y187.0000 F900.0
G1 X39.0000 Y187.0000 F900.0
G1 X39.0000 Y167.0000 F900.0
G0 Z5.0000
G0 X39.0000 Y167.0000
( pocket pass Z-9.50 )
G1 X39.0000 Y167.0000 Z-9.5000 F200.0
G1 X59.0000 Y167.0000 F900.0
G1 X59.0000 Y187.0000 F900.0
G1 X39.0000 Y187.0000 F900.0
G1 X39.0000 Y167.0000 F900.0
( Feld ix=0 iy=5 )
G0 Z5.0000
G0 X7.0000 Y167.0000
( pocket pass Z-2.00 )
G1 X7.0000 Y167.0000 Z-2.0000 F200.0
G1 X27.0000 Y167.0000 F900.0
G1 X27.0000 Y187.0000 F900.0
G1 X7.0000 Y187.0000 F900.0
G1 X7.0000 Y167.0000 F900.0
G0 Z5.0000
G0 X7.0000 Y167.0000
( pocket pass Z-4.00 )
G1 X7.0000 Y167.0000 Z-4.0000 F200.0
G1 X27.0000 Y167.0000 F900.0
G1 X27.0000 Y187.0000 F900.0
G1 X7.0000 Y187.0000 F900.0
G1 X7.0000 Y167.0000 F900.0
G0 Z5.0000
G0 X7.0000 Y167.0000
( pocket pass Z-6.00 )
G1 X7.0000 Y167.0000 Z-6.0000 F200.0
G1 X27.0000 Y167.0000 F900.0
G1 X27.0000 Y187.0000 F900.0
G1 X7.0000 Y187.0000 F900.0
G1 X7.0000 Y167.0000 F900.0
G0 Z5.0000
G0 X7.0000 Y167.0000
( pocket pass Z-8.00 )
G1 X7.0000 Y167.0000 Z-8.0000 F200.0
G1 X27.0000 Y167.0000 F900.0
G1 X27.0000 Y187.0000 F900.0
G1 X7.0000 Y187.0000 F900.0
G1 X7.0000 Y167.0000 F900.0
G0 Z5.0000
G0 X7.0000 Y167.0000
( pocket pass Z-9.50 )
G1 X7.0000 Y167.0000 Z-9.5000 F200.0
G1 X27.0000 Y167.0000 F900.0
G1 X27.0000 Y187.0000 F900.0
G1 X7.0000 Y187.0000 F900.0
G1 X7.0000 Y167.0000 F900.0
G0 Z5.0000
G0 X0 Y0
M5
M2
