(Exported by FreeCAD)
(Post Processor: linuxcnc_post)
(Output Time:2026-05-03 10:47:14.093491)
(begin preamble)
G17 G54 G40 G49 G80 G90
G21
(begin operation: TC: 6mm Schaftfräser)
(machine units: mm/min)
(TC: 6mm Schaftfräser) 
M5
M6 T3 
G43 H3 
M3 S24000 
(finish operation: TC: 6mm Schaftfräser)
(begin operation: Fixture)
(machine units: mm/min)
G54 
(finish operation: Fixture)
(begin operation: Pocket3D)
(machine units: mm/min)
(Pocket3D) 
G0 Z5.000 
G0 X257.045 Y327.045 
G0 Z3.000 
G1 X257.045 Y327.045 Z-1.000 F500.000 
G3 X245.662 Y330.873 Z-1.000 I-9.545 J-9.545 F1200.000 
G3 X249.338 Y304.127 Z-1.000 I1.838 J-13.373 F1200.000 
G3 X257.045 Y327.045 Z-1.000 I-1.838 J13.373 F1200.000 
G0 Z5.000 
G0 X254.922 Y324.922 Z5.000 
G0 X254.922 Y324.922 Z3.000 
G1 X254.922 Y324.922 Z-1.000 F500.000 
G3 X246.071 Y327.899 Z-1.000 I-7.422 J-7.422 F1200.000 
G3 X248.929 Y307.101 Z-1.000 I1.429 J-10.399 F1200.000 
G3 X254.922 Y324.922 Z-1.000 I-1.429 J10.399 F1200.000 
G0 Z5.000 
G0 X252.800 Y322.800 Z5.000 
G0 X252.800 Y322.800 Z3.000 
G1 X252.800 Y322.800 Z-1.000 F500.000 
G3 X246.479 Y324.925 Z-1.000 I-5.300 J-5.300 F1200.000 
G3 X248.521 Y310.075 Z-1.000 I1.021 J-7.425 F1200.000 
G3 X252.800 Y322.800 Z-1.000 I-1.021 J7.425 F1200.000 
G0 Z5.000 
G0 X250.677 Y320.677 Z5.000 
G0 X250.677 Y320.677 Z3.000 
G1 X250.677 Y320.677 Z-1.000 F500.000 
G3 X246.888 Y321.951 Z-1.000 I-3.177 J-3.177 F1200.000 
G3 X243.049 Y316.888 Z-1.000 I0.612 J-4.451 F1200.000 
G3 X248.112 Y313.049 Z-1.000 I4.451 J0.612 F1200.000 
G3 X250.677 Y320.677 Z-1.000 I-0.612 J4.451 F1200.000 
G0 Z5.000 
G0 X248.554 Y318.554 Z5.000 
G0 X248.554 Y318.554 Z3.000 
G1 X248.554 Y318.554 Z-1.000 F500.000 
G3 X247.297 Y318.977 Z-1.000 I-1.054 J-1.054 F1200.000 
G3 X247.703 Y316.023 Z-1.000 I0.203 J-1.477 F1200.000 
G3 X248.554 Y318.554 Z-1.000 I-0.203 J1.477 F1200.000 
G0 Z5.000 
G0 X247.847 Y290.994 Z5.000 
G0 X247.847 Y290.994 Z3.000 
G1 X247.847 Y290.994 Z-1.000 F500.000 
G3 X245.662 Y290.873 Z-1.000 I-0.347 J-13.494 F1200.000 
G3 X249.338 Y264.127 Z-1.000 I1.838 J-13.373 F1200.000 
G3 X247.847 Y290.994 Z-1.000 I-1.838 J13.373 F1200.000 
G0 Z5.000 
G0 X247.770 Y287.993 Z5.000 
G0 X247.770 Y287.993 Z3.000 
G1 X247.770 Y287.993 Z-1.000 F500.000 
G3 X246.071 Y287.899 Z-1.000 I-0.270 J-10.493 F1200.000 
G3 X248.929 Y267.101 Z-1.000 I1.429 J-10.399 F1200.000 
G3 X247.770 Y287.993 Z-1.000 I-1.429 J10.399 F1200.000 
G0 Z5.000 
G0 X247.692 Y284.992 Z5.000 
G0 X247.692 Y284.992 Z3.000 
G1 X247.692 Y284.992 Z-1.000 F500.000 
G3 X246.479 Y284.925 Z-1.000 I-0.192 J-7.492 F1200.000 
G3 X248.521 Y270.075 Z-1.000 I1.021 J-7.425 F1200.000 
G3 X247.692 Y284.992 Z-1.000 I-1.021 J7.425 F1200.000 
G0 Z5.000 
G0 X247.615 Y281.992 Z5.000 
G0 X247.615 Y281.992 Z3.000 
G1 X247.615 Y281.992 Z-1.000 F500.000 
G3 X246.888 Y281.951 Z-1.000 I-0.115 J-4.492 F1200.000 
G3 X243.049 Y276.888 Z-1.000 I0.612 J-4.451 F1200.000 
G3 X248.112 Y273.049 Z-1.000 I4.451 J0.612 F1200.000 
G3 X247.615 Y281.992 Z-1.000 I-0.612 J4.451 F1200.000 
G0 Z5.000 
G0 X247.538 Y278.991 Z5.000 
G0 X247.538 Y278.991 Z3.000 
G1 X247.538 Y278.991 Z-1.000 F500.000 
G3 X247.297 Y278.977 Z-1.000 I-0.038 J-1.491 F1200.000 
G3 X247.703 Y276.023 Z-1.000 I0.203 J-1.477 F1200.000 
G3 X247.538 Y278.991 Z-1.000 I-0.203 J1.477 F1200.000 
G0 Z5.000 
G0 X220.989 Y278.002 Z5.000 
G0 X220.989 Y278.002 Z3.000 
G1 X220.989 Y278.002 Z-1.000 F500.000 
G3 X205.662 Y290.873 Z-1.000 I-13.489 J-0.502 F1200.000 
G3 X194.127 Y275.662 Z-1.000 I1.838 J-13.373 F1200.000 
G3 X209.338 Y264.127 Z-1.000 I13.373 J1.838 F1200.000 
G3 X220.989 Y278.002 Z-1.000 I-1.838 J13.373 F1200.000 
G0 Z5.000 
G0 X217.989 Y277.891 Z5.000 
G0 X217.989 Y277.891 Z3.000 
G1 X217.989 Y277.891 Z-1.000 F500.000 
G3 X206.071 Y287.899 Z-1.000 I-10.489 J-0.391 F1200.000 
G3 X208.929 Y267.101 Z-1.000 I1.429 J-10.399 F1200.000 
G3 X217.989 Y277.891 Z-1.000 I-1.429 J10.399 F1200.000 
G0 Z5.000 
G0 X214.990 Y277.779 Z5.000 
G0 X214.990 Y277.779 Z3.000 
G1 X214.990 Y277.779 Z-1.000 F500.000 
G3 X206.479 Y284.925 Z-1.000 I-7.490 J-0.279 F1200.000 
G3 X208.521 Y270.075 Z-1.000 I1.021 J-7.425 F1200.000 
G3 X214.990 Y277.779 Z-1.000 I-1.021 J7.425 F1200.000 
G0 Z5.000 
G0 X211.990 Y277.667 Z5.000 
G0 X211.990 Y277.667 Z3.000 
G1 X211.990 Y277.667 Z-1.000 F500.000 
G3 X206.888 Y281.951 Z-1.000 I-4.490 J-0.167 F1200.000 
G3 X208.112 Y273.049 Z-1.000 I0.612 J-4.451 F1200.000 
G3 X211.990 Y277.667 Z-1.000 I-0.612 J4.451 F1200.000 
G0 Z5.000 
G0 X208.990 Y277.555 Z5.000 
G0 X208.990 Y277.555 Z3.000 
G1 X208.990 Y277.555 Z-1.000 F500.000 
G3 X207.297 Y278.977 Z-1.000 I-1.490 J-0.055 F1200.000 
G3 X207.703 Y276.023 Z-1.000 I0.203 J-1.477 F1200.000 
G3 X208.990 Y277.555 Z-1.000 I-0.203 J1.477 F1200.000 
G0 Z5.000 
G0 X208.003 Y304.011 Z5.000 
G0 X208.003 Y304.011 Z3.000 
G1 X208.003 Y304.011 Z-1.000 F500.000 
G3 X209.338 Y304.127 Z-1.000 I-0.503 J13.489 F1200.000 
G3 X205.662 Y330.873 Z-1.000 I-1.838 J13.373 F1200.000 
G3 X208.003 Y304.011 Z-1.000 I1.838 J-13.373 F1200.000 
G0 Z5.000 
G0 X207.891 Y307.011 Z5.000 
G0 X207.891 Y307.011 Z3.000 
G1 X207.891 Y307.011 Z-1.000 F500.000 
G3 X208.929 Y307.101 Z-1.000 I-0.391 J10.489 F1200.000 
G3 X206.071 Y327.899 Z-1.000 I-1.429 J10.399 F1200.000 
G3 X207.891 Y307.011 Z-1.000 I1.429 J-10.399 F1200.000 
G0 Z5.000 
G0 X207.779 Y310.010 Z5.000 
G0 X207.779 Y310.010 Z3.000 
G1 X207.779 Y310.010 Z-1.000 F500.000 
G3 X208.521 Y310.075 Z-1.000 I-0.279 J7.490 F1200.000 
G3 X206.479 Y324.925 Z-1.000 I-1.021 J7.425 F1200.000 
G3 X207.779 Y310.010 Z-1.000 I1.021 J-7.425 F1200.000 
G0 Z5.000 
G0 X207.668 Y313.010 Z5.000 
G0 X207.668 Y313.010 Z3.000 
G1 X207.668 Y313.010 Z-1.000 F500.000 
G3 X208.112 Y313.049 Z-1.000 I-0.168 J4.490 F1200.000 
G3 X206.888 Y321.951 Z-1.000 I-0.612 J4.451 F1200.000 
G3 X207.668 Y313.010 Z-1.000 I0.612 J-4.451 F1200.000 
G0 Z5.000 
G0 X207.556 Y316.010 Z5.000 
G0 X207.556 Y316.010 Z3.000 
G1 X207.556 Y316.010 Z-1.000 F500.000 
G3 X207.703 Y316.023 Z-1.000 I-0.056 J1.490 F1200.000 
G3 X208.977 Y317.703 Z-1.000 I-0.203 J1.477 F1200.000 
G3 X207.297 Y318.977 Z-1.000 I-1.477 J-0.203 F1200.000 
G3 X207.556 Y316.010 Z-1.000 I0.203 J-1.477 F1200.000 
G0 Z5.000 
G0 X180.989 Y316.998 Z5.000 
G0 X180.989 Y316.998 Z3.000 
G1 X180.989 Y316.998 Z-1.000 F500.000 
G3 X165.662 Y330.873 Z-1.000 I-13.489 J0.502 F1200.000 
G3 X169.338 Y304.127 Z-1.000 I1.838 J-13.373 F1200.000 
G3 X180.989 Y316.998 Z-1.000 I-1.838 J13.373 F1200.000 
G0 Z5.000 
G0 X177.989 Y317.110 Z5.000 
G0 X177.989 Y317.110 Z3.000 
G1 X177.989 Y317.110 Z-1.000 F500.000 
G3 X166.071 Y327.899 Z-1.000 I-10.489 J0.390 F1200.000 
G3 X168.929 Y307.101 Z-1.000 I1.429 J-10.399 F1200.000 
G3 X177.989 Y317.110 Z-1.000 I-1.429 J10.399 F1200.000 
G0 Z5.000 
G0 X174.990 Y317.221 Z5.000 
G0 X174.990 Y317.221 Z3.000 
G1 X174.990 Y317.221 Z-1.000 F500.000 
G3 X166.479 Y324.925 Z-1.000 I-7.490 J0.279 F1200.000 
G3 X160.075 Y316.479 Z-1.000 I1.021 J-7.425 F1200.000 
G3 X168.521 Y310.075 Z-1.000 I7.425 J1.021 F1200.000 
G3 X174.990 Y317.221 Z-1.000 I-1.021 J7.425 F1200.000 
G0 Z5.000 
G0 X171.990 Y317.333 Z5.000 
G0 X171.990 Y317.333 Z3.000 
G1 X171.990 Y317.333 Z-1.000 F500.000 
G3 X166.888 Y321.951 Z-1.000 I-4.490 J0.167 F1200.000 
G3 X168.112 Y313.049 Z-1.000 I0.612 J-4.451 F1200.000 
G3 X171.990 Y317.333 Z-1.000 I-0.612 J4.451 F1200.000 
G0 Z5.000 
G0 X168.990 Y317.445 Z5.000 
G0 X168.990 Y317.445 Z3.000 
G1 X168.990 Y317.445 Z-1.000 F500.000 
G3 X167.297 Y318.977 Z-1.000 I-1.490 J0.055 F1200.000 
G3 X166.023 Y317.297 Z-1.000 I0.203 J-1.477 F1200.000 
G3 X167.703 Y316.023 Z-1.000 I1.477 J0.203 F1200.000 
G3 X168.990 Y317.445 Z-1.000 I-0.203 J1.477 F1200.000 
G0 Z5.000 
G0 X168.003 Y290.989 Z5.000 
G0 X168.003 Y290.989 Z3.000 
G1 X168.003 Y290.989 Z-1.000 F500.000 
G3 X165.662 Y290.873 Z-1.000 I-0.503 J-13.489 F1200.000 
G3 X154.127 Y275.662 Z-1.000 I1.838 J-13.373 F1200.000 
G3 X169.338 Y264.127 Z-1.000 I13.373 J1.838 F1200.000 
G3 X168.003 Y290.989 Z-1.000 I-1.838 J13.373 F1200.000 
G0 Z5.000 
G0 X167.891 Y287.989 Z5.000 
G0 X167.891 Y287.989 Z3.000 
G1 X167.891 Y287.989 Z-1.000 F500.000 
G3 X166.071 Y287.899 Z-1.000 I-0.391 J-10.489 F1200.000 
G3 X168.929 Y267.101 Z-1.000 I1.429 J-10.399 F1200.000 
G3 X167.891 Y287.989 Z-1.000 I-1.429 J10.399 F1200.000 
G0 Z5.000 
G0 X167.779 Y284.990 Z5.000 
G0 X167.779 Y284.990 Z3.000 
G1 X167.779 Y284.990 Z-1.000 F500.000 
G3 X166.479 Y284.925 Z-1.000 I-0.279 J-7.490 F1200.000 
G3 X168.521 Y270.075 Z-1.000 I1.021 J-7.425 F1200.000 
G3 X167.779 Y284.990 Z-1.000 I-1.021 J7.425 F1200.000 
G0 Z5.000 
G0 X167.668 Y281.990 Z5.000 
G0 X167.668 Y281.990 Z3.000 
G1 X167.668 Y281.990 Z-1.000 F500.000 
G3 X166.888 Y281.951 Z-1.000 I-0.168 J-4.490 F1200.000 
G3 X168.112 Y273.049 Z-1.000 I0.612 J-4.451 F1200.000 
G3 X167.668 Y281.990 Z-1.000 I-0.612 J4.451 F1200.000 
G0 Z5.000 
G0 X167.556 Y278.990 Z5.000 
G0 X167.556 Y278.990 Z3.000 
G1 X167.556 Y278.990 Z-1.000 F500.000 
G3 X167.297 Y278.977 Z-1.000 I-0.056 J-1.490 F1200.000 
G3 X167.703 Y276.023 Z-1.000 I0.203 J-1.477 F1200.000 
G3 X167.556 Y278.990 Z-1.000 I-0.203 J1.477 F1200.000 
G0 Z5.000 
G0 X140.989 Y278.002 Z5.000 
G0 X140.989 Y278.002 Z3.000 
G1 X140.989 Y278.002 Z-1.000 F500.000 
G3 X125.662 Y290.873 Z-1.000 I-13.489 J-0.502 F1200.000 
G3 X129.338 Y264.127 Z-1.000 I1.838 J-13.373 F1200.000 
G3 X140.989 Y278.002 Z-1.000 I-1.838 J13.373 F1200.000 
G0 Z5.000 
G0 X137.989 Y277.890 Z5.000 
G0 X137.989 Y277.890 Z3.000 
G1 X137.989 Y277.890 Z-1.000 F500.000 
G3 X126.071 Y287.899 Z-1.000 I-10.489 J-0.390 F1200.000 
G3 X117.101 Y276.071 Z-1.000 I1.429 J-10.399 F1200.000 
G3 X128.929 Y267.101 Z-1.000 I10.399 J1.429 F1200.000 
G3 X137.989 Y277.890 Z-1.000 I-1.429 J10.399 F1200.000 
G0 Z5.000 
G0 X134.990 Y277.779 Z5.000 
G0 X134.990 Y277.779 Z3.000 
G1 X134.990 Y277.779 Z-1.000 F500.000 
G3 X126.479 Y284.925 Z-1.000 I-7.490 J-0.279 F1200.000 
G3 X128.521 Y270.075 Z-1.000 I1.021 J-7.425 F1200.000 
G3 X134.990 Y277.779 Z-1.000 I-1.021 J7.425 F1200.000 
G0 Z5.000 
G0 X131.990 Y277.667 Z5.000 
G0 X131.990 Y277.667 Z3.000 
G1 X131.990 Y277.667 Z-1.000 F500.000 
G3 X126.888 Y281.951 Z-1.000 I-4.490 J-0.167 F1200.000 
G3 X128.112 Y273.049 Z-1.000 I0.612 J-4.451 F1200.000 
G3 X131.990 Y277.667 Z-1.000 I-0.612 J4.451 F1200.000 
G0 Z5.000 
G0 X128.990 Y277.555 Z5.000 
G0 X128.990 Y277.555 Z3.000 
G1 X128.990 Y277.555 Z-1.000 F500.000 
G3 X127.297 Y278.977 Z-1.000 I-1.490 J-0.055 F1200.000 
G3 X126.023 Y277.297 Z-1.000 I0.203 J-1.477 F1200.000 
G3 X127.703 Y276.023 Z-1.000 I1.477 J0.203 F1200.000 
G3 X128.990 Y277.555 Z-1.000 I-0.203 J1.477 F1200.000 
G0 Z5.000 
G0 X128.003 Y304.011 Z5.000 
G0 X128.003 Y304.011 Z3.000 
G1 X128.003 Y304.011 Z-1.000 F500.000 
G3 X129.338 Y304.127 Z-1.000 I-0.503 J13.489 F1200.000 
G3 X140.873 Y319.338 Z-1.000 I-1.838 J13.373 F1200.000 
G3 X125.662 Y330.873 Z-1.000 I-13.373 J-1.838 F1200.000 
G3 X128.003 Y304.011 Z-1.000 I1.838 J-13.373 F1200.000 
G0 Z5.000 
G0 X127.891 Y307.011 Z5.000 
G0 X127.891 Y307.011 Z3.000 
G1 X127.891 Y307.011 Z-1.000 F500.000 
G3 X128.929 Y307.101 Z-1.000 I-0.391 J10.489 F1200.000 
G3 X126.071 Y327.899 Z-1.000 I-1.429 J10.399 F1200.000 
G3 X127.891 Y307.011 Z-1.000 I1.429 J-10.399 F1200.000 
G0 Z5.000 
G0 X127.779 Y310.010 Z5.000 
G0 X127.779 Y310.010 Z3.000 
G1 X127.779 Y310.010 Z-1.000 F500.000 
G3 X128.521 Y310.075 Z-1.000 I-0.279 J7.490 F1200.000 
G3 X126.479 Y324.925 Z-1.000 I-1.021 J7.425 F1200.000 
G3 X127.779 Y310.010 Z-1.000 I1.021 J-7.425 F1200.000 
G0 Z5.000 
G0 X127.668 Y313.010 Z5.000 
G0 X127.668 Y313.010 Z3.000 
G1 X127.668 Y313.010 Z-1.000 F500.000 
G3 X128.112 Y313.049 Z-1.000 I-0.168 J4.490 F1200.000 
G3 X131.951 Y318.112 Z-1.000 I-0.612 J4.451 F1200.000 
G3 X126.888 Y321.951 Z-1.000 I-4.451 J-0.612 F1200.000 
G3 X127.668 Y313.010 Z-1.000 I0.612 J-4.451 F1200.000 
G0 Z5.000 
G0 X127.556 Y316.010 Z5.000 
G0 X127.556 Y316.010 Z3.000 
G1 X127.556 Y316.010 Z-1.000 F500.000 
G3 X127.703 Y316.023 Z-1.000 I-0.056 J1.490 F1200.000 
G3 X127.297 Y318.977 Z-1.000 I-0.203 J1.477 F1200.000 
G3 X127.556 Y316.010 Z-1.000 I0.203 J-1.477 F1200.000 
G0 Z5.000 
G0 X100.989 Y316.998 Z5.000 
G0 X100.989 Y316.998 Z3.000 
G1 X100.989 Y316.998 Z-1.000 F500.000 
G3 X85.662 Y330.873 Z-1.000 I-13.489 J0.502 F1200.000 
G3 X89.338 Y304.127 Z-1.000 I1.838 J-13.373 F1200.000 
G3 X100.989 Y316.998 Z-1.000 I-1.838 J13.373 F1200.000 
G0 Z5.000 
G0 X97.989 Y317.110 Z5.000 
G0 X97.989 Y317.110 Z3.000 
G1 X97.989 Y317.110 Z-1.000 F500.000 
G3 X86.071 Y327.899 Z-1.000 I-10.489 J0.390 F1200.000 
G3 X77.101 Y316.071 Z-1.000 I1.429 J-10.399 F1200.000 
G3 X88.929 Y307.101 Z-1.000 I10.399 J1.429 F1200.000 
G3 X97.989 Y317.110 Z-1.000 I-1.429 J10.399 F1200.000 
G0 Z5.000 
G0 X94.990 Y317.221 Z5.000 
G0 X94.990 Y317.221 Z3.000 
G1 X94.990 Y317.221 Z-1.000 F500.000 
G3 X86.479 Y324.925 Z-1.000 I-7.490 J0.279 F1200.000 
G3 X80.075 Y316.479 Z-1.000 I1.021 J-7.425 F1200.000 
G3 X88.521 Y310.075 Z-1.000 I7.425 J1.021 F1200.000 
G3 X94.990 Y317.221 Z-1.000 I-1.021 J7.425 F1200.000 
G0 Z5.000 
G0 X91.990 Y317.333 Z5.000 
G0 X91.990 Y317.333 Z3.000 
G1 X91.990 Y317.333 Z-1.000 F500.000 
G3 X86.888 Y321.951 Z-1.000 I-4.490 J0.167 F1200.000 
G3 X83.049 Y316.888 Z-1.000 I0.612 J-4.451 F1200.000 
G3 X88.112 Y313.049 Z-1.000 I4.451 J0.612 F1200.000 
G3 X91.990 Y317.333 Z-1.000 I-0.612 J4.451 F1200.000 
G0 Z5.000 
G0 X88.990 Y317.445 Z5.000 
G0 X88.990 Y317.445 Z3.000 
G1 X88.990 Y317.445 Z-1.000 F500.000 
G3 X87.297 Y318.977 Z-1.000 I-1.490 J0.055 F1200.000 
G3 X86.023 Y317.297 Z-1.000 I0.203 J-1.477 F1200.000 
G3 X87.703 Y316.023 Z-1.000 I1.477 J0.203 F1200.000 
G3 X88.990 Y317.445 Z-1.000 I-0.203 J1.477 F1200.000 
G0 Z5.000 
G0 X88.003 Y290.989 Z5.000 
G0 X88.003 Y290.989 Z3.000 
G1 X88.003 Y290.989 Z-1.000 F500.000 
G3 X85.662 Y290.873 Z-1.000 I-0.503 J-13.489 F1200.000 
G3 X89.338 Y264.127 Z-1.000 I1.838 J-13.373 F1200.000 
G3 X88.003 Y290.989 Z-1.000 I-1.838 J13.373 F1200.000 
G0 Z5.000 
G0 X87.891 Y287.989 Z5.000 
G0 X87.891 Y287.989 Z3.000 
G1 X87.891 Y287.989 Z-1.000 F500.000 
G3 X86.071 Y287.899 Z-1.000 I-0.391 J-10.489 F1200.000 
G3 X88.929 Y267.101 Z-1.000 I1.429 J-10.399 F1200.000 
G3 X87.891 Y287.989 Z-1.000 I-1.429 J10.399 F1200.000 
G0 Z5.000 
G0 X87.779 Y284.990 Z5.000 
G0 X87.779 Y284.990 Z3.000 
G1 X87.779 Y284.990 Z-1.000 F500.000 
G3 X86.479 Y284.925 Z-1.000 I-0.279 J-7.490 F1200.000 
G3 X88.521 Y270.075 Z-1.000 I1.021 J-7.425 F1200.000 
G3 X87.779 Y284.990 Z-1.000 I-1.021 J7.425 F1200.000 
G0 Z5.000 
G0 X87.668 Y281.990 Z5.000 
G0 X87.668 Y281.990 Z3.000 
G1 X87.668 Y281.990 Z-1.000 F500.000 
G3 X86.888 Y281.951 Z-1.000 I-0.168 J-4.490 F1200.000 
G3 X88.112 Y273.049 Z-1.000 I0.612 J-4.451 F1200.000 
G3 X87.668 Y281.990 Z-1.000 I-0.612 J4.451 F1200.000 
G0 Z5.000 
G0 X87.556 Y278.990 Z5.000 
G0 X87.556 Y278.990 Z3.000 
G1 X87.556 Y278.990 Z-1.000 F500.000 
G3 X87.297 Y278.977 Z-1.000 I-0.056 J-1.490 F1200.000 
G3 X86.023 Y277.297 Z-1.000 I0.203 J-1.477 F1200.000 
G3 X87.703 Y276.023 Z-1.000 I1.477 J0.203 F1200.000 
G3 X87.556 Y278.990 Z-1.000 I-0.203 J1.477 F1200.000 
G0 Z5.000 
G0 X60.989 Y278.002 Z5.000 
G0 X60.989 Y278.002 Z3.000 
G1 X60.989 Y278.002 Z-1.000 F500.000 
G3 X45.662 Y290.873 Z-1.000 I-13.489 J-0.502 F1200.000 
G3 X49.338 Y264.127 Z-1.000 I1.838 J-13.373 F1200.000 
G3 X60.989 Y278.002 Z-1.000 I-1.838 J13.373 F1200.000 
G0 Z5.000 
G0 X57.989 Y277.890 Z5.000 
G0 X57.989 Y277.890 Z3.000 
G1 X57.989 Y277.890 Z-1.000 F500.000 
G3 X46.071 Y287.899 Z-1.000 I-10.489 J-0.390 F1200.000 
G3 X37.101 Y276.071 Z-1.000 I1.429 J-10.399 F1200.000 
G3 X48.929 Y267.101 Z-1.000 I10.399 J1.429 F1200.000 
G3 X57.989 Y277.890 Z-1.000 I-1.429 J10.399 F1200.000 
G0 Z5.000 
G0 X54.990 Y277.779 Z5.000 
G0 X54.990 Y277.779 Z3.000 
G1 X54.990 Y277.779 Z-1.000 F500.000 
G3 X46.479 Y284.925 Z-1.000 I-7.490 J-0.279 F1200.000 
G3 X48.521 Y270.075 Z-1.000 I1.021 J-7.425 F1200.000 
G3 X54.990 Y277.779 Z-1.000 I-1.021 J7.425 F1200.000 
G0 Z5.000 
G0 X51.990 Y277.667 Z5.000 
G0 X51.990 Y277.667 Z3.000 
G1 X51.990 Y277.667 Z-1.000 F500.000 
G3 X46.888 Y281.951 Z-1.000 I-4.490 J-0.167 F1200.000 
G3 X48.112 Y273.049 Z-1.000 I0.612 J-4.451 F1200.000 
G3 X51.990 Y277.667 Z-1.000 I-0.612 J4.451 F1200.000 
G0 Z5.000 
G0 X48.990 Y277.555 Z5.000 
G0 X48.990 Y277.555 Z3.000 
G1 X48.990 Y277.555 Z-1.000 F500.000 
G3 X47.297 Y278.977 Z-1.000 I-1.490 J-0.055 F1200.000 
G3 X46.023 Y277.297 Z-1.000 I0.203 J-1.477 F1200.000 
G3 X47.703 Y276.023 Z-1.000 I1.477 J0.203 F1200.000 
G3 X48.990 Y277.555 Z-1.000 I-0.203 J1.477 F1200.000 
G0 Z5.000 
G0 X48.003 Y304.011 Z5.000 
G0 X48.003 Y304.011 Z3.000 
G1 X48.003 Y304.011 Z-1.000 F500.000 
G3 X49.338 Y304.127 Z-1.000 I-0.503 J13.489 F1200.000 
G3 X60.873 Y319.338 Z-1.000 I-1.838 J13.373 F1200.000 
G3 X45.662 Y330.873 Z-1.000 I-13.373 J-1.838 F1200.000 
G3 X48.003 Y304.011 Z-1.000 I1.838 J-13.373 F1200.000 
G0 Z5.000 
G0 X47.891 Y307.011 Z5.000 
G0 X47.891 Y307.011 Z3.000 
G1 X47.891 Y307.011 Z-1.000 F500.000 
G3 X48.929 Y307.101 Z-1.000 I-0.391 J10.489 F1200.000 
G3 X46.071 Y327.899 Z-1.000 I-1.429 J10.399 F1200.000 
G3 X47.891 Y307.011 Z-1.000 I1.429 J-10.399 F1200.000 
G0 Z5.000 
G0 X47.779 Y310.010 Z5.000 
G0 X47.779 Y310.010 Z3.000 
G1 X47.779 Y310.010 Z-1.000 F500.000 
G3 X48.521 Y310.075 Z-1.000 I-0.279 J7.490 F1200.000 
G3 X46.479 Y324.925 Z-1.000 I-1.021 J7.425 F1200.000 
G3 X47.779 Y310.010 Z-1.000 I1.021 J-7.425 F1200.000 
G0 Z5.000 
G0 X47.668 Y313.010 Z5.000 
G0 X47.668 Y313.010 Z3.000 
G1 X47.668 Y313.010 Z-1.000 F500.000 
G3 X48.112 Y313.049 Z-1.000 I-0.168 J4.490 F1200.000 
G3 X51.951 Y318.112 Z-1.000 I-0.612 J4.451 F1200.000 
G3 X46.888 Y321.951 Z-1.000 I-4.451 J-0.612 F1200.000 
G3 X47.668 Y313.010 Z-1.000 I0.612 J-4.451 F1200.000 
G0 Z5.000 
G0 X47.556 Y316.010 Z5.000 
G0 X47.556 Y316.010 Z3.000 
G1 X47.556 Y316.010 Z-1.000 F500.000 
G3 X47.703 Y316.023 Z-1.000 I-0.056 J1.490 F1200.000 
G3 X47.297 Y318.977 Z-1.000 I-0.203 J1.477 F1200.000 
G3 X47.556 Y316.010 Z-1.000 I0.203 J-1.477 F1200.000 
G0 Z5.000 
G0 X47.510 Y250.998 Z5.000 
G0 X47.510 Y250.998 Z3.000 
G1 X47.510 Y250.998 Z-1.000 F500.000 
G3 X45.662 Y250.873 Z-1.000 I-0.010 J-13.498 F1200.000 
G3 X49.338 Y224.127 Z-1.000 I1.838 J-13.373 F1200.000 
G3 X47.510 Y250.998 Z-1.000 I-1.838 J13.373 F1200.000 
G0 Z5.000 
G0 X47.507 Y247.996 Z5.000 
G0 X47.507 Y247.996 Z3.000 
G1 X47.507 Y247.996 Z-1.000 F500.000 
G3 X46.071 Y247.899 Z-1.000 I-0.007 J-10.496 F1200.000 
G3 X37.101 Y236.071 Z-1.000 I1.429 J-10.399 F1200.000 
G3 X48.929 Y227.101 Z-1.000 I10.399 J1.429 F1200.000 
G3 X47.507 Y247.996 Z-1.000 I-1.429 J10.399 F1200.000 
G0 Z5.000 
G0 X47.505 Y244.995 Z5.000 
G0 X47.505 Y244.995 Z3.000 
G1 X47.505 Y244.995 Z-1.000 F500.000 
G3 X46.479 Y244.925 Z-1.000 I-0.005 J-7.495 F1200.000 
G3 X40.075 Y236.479 Z-1.000 I1.021 J-7.425 F1200.000 
G3 X48.521 Y230.075 Z-1.000 I7.425 J1.021 F1200.000 
G3 X47.505 Y244.995 Z-1.000 I-1.021 J7.425 F1200.000 
G0 Z5.000 
G0 X47.503 Y241.993 Z5.000 
G0 X47.503 Y241.993 Z3.000 
G1 X47.503 Y241.993 Z-1.000 F500.000 
G3 X46.888 Y241.951 Z-1.000 I-0.003 J-4.493 F1200.000 
G3 X43.049 Y236.888 Z-1.000 I0.612 J-4.451 F1200.000 
G3 X48.112 Y233.049 Z-1.000 I4.451 J0.612 F1200.000 
G3 X47.503 Y241.993 Z-1.000 I-0.612 J4.451 F1200.000 
G0 Z5.000 
G0 X47.501 Y238.991 Z5.000 
G0 X47.501 Y238.991 Z3.000 
G1 X47.501 Y238.991 Z-1.000 F500.000 
G3 X47.297 Y238.977 Z-1.000 I-0.001 J-1.491 F1200.000 
G3 X46.023 Y237.297 Z-1.000 I0.203 J-1.477 F1200.000 
G3 X47.703 Y236.023 Z-1.000 I1.477 J0.203 F1200.000 
G3 X47.501 Y238.991 Z-1.000 I-0.203 J1.477 F1200.000 
G0 Z5.000 
G0 X74.011 Y238.003 Z5.000 
G0 X74.011 Y238.003 Z3.000 
G1 X74.011 Y238.003 Z-1.000 F500.000 
G3 X89.338 Y224.127 Z-1.000 I13.489 J-0.503 F1200.000 
G3 X100.873 Y239.338 Z-1.000 I-1.838 J13.373 F1200.000 
G3 X85.662 Y250.873 Z-1.000 I-13.373 J-1.838 F1200.000 
G3 X74.011 Y238.003 Z-1.000 I1.838 J-13.373 F1200.000 
G0 Z5.000 
G0 X77.011 Y237.891 Z5.000 
G0 X77.011 Y237.891 Z3.000 
G1 X77.011 Y237.891 Z-1.000 F500.000 
G3 X88.929 Y227.101 Z-1.000 I10.489 J-0.391 F1200.000 
G3 X86.071 Y247.899 Z-1.000 I-1.429 J10.399 F1200.000 
G3 X77.011 Y237.891 Z-1.000 I1.429 J-10.399 F1200.000 
G0 Z5.000 
G0 X80.010 Y237.779 Z5.000 
G0 X80.010 Y237.779 Z3.000 
G1 X80.010 Y237.779 Z-1.000 F500.000 
G3 X88.521 Y230.075 Z-1.000 I7.490 J-0.279 F1200.000 
G3 X86.479 Y244.925 Z-1.000 I-1.021 J7.425 F1200.000 
G3 X80.010 Y237.779 Z-1.000 I1.021 J-7.425 F1200.000 
G0 Z5.000 
G0 X83.010 Y237.667 Z5.000 
G0 X83.010 Y237.667 Z3.000 
G1 X83.010 Y237.667 Z-1.000 F500.000 
G3 X88.112 Y233.049 Z-1.000 I4.490 J-0.167 F1200.000 
G3 X91.951 Y238.112 Z-1.000 I-0.612 J4.451 F1200.000 
G3 X86.888 Y241.951 Z-1.000 I-4.451 J-0.612 F1200.000 
G3 X83.010 Y237.667 Z-1.000 I0.612 J-4.451 F1200.000 
G0 Z5.000 
G0 X86.010 Y237.556 Z5.000 
G0 X86.010 Y237.556 Z3.000 
G1 X86.010 Y237.556 Z-1.000 F500.000 
G3 X87.703 Y236.023 Z-1.000 I1.490 J-0.056 F1200.000 
G3 X87.297 Y238.977 Z-1.000 I-0.203 J1.477 F1200.000 
G3 X86.010 Y237.556 Z-1.000 I0.203 J-1.477 F1200.000 
G0 Z5.000 
G0 X86.998 Y210.989 Z5.000 
G0 X86.998 Y210.989 Z3.000 
G1 X86.998 Y210.989 Z-1.000 F500.000 
G3 X85.662 Y210.873 Z-1.000 I0.502 J-13.489 F1200.000 
G3 X89.338 Y184.127 Z-1.000 I1.838 J-13.373 F1200.000 
G3 X86.998 Y210.989 Z-1.000 I-1.838 J13.373 F1200.000 
G0 Z5.000 
G0 X87.110 Y207.989 Z5.000 
G0 X87.110 Y207.989 Z3.000 
G1 X87.110 Y207.989 Z-1.000 F500.000 
G3 X86.071 Y207.899 Z-1.000 I0.390 J-10.489 F1200.000 
G3 X88.929 Y187.101 Z-1.000 I1.429 J-10.399 F1200.000 
G3 X87.110 Y207.989 Z-1.000 I-1.429 J10.399 F1200.000 
G0 Z5.000 
G0 X87.221 Y204.990 Z5.000 
G0 X87.221 Y204.990 Z3.000 
G1 X87.221 Y204.990 Z-1.000 F500.000 
G3 X86.479 Y204.925 Z-1.000 I0.279 J-7.490 F1200.000 
G3 X88.521 Y190.075 Z-1.000 I1.021 J-7.425 F1200.000 
G3 X87.221 Y204.990 Z-1.000 I-1.021 J7.425 F1200.000 
G0 Z5.000 
G0 X87.333 Y201.990 Z5.000 
G0 X87.333 Y201.990 Z3.000 
G1 X87.333 Y201.990 Z-1.000 F500.000 
G3 X86.888 Y201.951 Z-1.000 I0.167 J-4.490 F1200.000 
G3 X88.112 Y193.049 Z-1.000 I0.612 J-4.451 F1200.000 
G3 X87.333 Y201.990 Z-1.000 I-0.612 J4.451 F1200.000 
G0 Z5.000 
G0 X87.445 Y198.990 Z5.000 
G0 X87.445 Y198.990 Z3.000 
G1 X87.445 Y198.990 Z-1.000 F500.000 
G3 X87.297 Y198.977 Z-1.000 I0.055 J-1.490 F1200.000 
G3 X86.023 Y197.297 Z-1.000 I0.203 J-1.477 F1200.000 
G3 X87.703 Y196.023 Z-1.000 I1.477 J0.203 F1200.000 
G3 X87.445 Y198.990 Z-1.000 I-0.203 J1.477 F1200.000 
G0 Z5.000 
G0 X60.989 Y198.003 Z5.000 
G0 X60.989 Y198.003 Z3.000 
G1 X60.989 Y198.003 Z-1.000 F500.000 
G3 X45.662 Y210.873 Z-1.000 I-13.489 J-0.503 F1200.000 
G3 X49.338 Y184.127 Z-1.000 I1.838 J-13.373 F1200.000 
G3 X60.989 Y198.003 Z-1.000 I-1.838 J13.373 F1200.000 
G0 Z5.000 
G0 X57.989 Y197.891 Z5.000 
G0 X57.989 Y197.891 Z3.000 
G1 X57.989 Y197.891 Z-1.000 F500.000 
G3 X46.071 Y207.899 Z-1.000 I-10.489 J-0.391 F1200.000 
G3 X37.101 Y196.071 Z-1.000 I1.429 J-10.399 F1200.000 
G3 X48.929 Y187.101 Z-1.000 I10.399 J1.429 F1200.000 
G3 X57.989 Y197.891 Z-1.000 I-1.429 J10.399 F1200.000 
G0 Z5.000 
G0 X54.990 Y197.779 Z5.000 
G0 X54.990 Y197.779 Z3.000 
G1 X54.990 Y197.779 Z-1.000 F500.000 
G3 X46.479 Y204.925 Z-1.000 I-7.490 J-0.279 F1200.000 
G3 X48.521 Y190.075 Z-1.000 I1.021 J-7.425 F1200.000 
G3 X54.990 Y197.779 Z-1.000 I-1.021 J7.425 F1200.000 
G0 Z5.000 
G0 X51.990 Y197.668 Z5.000 
G0 X51.990 Y197.668 Z3.000 
G1 X51.990 Y197.668 Z-1.000 F500.000 
G3 X46.888 Y201.951 Z-1.000 I-4.490 J-0.168 F1200.000 
G3 X43.049 Y196.888 Z-1.000 I0.612 J-4.451 F1200.000 
G3 X48.112 Y193.049 Z-1.000 I4.451 J0.612 F1200.000 
G3 X51.990 Y197.668 Z-1.000 I-0.612 J4.451 F1200.000 
G0 Z5.000 
G0 X48.990 Y197.556 Z5.000 
G0 X48.990 Y197.556 Z3.000 
G1 X48.990 Y197.556 Z-1.000 F500.000 
G3 X47.297 Y198.977 Z-1.000 I-1.490 J-0.056 F1200.000 
G3 X46.023 Y197.297 Z-1.000 I0.203 J-1.477 F1200.000 
G3 X47.703 Y196.023 Z-1.000 I1.477 J0.203 F1200.000 
G3 X48.990 Y197.556 Z-1.000 I-0.203 J1.477 F1200.000 
G0 Z5.000 
G0 X48.002 Y170.989 Z5.000 
G0 X48.002 Y170.989 Z3.000 
G1 X48.002 Y170.989 Z-1.000 F500.000 
G3 X45.662 Y170.873 Z-1.000 I-0.502 J-13.489 F1200.000 
G3 X49.338 Y144.127 Z-1.000 I1.838 J-13.373 F1200.000 
G3 X48.002 Y170.989 Z-1.000 I-1.838 J13.373 F1200.000 
G0 Z5.000 
G0 X47.890 Y167.989 Z5.000 
G0 X47.890 Y167.989 Z3.000 
G1 X47.890 Y167.989 Z-1.000 F500.000 
G3 X46.071 Y167.899 Z-1.000 I-0.390 J-10.489 F1200.000 
G3 X37.101 Y156.071 Z-1.000 I1.429 J-10.399 F1200.000 
G3 X48.929 Y147.101 Z-1.000 I10.399 J1.429 F1200.000 
G3 X47.890 Y167.989 Z-1.000 I-1.429 J10.399 F1200.000 
G0 Z5.000 
G0 X47.779 Y164.990 Z5.000 
G0 X47.779 Y164.990 Z3.000 
G1 X47.779 Y164.990 Z-1.000 F500.000 
G3 X46.479 Y164.925 Z-1.000 I-0.279 J-7.490 F1200.000 
G3 X40.075 Y156.479 Z-1.000 I1.021 J-7.425 F1200.000 
G3 X48.521 Y150.075 Z-1.000 I7.425 J1.021 F1200.000 
G3 X47.779 Y164.990 Z-1.000 I-1.021 J7.425 F1200.000 
G0 Z5.000 
G0 X47.667 Y161.990 Z5.000 
G0 X47.667 Y161.990 Z3.000 
G1 X47.667 Y161.990 Z-1.000 F500.000 
G3 X46.888 Y161.951 Z-1.000 I-0.167 J-4.490 F1200.000 
G3 X43.049 Y156.888 Z-1.000 I0.612 J-4.451 F1200.000 
G3 X48.112 Y153.049 Z-1.000 I4.451 J0.612 F1200.000 
G3 X47.667 Y161.990 Z-1.000 I-0.612 J4.451 F1200.000 
G0 Z5.000 
G0 X47.555 Y158.990 Z5.000 
G0 X47.555 Y158.990 Z3.000 
G1 X47.555 Y158.990 Z-1.000 F500.000 
G3 X47.297 Y158.977 Z-1.000 I-0.055 J-1.490 F1200.000 
G3 X46.023 Y157.297 Z-1.000 I0.203 J-1.477 F1200.000 
G3 X47.703 Y156.023 Z-1.000 I1.477 J0.203 F1200.000 
G3 X47.555 Y158.990 Z-1.000 I-0.203 J1.477 F1200.000 
G0 Z5.000 
G0 X74.011 Y158.003 Z5.000 
G0 X74.011 Y158.003 Z3.000 
G1 X74.011 Y158.003 Z-1.000 F500.000 
G3 X89.338 Y144.127 Z-1.000 I13.489 J-0.503 F1200.000 
G3 X100.873 Y159.338 Z-1.000 I-1.838 J13.373 F1200.000 
G3 X85.662 Y170.873 Z-1.000 I-13.373 J-1.838 F1200.000 
G3 X74.011 Y158.003 Z-1.000 I1.838 J-13.373 F1200.000 
G0 Z5.000 
G0 X77.011 Y157.891 Z5.000 
G0 X77.011 Y157.891 Z3.000 
G1 X77.011 Y157.891 Z-1.000 F500.000 
G3 X88.929 Y147.101 Z-1.000 I10.489 J-0.391 F1200.000 
G3 X86.071 Y167.899 Z-1.000 I-1.429 J10.399 F1200.000 
G3 X77.011 Y157.891 Z-1.000 I1.429 J-10.399 F1200.000 
G0 Z5.000 
G0 X80.010 Y157.779 Z5.000 
G0 X80.010 Y157.779 Z3.000 
G1 X80.010 Y157.779 Z-1.000 F500.000 
G3 X88.521 Y150.075 Z-1.000 I7.490 J-0.279 F1200.000 
G3 X86.479 Y164.925 Z-1.000 I-1.021 J7.425 F1200.000 
G3 X80.010 Y157.779 Z-1.000 I1.021 J-7.425 F1200.000 
G0 Z5.000 
G0 X83.010 Y157.668 Z5.000 
G0 X83.010 Y157.668 Z3.000 
G1 X83.010 Y157.668 Z-1.000 F500.000 
G3 X88.112 Y153.049 Z-1.000 I4.490 J-0.168 F1200.000 
G3 X86.888 Y161.951 Z-1.000 I-0.612 J4.451 F1200.000 
G3 X83.010 Y157.668 Z-1.000 I0.612 J-4.451 F1200.000 
G0 Z5.000 
G0 X86.010 Y157.556 Z5.000 
G0 X86.010 Y157.556 Z3.000 
G1 X86.010 Y157.556 Z-1.000 F500.000 
G3 X87.703 Y156.023 Z-1.000 I1.490 J-0.056 F1200.000 
G3 X87.297 Y158.977 Z-1.000 I-0.203 J1.477 F1200.000 
G3 X86.010 Y157.556 Z-1.000 I0.203 J-1.477 F1200.000 
G0 Z5.000 
G0 X86.998 Y130.989 Z5.000 
G0 X86.998 Y130.989 Z3.000 
G1 X86.998 Y130.989 Z-1.000 F500.000 
G3 X85.662 Y130.873 Z-1.000 I0.502 J-13.489 F1200.000 
G3 X89.338 Y104.127 Z-1.000 I1.838 J-13.373 F1200.000 
G3 X86.998 Y130.989 Z-1.000 I-1.838 J13.373 F1200.000 
G0 Z5.000 
G0 X87.110 Y127.989 Z5.000 
G0 X87.110 Y127.989 Z3.000 
G1 X87.110 Y127.989 Z-1.000 F500.000 
G3 X86.071 Y127.899 Z-1.000 I0.390 J-10.489 F1200.000 
G3 X77.101 Y116.071 Z-1.000 I1.429 J-10.399 F1200.000 
G3 X88.929 Y107.101 Z-1.000 I10.399 J1.429 F1200.000 
G3 X87.110 Y127.989 Z-1.000 I-1.429 J10.399 F1200.000 
G0 Z5.000 
G0 X87.221 Y124.990 Z5.000 
G0 X87.221 Y124.990 Z3.000 
G1 X87.221 Y124.990 Z-1.000 F500.000 
G3 X86.479 Y124.925 Z-1.000 I0.279 J-7.490 F1200.000 
G3 X80.075 Y116.479 Z-1.000 I1.021 J-7.425 F1200.000 
G3 X88.521 Y110.075 Z-1.000 I7.425 J1.021 F1200.000 
G3 X87.221 Y124.990 Z-1.000 I-1.021 J7.425 F1200.000 
G0 Z5.000 
G0 X87.333 Y121.990 Z5.000 
G0 X87.333 Y121.990 Z3.000 
G1 X87.333 Y121.990 Z-1.000 F500.000 
G3 X86.888 Y121.951 Z-1.000 I0.167 J-4.490 F1200.000 
G3 X83.049 Y116.888 Z-1.000 I0.612 J-4.451 F1200.000 
G3 X88.112 Y113.049 Z-1.000 I4.451 J0.612 F1200.000 
G3 X87.333 Y121.990 Z-1.000 I-0.612 J4.451 F1200.000 
G0 Z5.000 
G0 X87.445 Y118.990 Z5.000 
G0 X87.445 Y118.990 Z3.000 
G1 X87.445 Y118.990 Z-1.000 F500.000 
G3 X87.297 Y118.977 Z-1.000 I0.055 J-1.490 F1200.000 
G3 X86.023 Y117.297 Z-1.000 I0.203 J-1.477 F1200.000 
G3 X87.703 Y116.023 Z-1.000 I1.477 J0.203 F1200.000 
G3 X87.445 Y118.990 Z-1.000 I-0.203 J1.477 F1200.000 
G0 Z5.000 
G0 X60.989 Y118.003 Z5.000 
G0 X60.989 Y118.003 Z3.000 
G1 X60.989 Y118.003 Z-1.000 F500.000 
G3 X45.662 Y130.873 Z-1.000 I-13.489 J-0.503 F1200.000 
G3 X49.338 Y104.127 Z-1.000 I1.838 J-13.373 F1200.000 
G3 X60.989 Y118.003 Z-1.000 I-1.838 J13.373 F1200.000 
G0 Z5.000 
G0 X57.989 Y117.891 Z5.000 
G0 X57.989 Y117.891 Z3.000 
G1 X57.989 Y117.891 Z-1.000 F500.000 
G3 X46.071 Y127.899 Z-1.000 I-10.489 J-0.391 F1200.000 
G3 X37.101 Y116.071 Z-1.000 I1.429 J-10.399 F1200.000 
G3 X48.929 Y107.101 Z-1.000 I10.399 J1.429 F1200.000 
G3 X57.989 Y117.891 Z-1.000 I-1.429 J10.399 F1200.000 
G0 Z5.000 
G0 X54.990 Y117.779 Z5.000 
G0 X54.990 Y117.779 Z3.000 
G1 X54.990 Y117.779 Z-1.000 F500.000 
G3 X46.479 Y124.925 Z-1.000 I-7.490 J-0.279 F1200.000 
G3 X40.075 Y116.479 Z-1.000 I1.021 J-7.425 F1200.000 
G3 X48.521 Y110.075 Z-1.000 I7.425 J1.021 F1200.000 
G3 X54.990 Y117.779 Z-1.000 I-1.021 J7.425 F1200.000 
G0 Z5.000 
G0 X51.990 Y117.668 Z5.000 
G0 X51.990 Y117.668 Z3.000 
G1 X51.990 Y117.668 Z-1.000 F500.000 
G3 X46.888 Y121.951 Z-1.000 I-4.490 J-0.168 F1200.000 
G3 X43.049 Y116.888 Z-1.000 I0.612 J-4.451 F1200.000 
G3 X48.112 Y113.049 Z-1.000 I4.451 J0.612 F1200.000 
G3 X51.990 Y117.668 Z-1.000 I-0.612 J4.451 F1200.000 
G0 Z5.000 
G0 X48.990 Y117.556 Z5.000 
G0 X48.990 Y117.556 Z3.000 
G1 X48.990 Y117.556 Z-1.000 F500.000 
G3 X47.297 Y118.977 Z-1.000 I-1.490 J-0.056 F1200.000 
G3 X46.023 Y117.297 Z-1.000 I0.203 J-1.477 F1200.000 
G3 X47.703 Y116.023 Z-1.000 I1.477 J0.203 F1200.000 
G3 X48.990 Y117.556 Z-1.000 I-0.203 J1.477 F1200.000 
G0 Z5.000 
G0 X114.002 Y117.510 Z5.000 
G0 X114.002 Y117.510 Z3.000 
G1 X114.002 Y117.510 Z-1.000 F500.000 
G3 X129.338 Y104.127 Z-1.000 I13.498 J-0.010 F1200.000 
G3 X140.873 Y119.338 Z-1.000 I-1.838 J13.373 F1200.000 
G3 X125.662 Y130.873 Z-1.000 I-13.373 J-1.838 F1200.000 
G3 X114.002 Y117.510 Z-1.000 I1.838 J-13.373 F1200.000 
G0 Z5.000 
G0 X117.004 Y117.507 Z5.000 
G0 X117.004 Y117.507 Z3.000 
G1 X117.004 Y117.507 Z-1.000 F500.000 
G3 X128.929 Y107.101 Z-1.000 I10.496 J-0.007 F1200.000 
G3 X126.071 Y127.899 Z-1.000 I-1.429 J10.399 F1200.000 
G3 X117.004 Y117.507 Z-1.000 I1.429 J-10.399 F1200.000 
G0 Z5.000 
G0 X120.005 Y117.505 Z5.000 
G0 X120.005 Y117.505 Z3.000 
G1 X120.005 Y117.505 Z-1.000 F500.000 
G3 X128.521 Y110.075 Z-1.000 I7.495 J-0.005 F1200.000 
G3 X126.479 Y124.925 Z-1.000 I-1.021 J7.425 F1200.000 
G3 X120.005 Y117.505 Z-1.000 I1.021 J-7.425 F1200.000 
G0 Z5.000 
G0 X123.007 Y117.503 Z5.000 
G0 X123.007 Y117.503 Z3.000 
G1 X123.007 Y117.503 Z-1.000 F500.000 
G3 X128.112 Y113.049 Z-1.000 I4.493 J-0.003 F1200.000 
G3 X131.951 Y118.112 Z-1.000 I-0.612 J4.451 F1200.000 
G3 X126.888 Y121.951 Z-1.000 I-4.451 J-0.612 F1200.000 
G3 X123.007 Y117.503 Z-1.000 I0.612 J-4.451 F1200.000 
G0 Z5.000 
G0 X126.009 Y117.501 Z5.000 
G0 X126.009 Y117.501 Z3.000 
G1 X126.009 Y117.501 Z-1.000 F500.000 
G3 X127.703 Y116.023 Z-1.000 I1.491 J-0.001 F1200.000 
G3 X127.297 Y118.977 Z-1.000 I-0.203 J1.477 F1200.000 
G3 X126.009 Y117.501 Z-1.000 I0.203 J-1.477 F1200.000 
G0 Z5.000 
G0 X126.997 Y144.011 Z5.000 
G0 X126.997 Y144.011 Z3.000 
G1 X126.997 Y144.011 Z-1.000 F500.000 
G3 X129.338 Y144.127 Z-1.000 I0.503 J13.489 F1200.000 
G3 X140.873 Y159.338 Z-1.000 I-1.838 J13.373 F1200.000 
G3 X125.662 Y170.873 Z-1.000 I-13.373 J-1.838 F1200.000 
G3 X126.997 Y144.011 Z-1.000 I1.838 J-13.373 F1200.000 
G0 Z5.000 
G0 X127.109 Y147.011 Z5.000 
G0 X127.109 Y147.011 Z3.000 
G1 X127.109 Y147.011 Z-1.000 F500.000 
G3 X128.929 Y147.101 Z-1.000 I0.391 J10.489 F1200.000 
G3 X126.071 Y167.899 Z-1.000 I-1.429 J10.399 F1200.000 
G3 X127.109 Y147.011 Z-1.000 I1.429 J-10.399 F1200.000 
G0 Z5.000 
G0 X127.221 Y150.010 Z5.000 
G0 X127.221 Y150.010 Z3.000 
G1 X127.221 Y150.010 Z-1.000 F500.000 
G3 X128.521 Y150.075 Z-1.000 I0.279 J7.490 F1200.000 
G3 X126.479 Y164.925 Z-1.000 I-1.021 J7.425 F1200.000 
G3 X127.221 Y150.010 Z-1.000 I1.021 J-7.425 F1200.000 
G0 Z5.000 
G0 X127.333 Y153.010 Z5.000 
G0 X127.333 Y153.010 Z3.000 
G1 X127.333 Y153.010 Z-1.000 F500.000 
G3 X128.112 Y153.049 Z-1.000 I0.167 J4.490 F1200.000 
G3 X126.888 Y161.951 Z-1.000 I-0.612 J4.451 F1200.000 
G3 X127.333 Y153.010 Z-1.000 I0.612 J-4.451 F1200.000 
G0 Z5.000 
G0 X127.444 Y156.010 Z5.000 
G0 X127.444 Y156.010 Z3.000 
G1 X127.444 Y156.010 Z-1.000 F500.000 
G3 X127.703 Y156.023 Z-1.000 I0.056 J1.490 F1200.000 
G3 X127.297 Y158.977 Z-1.000 I-0.203 J1.477 F1200.000 
G3 X127.444 Y156.010 Z-1.000 I0.203 J-1.477 F1200.000 
G0 Z5.000 
G0 X154.011 Y156.998 Z5.000 
G0 X154.011 Y156.998 Z3.000 
G1 X154.011 Y156.998 Z-1.000 F500.000 
G3 X169.338 Y144.127 Z-1.000 I13.489 J0.502 F1200.000 
G3 X180.873 Y159.338 Z-1.000 I-1.838 J13.373 F1200.000 
G3 X165.662 Y170.873 Z-1.000 I-13.373 J-1.838 F1200.000 
G3 X154.011 Y156.998 Z-1.000 I1.838 J-13.373 F1200.000 
G0 Z5.000 
G0 X157.011 Y157.110 Z5.000 
G0 X157.011 Y157.110 Z3.000 
G1 X157.011 Y157.110 Z-1.000 F500.000 
G3 X168.929 Y147.101 Z-1.000 I10.489 J0.390 F1200.000 
G3 X166.071 Y167.899 Z-1.000 I-1.429 J10.399 F1200.000 
G3 X157.011 Y157.110 Z-1.000 I1.429 J-10.399 F1200.000 
G0 Z5.000 
G0 X160.010 Y157.221 Z5.000 
G0 X160.010 Y157.221 Z3.000 
G1 X160.010 Y157.221 Z-1.000 F500.000 
G3 X168.521 Y150.075 Z-1.000 I7.490 J0.279 F1200.000 
G3 X166.479 Y164.925 Z-1.000 I-1.021 J7.425 F1200.000 
G3 X160.010 Y157.221 Z-1.000 I1.021 J-7.425 F1200.000 
G0 Z5.000 
G0 X163.010 Y157.333 Z5.000 
G0 X163.010 Y157.333 Z3.000 
G1 X163.010 Y157.333 Z-1.000 F500.000 
G3 X168.112 Y153.049 Z-1.000 I4.490 J0.167 F1200.000 
G3 X166.888 Y161.951 Z-1.000 I-0.612 J4.451 F1200.000 
G3 X163.010 Y157.333 Z-1.000 I0.612 J-4.451 F1200.000 
G0 Z5.000 
G0 X166.010 Y157.445 Z5.000 
G0 X166.010 Y157.445 Z3.000 
G1 X166.010 Y157.445 Z-1.000 F500.000 
G3 X167.703 Y156.023 Z-1.000 I1.490 J0.055 F1200.000 
G3 X167.297 Y158.977 Z-1.000 I-0.203 J1.477 F1200.000 
G3 X166.010 Y157.445 Z-1.000 I0.203 J-1.477 F1200.000 
G0 Z5.000 
G0 X166.997 Y130.989 Z5.000 
G0 X166.997 Y130.989 Z3.000 
G1 X166.997 Y130.989 Z-1.000 F500.000 
G3 X165.662 Y130.873 Z-1.000 I0.503 J-13.489 F1200.000 
G3 X154.127 Y115.662 Z-1.000 I1.838 J-13.373 F1200.000 
G3 X169.338 Y104.127 Z-1.000 I13.373 J1.838 F1200.000 
G3 X166.997 Y130.989 Z-1.000 I-1.838 J13.373 F1200.000 
G0 Z5.000 
G0 X167.109 Y127.989 Z5.000 
G0 X167.109 Y127.989 Z3.000 
G1 X167.109 Y127.989 Z-1.000 F500.000 
G3 X166.071 Y127.899 Z-1.000 I0.391 J-10.489 F1200.000 
G3 X157.101 Y116.071 Z-1.000 I1.429 J-10.399 F1200.000 
G3 X168.929 Y107.101 Z-1.000 I10.399 J1.429 F1200.000 
G3 X167.109 Y127.989 Z-1.000 I-1.429 J10.399 F1200.000 
G0 Z5.000 
G0 X167.221 Y124.990 Z5.000 
G0 X167.221 Y124.990 Z3.000 
G1 X167.221 Y124.990 Z-1.000 F500.000 
G3 X166.479 Y124.925 Z-1.000 I0.279 J-7.490 F1200.000 
G3 X168.521 Y110.075 Z-1.000 I1.021 J-7.425 F1200.000 
G3 X167.221 Y124.990 Z-1.000 I-1.021 J7.425 F1200.000 
G0 Z5.000 
G0 X167.332 Y121.990 Z5.000 
G0 X167.332 Y121.990 Z3.000 
G1 X167.332 Y121.990 Z-1.000 F500.000 
G3 X166.888 Y121.951 Z-1.000 I0.168 J-4.490 F1200.000 
G3 X168.112 Y113.049 Z-1.000 I0.612 J-4.451 F1200.000 
G3 X167.332 Y121.990 Z-1.000 I-0.612 J4.451 F1200.000 
G0 Z5.000 
G0 X167.444 Y118.990 Z5.000 
G0 X167.444 Y118.990 Z3.000 
G1 X167.444 Y118.990 Z-1.000 F500.000 
G3 X167.297 Y118.977 Z-1.000 I0.056 J-1.490 F1200.000 
G3 X167.703 Y116.023 Z-1.000 I0.203 J-1.477 F1200.000 
G3 X167.444 Y118.990 Z-1.000 I-0.203 J1.477 F1200.000 
G0 Z5.000 
G0 X194.011 Y118.002 Z5.000 
G0 X194.011 Y118.002 Z3.000 
G1 X194.011 Y118.002 Z-1.000 F500.000 
G3 X209.338 Y104.127 Z-1.000 I13.489 J-0.502 F1200.000 
G3 X220.873 Y119.338 Z-1.000 I-1.838 J13.373 F1200.000 
G3 X205.662 Y130.873 Z-1.000 I-13.373 J-1.838 F1200.000 
G3 X194.011 Y118.002 Z-1.000 I1.838 J-13.373 F1200.000 
G0 Z5.000 
G0 X197.011 Y117.890 Z5.000 
G0 X197.011 Y117.890 Z3.000 
G1 X197.011 Y117.890 Z-1.000 F500.000 
G3 X208.929 Y107.101 Z-1.000 I10.489 J-0.390 F1200.000 
G3 X206.071 Y127.899 Z-1.000 I-1.429 J10.399 F1200.000 
G3 X197.011 Y117.890 Z-1.000 I1.429 J-10.399 F1200.000 
G0 Z5.000 
G0 X200.010 Y117.779 Z5.000 
G0 X200.010 Y117.779 Z3.000 
G1 X200.010 Y117.779 Z-1.000 F500.000 
G3 X208.521 Y110.075 Z-1.000 I7.490 J-0.279 F1200.000 
G3 X214.925 Y118.521 Z-1.000 I-1.021 J7.425 F1200.000 
G3 X206.479 Y124.925 Z-1.000 I-7.425 J-1.021 F1200.000 
G3 X200.010 Y117.779 Z-1.000 I1.021 J-7.425 F1200.000 
G0 Z5.000 
G0 X203.010 Y117.667 Z5.000 
G0 X203.010 Y117.667 Z3.000 
G1 X203.010 Y117.667 Z-1.000 F500.000 
G3 X208.112 Y113.049 Z-1.000 I4.490 J-0.167 F1200.000 
G3 X206.888 Y121.951 Z-1.000 I-0.612 J4.451 F1200.000 
G3 X203.010 Y117.667 Z-1.000 I0.612 J-4.451 F1200.000 
G0 Z5.000 
G0 X206.010 Y117.555 Z5.000 
G0 X206.010 Y117.555 Z3.000 
G1 X206.010 Y117.555 Z-1.000 F500.000 
G3 X207.703 Y116.023 Z-1.000 I1.490 J-0.055 F1200.000 
G3 X208.977 Y117.703 Z-1.000 I-0.203 J1.477 F1200.000 
G3 X207.297 Y118.977 Z-1.000 I-1.477 J-0.203 F1200.000 
G3 X206.010 Y117.555 Z-1.000 I0.203 J-1.477 F1200.000 
G0 Z5.000 
G0 X206.997 Y144.011 Z5.000 
G0 X206.997 Y144.011 Z3.000 
G1 X206.997 Y144.011 Z-1.000 F500.000 
G3 X209.338 Y144.127 Z-1.000 I0.503 J13.489 F1200.000 
G3 X220.873 Y159.338 Z-1.000 I-1.838 J13.373 F1200.000 
G3 X205.662 Y170.873 Z-1.000 I-13.373 J-1.838 F1200.000 
G3 X206.997 Y144.011 Z-1.000 I1.838 J-13.373 F1200.000 
G0 Z5.000 
G0 X207.109 Y147.011 Z5.000 
G0 X207.109 Y147.011 Z3.000 
G1 X207.109 Y147.011 Z-1.000 F500.000 
G3 X208.929 Y147.101 Z-1.000 I0.391 J10.489 F1200.000 
G3 X206.071 Y167.899 Z-1.000 I-1.429 J10.399 F1200.000 
G3 X207.109 Y147.011 Z-1.000 I1.429 J-10.399 F1200.000 
G0 Z5.000 
G0 X207.221 Y150.010 Z5.000 
G0 X207.221 Y150.010 Z3.000 
G1 X207.221 Y150.010 Z-1.000 F500.000 
G3 X208.521 Y150.075 Z-1.000 I0.279 J7.490 F1200.000 
G3 X206.479 Y164.925 Z-1.000 I-1.021 J7.425 F1200.000 
G3 X207.221 Y150.010 Z-1.000 I1.021 J-7.425 F1200.000 
G0 Z5.000 
G0 X207.332 Y153.010 Z5.000 
G0 X207.332 Y153.010 Z3.000 
G1 X207.332 Y153.010 Z-1.000 F500.000 
G3 X208.112 Y153.049 Z-1.000 I0.168 J4.490 F1200.000 
G3 X206.888 Y161.951 Z-1.000 I-0.612 J4.451 F1200.000 
G3 X207.332 Y153.010 Z-1.000 I0.612 J-4.451 F1200.000 
G0 Z5.000 
G0 X207.444 Y156.010 Z5.000 
G0 X207.444 Y156.010 Z3.000 
G1 X207.444 Y156.010 Z-1.000 F500.000 
G3 X207.703 Y156.023 Z-1.000 I0.056 J1.490 F1200.000 
G3 X207.297 Y158.977 Z-1.000 I-0.203 J1.477 F1200.000 
G3 X207.444 Y156.010 Z-1.000 I0.203 J-1.477 F1200.000 
G0 Z5.000 
G0 X234.011 Y156.998 Z5.000 
G0 X234.011 Y156.998 Z3.000 
G1 X234.011 Y156.998 Z-1.000 F500.000 
G3 X249.338 Y144.127 Z-1.000 I13.489 J0.502 F1200.000 
G3 X260.873 Y159.338 Z-1.000 I-1.838 J13.373 F1200.000 
G3 X245.662 Y170.873 Z-1.000 I-13.373 J-1.838 F1200.000 
G3 X234.011 Y156.998 Z-1.000 I1.838 J-13.373 F1200.000 
G0 Z5.000 
G0 X237.011 Y157.110 Z5.000 
G0 X237.011 Y157.110 Z3.000 
G1 X237.011 Y157.110 Z-1.000 F500.000 
G3 X248.929 Y147.101 Z-1.000 I10.489 J0.390 F1200.000 
G3 X246.071 Y167.899 Z-1.000 I-1.429 J10.399 F1200.000 
G3 X237.011 Y157.110 Z-1.000 I1.429 J-10.399 F1200.000 
G0 Z5.000 
G0 X240.010 Y157.221 Z5.000 
G0 X240.010 Y157.221 Z3.000 
G1 X240.010 Y157.221 Z-1.000 F500.000 
G3 X248.521 Y150.075 Z-1.000 I7.490 J0.279 F1200.000 
G3 X246.479 Y164.925 Z-1.000 I-1.021 J7.425 F1200.000 
G3 X240.010 Y157.221 Z-1.000 I1.021 J-7.425 F1200.000 
G0 Z5.000 
G0 X243.010 Y157.333 Z5.000 
G0 X243.010 Y157.333 Z3.000 
G1 X243.010 Y157.333 Z-1.000 F500.000 
G3 X248.112 Y153.049 Z-1.000 I4.490 J0.167 F1200.000 
G3 X246.888 Y161.951 Z-1.000 I-0.612 J4.451 F1200.000 
G3 X243.010 Y157.333 Z-1.000 I0.612 J-4.451 F1200.000 
G0 Z5.000 
G0 X246.010 Y157.445 Z5.000 
G0 X246.010 Y157.445 Z3.000 
G1 X246.010 Y157.445 Z-1.000 F500.000 
G3 X247.703 Y156.023 Z-1.000 I1.490 J0.055 F1200.000 
G3 X248.977 Y157.703 Z-1.000 I-0.203 J1.477 F1200.000 
G3 X247.297 Y158.977 Z-1.000 I-1.477 J-0.203 F1200.000 
G3 X246.010 Y157.445 Z-1.000 I0.203 J-1.477 F1200.000 
G0 Z5.000 
G0 X246.997 Y130.989 Z5.000 
G0 X246.997 Y130.989 Z3.000 
G1 X246.997 Y130.989 Z-1.000 F500.000 
G3 X245.662 Y130.873 Z-1.000 I0.503 J-13.489 F1200.000 
G3 X249.338 Y104.127 Z-1.000 I1.838 J-13.373 F1200.000 
G3 X246.997 Y130.989 Z-1.000 I-1.838 J13.373 F1200.000 
G0 Z5.000 
G0 X247.109 Y127.989 Z5.000 
G0 X247.109 Y127.989 Z3.000 
G1 X247.109 Y127.989 Z-1.000 F500.000 
G3 X246.071 Y127.899 Z-1.000 I0.391 J-10.489 F1200.000 
G3 X248.929 Y107.101 Z-1.000 I1.429 J-10.399 F1200.000 
G3 X247.109 Y127.989 Z-1.000 I-1.429 J10.399 F1200.000 
G0 Z5.000 
G0 X247.221 Y124.990 Z5.000 
G0 X247.221 Y124.990 Z3.000 
G1 X247.221 Y124.990 Z-1.000 F500.000 
G3 X246.479 Y124.925 Z-1.000 I0.279 J-7.490 F1200.000 
G3 X248.521 Y110.075 Z-1.000 I1.021 J-7.425 F1200.000 
G3 X247.221 Y124.990 Z-1.000 I-1.021 J7.425 F1200.000 
G0 Z5.000 
G0 X247.332 Y121.990 Z5.000 
G0 X247.332 Y121.990 Z3.000 
G1 X247.332 Y121.990 Z-1.000 F500.000 
G3 X246.888 Y121.951 Z-1.000 I0.168 J-4.490 F1200.000 
G3 X243.049 Y116.888 Z-1.000 I0.612 J-4.451 F1200.000 
G3 X248.112 Y113.049 Z-1.000 I4.451 J0.612 F1200.000 
G3 X247.332 Y121.990 Z-1.000 I-0.612 J4.451 F1200.000 
G0 Z5.000 
G0 X247.444 Y118.990 Z5.000 
G0 X247.444 Y118.990 Z3.000 
G1 X247.444 Y118.990 Z-1.000 F500.000 
G3 X247.297 Y118.977 Z-1.000 I0.056 J-1.490 F1200.000 
G3 X247.703 Y116.023 Z-1.000 I0.203 J-1.477 F1200.000 
G3 X247.444 Y118.990 Z-1.000 I-0.203 J1.477 F1200.000 
G0 Z5.000 
G0 X247.490 Y184.002 Z5.000 
G0 X247.490 Y184.002 Z3.000 
G1 X247.490 Y184.002 Z-1.000 F500.000 
G3 X249.338 Y184.127 Z-1.000 I0.010 J13.498 F1200.000 
G3 X260.873 Y199.338 Z-1.000 I-1.838 J13.373 F1200.000 
G3 X245.662 Y210.873 Z-1.000 I-13.373 J-1.838 F1200.000 
G3 X247.490 Y184.002 Z-1.000 I1.838 J-13.373 F1200.000 
G0 Z5.000 
G0 X247.493 Y187.004 Z5.000 
G0 X247.493 Y187.004 Z3.000 
G1 X247.493 Y187.004 Z-1.000 F500.000 
G3 X248.929 Y187.101 Z-1.000 I0.007 J10.496 F1200.000 
G3 X257.899 Y198.929 Z-1.000 I-1.429 J10.399 F1200.000 
G3 X246.071 Y207.899 Z-1.000 I-10.399 J-1.429 F1200.000 
G3 X247.493 Y187.004 Z-1.000 I1.429 J-10.399 F1200.000 
G0 Z5.000 
G0 X247.495 Y190.005 Z5.000 
G0 X247.495 Y190.005 Z3.000 
G1 X247.495 Y190.005 Z-1.000 F500.000 
G3 X248.521 Y190.075 Z-1.000 I0.005 J7.495 F1200.000 
G3 X254.925 Y198.521 Z-1.000 I-1.021 J7.425 F1200.000 
G3 X246.479 Y204.925 Z-1.000 I-7.425 J-1.021 F1200.000 
G3 X247.495 Y190.005 Z-1.000 I1.021 J-7.425 F1200.000 
G0 Z5.000 
G0 X247.497 Y193.007 Z5.000 
G0 X247.497 Y193.007 Z3.000 
G1 X247.497 Y193.007 Z-1.000 F500.000 
G3 X248.112 Y193.049 Z-1.000 I0.003 J4.493 F1200.000 
G3 X246.888 Y201.951 Z-1.000 I-0.612 J4.451 F1200.000 
G3 X247.497 Y193.007 Z-1.000 I0.612 J-4.451 F1200.000 
G0 Z5.000 
G0 X247.499 Y196.009 Z5.000 
G0 X247.499 Y196.009 Z3.000 
G1 X247.499 Y196.009 Z-1.000 F500.000 
G3 X247.703 Y196.023 Z-1.000 I0.001 J1.491 F1200.000 
G3 X248.977 Y197.703 Z-1.000 I-0.203 J1.477 F1200.000 
G3 X247.297 Y198.977 Z-1.000 I-1.477 J-0.203 F1200.000 
G3 X247.499 Y196.009 Z-1.000 I0.203 J-1.477 F1200.000 
G0 Z5.000 
G0 X220.989 Y196.997 Z5.000 
G0 X220.989 Y196.997 Z3.000 
G1 X220.989 Y196.997 Z-1.000 F500.000 
G3 X205.662 Y210.873 Z-1.000 I-13.489 J0.503 F1200.000 
G3 X209.338 Y184.127 Z-1.000 I1.838 J-13.373 F1200.000 
G3 X220.989 Y196.997 Z-1.000 I-1.838 J13.373 F1200.000 
G0 Z5.000 
G0 X217.989 Y197.109 Z5.000 
G0 X217.989 Y197.109 Z3.000 
G1 X217.989 Y197.109 Z-1.000 F500.000 
G3 X206.071 Y207.899 Z-1.000 I-10.489 J0.391 F1200.000 
G3 X197.101 Y196.071 Z-1.000 I1.429 J-10.399 F1200.000 
G3 X208.929 Y187.101 Z-1.000 I10.399 J1.429 F1200.000 
G3 X217.989 Y197.109 Z-1.000 I-1.429 J10.399 F1200.000 
G0 Z5.000 
G0 X214.990 Y197.221 Z5.000 
G0 X214.990 Y197.221 Z3.000 
G1 X214.990 Y197.221 Z-1.000 F500.000 
G3 X206.479 Y204.925 Z-1.000 I-7.490 J0.279 F1200.000 
G3 X208.521 Y190.075 Z-1.000 I1.021 J-7.425 F1200.000 
G3 X214.990 Y197.221 Z-1.000 I-1.021 J7.425 F1200.000 
G0 Z5.000 
G0 X211.990 Y197.333 Z5.000 
G0 X211.990 Y197.333 Z3.000 
G1 X211.990 Y197.333 Z-1.000 F500.000 
G3 X206.888 Y201.951 Z-1.000 I-4.490 J0.167 F1200.000 
G3 X203.049 Y196.888 Z-1.000 I0.612 J-4.451 F1200.000 
G3 X208.112 Y193.049 Z-1.000 I4.451 J0.612 F1200.000 
G3 X211.990 Y197.333 Z-1.000 I-0.612 J4.451 F1200.000 
G0 Z5.000 
G0 X208.990 Y197.444 Z5.000 
G0 X208.990 Y197.444 Z3.000 
G1 X208.990 Y197.444 Z-1.000 F500.000 
G3 X207.297 Y198.977 Z-1.000 I-1.490 J0.056 F1200.000 
G3 X207.703 Y196.023 Z-1.000 I0.203 J-1.477 F1200.000 
G3 X208.990 Y197.444 Z-1.000 I-0.203 J1.477 F1200.000 
G0 Z5.000 
G0 X208.002 Y224.011 Z5.000 
G0 X208.002 Y224.011 Z3.000 
G1 X208.002 Y224.011 Z-1.000 F500.000 
G3 X209.338 Y224.127 Z-1.000 I-0.502 J13.489 F1200.000 
G3 X205.662 Y250.873 Z-1.000 I-1.838 J13.373 F1200.000 
G3 X208.002 Y224.011 Z-1.000 I1.838 J-13.373 F1200.000 
G0 Z5.000 
G0 X207.890 Y227.011 Z5.000 
G0 X207.890 Y227.011 Z3.000 
G1 X207.890 Y227.011 Z-1.000 F500.000 
G3 X208.929 Y227.101 Z-1.000 I-0.390 J10.489 F1200.000 
G3 X206.071 Y247.899 Z-1.000 I-1.429 J10.399 F1200.000 
G3 X207.890 Y227.011 Z-1.000 I1.429 J-10.399 F1200.000 
G0 Z5.000 
G0 X207.779 Y230.010 Z5.000 
G0 X207.779 Y230.010 Z3.000 
G1 X207.779 Y230.010 Z-1.000 F500.000 
G3 X208.521 Y230.075 Z-1.000 I-0.279 J7.490 F1200.000 
G3 X206.479 Y244.925 Z-1.000 I-1.021 J7.425 F1200.000 
G3 X207.779 Y230.010 Z-1.000 I1.021 J-7.425 F1200.000 
G0 Z5.000 
G0 X207.667 Y233.010 Z5.000 
G0 X207.667 Y233.010 Z3.000 
G1 X207.667 Y233.010 Z-1.000 F500.000 
G3 X208.112 Y233.049 Z-1.000 I-0.167 J4.490 F1200.000 
G3 X206.888 Y241.951 Z-1.000 I-0.612 J4.451 F1200.000 
G3 X207.667 Y233.010 Z-1.000 I0.612 J-4.451 F1200.000 
G0 Z5.000 
G0 X207.555 Y236.010 Z5.000 
G0 X207.555 Y236.010 Z3.000 
G1 X207.555 Y236.010 Z-1.000 F500.000 
G3 X207.703 Y236.023 Z-1.000 I-0.055 J1.490 F1200.000 
G3 X208.977 Y237.703 Z-1.000 I-0.203 J1.477 F1200.000 
G3 X207.297 Y238.977 Z-1.000 I-1.477 J-0.203 F1200.000 
G3 X207.555 Y236.010 Z-1.000 I0.203 J-1.477 F1200.000 
G0 Z5.000 
G0 X234.011 Y236.997 Z5.000 
G0 X234.011 Y236.997 Z3.000 
G1 X234.011 Y236.997 Z-1.000 F500.000 
G3 X249.338 Y224.127 Z-1.000 I13.489 J0.503 F1200.000 
G3 X260.873 Y239.338 Z-1.000 I-1.838 J13.373 F1200.000 
G3 X245.662 Y250.873 Z-1.000 I-13.373 J-1.838 F1200.000 
G3 X234.011 Y236.997 Z-1.000 I1.838 J-13.373 F1200.000 
G0 Z5.000 
G0 X237.011 Y237.109 Z5.000 
G0 X237.011 Y237.109 Z3.000 
G1 X237.011 Y237.109 Z-1.000 F500.000 
G3 X248.929 Y227.101 Z-1.000 I10.489 J0.391 F1200.000 
G3 X257.899 Y238.929 Z-1.000 I-1.429 J10.399 F1200.000 
G3 X246.071 Y247.899 Z-1.000 I-10.399 J-1.429 F1200.000 
G3 X237.011 Y237.109 Z-1.000 I1.429 J-10.399 F1200.000 
G0 Z5.000 
G0 X240.010 Y237.221 Z5.000 
G0 X240.010 Y237.221 Z3.000 
G1 X240.010 Y237.221 Z-1.000 F500.000 
G3 X248.521 Y230.075 Z-1.000 I7.490 J0.279 F1200.000 
G3 X254.925 Y238.521 Z-1.000 I-1.021 J7.425 F1200.000 
G3 X246.479 Y244.925 Z-1.000 I-7.425 J-1.021 F1200.000 
G3 X240.010 Y237.221 Z-1.000 I1.021 J-7.425 F1200.000 
G0 Z5.000 
G0 X243.010 Y237.332 Z5.000 
G0 X243.010 Y237.332 Z3.000 
G1 X243.010 Y237.332 Z-1.000 F500.000 
G3 X248.112 Y233.049 Z-1.000 I4.490 J0.168 F1200.000 
G3 X246.888 Y241.951 Z-1.000 I-0.612 J4.451 F1200.000 
G3 X243.010 Y237.332 Z-1.000 I0.612 J-4.451 F1200.000 
G0 Z5.000 
G0 X246.010 Y237.444 Z5.000 
G0 X246.010 Y237.444 Z3.000 
G1 X246.010 Y237.444 Z-1.000 F500.000 
G3 X247.703 Y236.023 Z-1.000 I1.490 J0.056 F1200.000 
G3 X248.977 Y237.703 Z-1.000 I-0.203 J1.477 F1200.000 
G3 X247.297 Y238.977 Z-1.000 I-1.477 J-0.203 F1200.000 
G3 X246.010 Y237.444 Z-1.000 I0.203 J-1.477 F1200.000 
G0 Z5.000 
G0 X180.998 Y237.490 Z5.000 
G0 X180.998 Y237.490 Z3.000 
G1 X180.998 Y237.490 Z-1.000 F500.000 
G3 X165.662 Y250.873 Z-1.000 I-13.498 J0.010 F1200.000 
G3 X169.338 Y224.127 Z-1.000 I1.838 J-13.373 F1200.000 
G3 X180.998 Y237.490 Z-1.000 I-1.838 J13.373 F1200.000 
G0 Z5.000 
G0 X177.996 Y237.493 Z5.000 
G0 X177.996 Y237.493 Z3.000 
G1 X177.996 Y237.493 Z-1.000 F500.000 
G3 X166.071 Y247.899 Z-1.000 I-10.496 J0.007 F1200.000 
G3 X168.929 Y227.101 Z-1.000 I1.429 J-10.399 F1200.000 
G3 X177.996 Y237.493 Z-1.000 I-1.429 J10.399 F1200.000 
G0 Z5.000 
G0 X174.995 Y237.495 Z5.000 
G0 X174.995 Y237.495 Z3.000 
G1 X174.995 Y237.495 Z-1.000 F500.000 
G3 X166.479 Y244.925 Z-1.000 I-7.495 J0.005 F1200.000 
G3 X160.075 Y236.479 Z-1.000 I1.021 J-7.425 F1200.000 
G3 X168.521 Y230.075 Z-1.000 I7.425 J1.021 F1200.000 
G3 X174.995 Y237.495 Z-1.000 I-1.021 J7.425 F1200.000 
G0 Z5.000 
G0 X171.993 Y237.497 Z5.000 
G0 X171.993 Y237.497 Z3.000 
G1 X171.993 Y237.497 Z-1.000 F500.000 
G3 X166.888 Y241.951 Z-1.000 I-4.493 J0.003 F1200.000 
G3 X168.112 Y233.049 Z-1.000 I0.612 J-4.451 F1200.000 
G3 X171.993 Y237.497 Z-1.000 I-0.612 J4.451 F1200.000 
G0 Z5.000 
G0 X168.991 Y237.499 Z5.000 
G0 X168.991 Y237.499 Z3.000 
G1 X168.991 Y237.499 Z-1.000 F500.000 
G3 X167.297 Y238.977 Z-1.000 I-1.491 J0.001 F1200.000 
G3 X166.023 Y237.297 Z-1.000 I0.203 J-1.477 F1200.000 
G3 X167.703 Y236.023 Z-1.000 I1.477 J0.203 F1200.000 
G3 X168.991 Y237.499 Z-1.000 I-0.203 J1.477 F1200.000 
G0 Z5.000 
G0 X168.003 Y210.989 Z5.000 
G0 X168.003 Y210.989 Z3.000 
G1 X168.003 Y210.989 Z-1.000 F500.000 
G3 X165.662 Y210.873 Z-1.000 I-0.503 J-13.489 F1200.000 
G3 X169.338 Y184.127 Z-1.000 I1.838 J-13.373 F1200.000 
G3 X168.003 Y210.989 Z-1.000 I-1.838 J13.373 F1200.000 
G0 Z5.000 
G0 X167.891 Y207.989 Z5.000 
G0 X167.891 Y207.989 Z3.000 
G1 X167.891 Y207.989 Z-1.000 F500.000 
G3 X166.071 Y207.899 Z-1.000 I-0.391 J-10.489 F1200.000 
G3 X168.929 Y187.101 Z-1.000 I1.429 J-10.399 F1200.000 
G3 X167.891 Y207.989 Z-1.000 I-1.429 J10.399 F1200.000 
G0 Z5.000 
G0 X167.779 Y204.990 Z5.000 
G0 X167.779 Y204.990 Z3.000 
G1 X167.779 Y204.990 Z-1.000 F500.000 
G3 X166.479 Y204.925 Z-1.000 I-0.279 J-7.490 F1200.000 
G3 X160.075 Y196.479 Z-1.000 I1.021 J-7.425 F1200.000 
G3 X168.521 Y190.075 Z-1.000 I7.425 J1.021 F1200.000 
G3 X167.779 Y204.990 Z-1.000 I-1.021 J7.425 F1200.000 
G0 Z5.000 
G0 X167.667 Y201.990 Z5.000 
G0 X167.667 Y201.990 Z3.000 
G1 X167.667 Y201.990 Z-1.000 F500.000 
G3 X166.888 Y201.951 Z-1.000 I-0.167 J-4.490 F1200.000 
G3 X168.112 Y193.049 Z-1.000 I0.612 J-4.451 F1200.000 
G3 X167.667 Y201.990 Z-1.000 I-0.612 J4.451 F1200.000 
G0 Z5.000 
G0 X167.556 Y198.990 Z5.000 
G0 X167.556 Y198.990 Z3.000 
G1 X167.556 Y198.990 Z-1.000 F500.000 
G3 X167.297 Y198.977 Z-1.000 I-0.056 J-1.490 F1200.000 
G3 X167.703 Y196.023 Z-1.000 I0.203 J-1.477 F1200.000 
G3 X167.556 Y198.990 Z-1.000 I-0.203 J1.477 F1200.000 
G0 Z5.000 
G0 X140.989 Y198.002 Z5.000 
G0 X140.989 Y198.002 Z3.000 
G1 X140.989 Y198.002 Z-1.000 F500.000 
G3 X125.662 Y210.873 Z-1.000 I-13.489 J-0.502 F1200.000 
G3 X129.338 Y184.127 Z-1.000 I1.838 J-13.373 F1200.000 
G3 X140.989 Y198.002 Z-1.000 I-1.838 J13.373 F1200.000 
G0 Z5.000 
G0 X137.989 Y197.890 Z5.000 
G0 X137.989 Y197.890 Z3.000 
G1 X137.989 Y197.890 Z-1.000 F500.000 
G3 X126.071 Y207.899 Z-1.000 I-10.489 J-0.390 F1200.000 
G3 X117.101 Y196.071 Z-1.000 I1.429 J-10.399 F1200.000 
G3 X128.929 Y187.101 Z-1.000 I10.399 J1.429 F1200.000 
G3 X137.989 Y197.890 Z-1.000 I-1.429 J10.399 F1200.000 
G0 Z5.000 
G0 X134.990 Y197.779 Z5.000 
G0 X134.990 Y197.779 Z3.000 
G1 X134.990 Y197.779 Z-1.000 F500.000 
G3 X126.479 Y204.925 Z-1.000 I-7.490 J-0.279 F1200.000 
G3 X128.521 Y190.075 Z-1.000 I1.021 J-7.425 F1200.000 
G3 X134.990 Y197.779 Z-1.000 I-1.021 J7.425 F1200.000 
G0 Z5.000 
G0 X131.990 Y197.667 Z5.000 
G0 X131.990 Y197.667 Z3.000 
G1 X131.990 Y197.667 Z-1.000 F500.000 
G3 X126.888 Y201.951 Z-1.000 I-4.490 J-0.167 F1200.000 
G3 X123.049 Y196.888 Z-1.000 I0.612 J-4.451 F1200.000 
G3 X128.112 Y193.049 Z-1.000 I4.451 J0.612 F1200.000 
G3 X131.990 Y197.667 Z-1.000 I-0.612 J4.451 F1200.000 
G0 Z5.000 
G0 X128.990 Y197.555 Z5.000 
G0 X128.990 Y197.555 Z3.000 
G1 X128.990 Y197.555 Z-1.000 F500.000 
G3 X127.297 Y198.977 Z-1.000 I-1.490 J-0.055 F1200.000 
G3 X126.023 Y197.297 Z-1.000 I0.203 J-1.477 F1200.000 
G3 X127.703 Y196.023 Z-1.000 I1.477 J0.203 F1200.000 
G3 X128.990 Y197.555 Z-1.000 I-0.203 J1.477 F1200.000 
G0 Z5.000 
G0 X128.003 Y224.011 Z5.000 
G0 X128.003 Y224.011 Z3.000 
G1 X128.003 Y224.011 Z-1.000 F500.000 
G3 X129.338 Y224.127 Z-1.000 I-0.503 J13.489 F1200.000 
G3 X140.873 Y239.338 Z-1.000 I-1.838 J13.373 F1200.000 
G3 X125.662 Y250.873 Z-1.000 I-13.373 J-1.838 F1200.000 
G3 X128.003 Y224.011 Z-1.000 I1.838 J-13.373 F1200.000 
G0 Z5.000 
G0 X127.891 Y227.011 Z5.000 
G0 X127.891 Y227.011 Z3.000 
G1 X127.891 Y227.011 Z-1.000 F500.000 
G3 X128.929 Y227.101 Z-1.000 I-0.391 J10.489 F1200.000 
G3 X126.071 Y247.899 Z-1.000 I-1.429 J10.399 F1200.000 
G3 X127.891 Y227.011 Z-1.000 I1.429 J-10.399 F1200.000 
G0 Z5.000 
G0 X127.779 Y230.010 Z5.000 
G0 X127.779 Y230.010 Z3.000 
G1 X127.779 Y230.010 Z-1.000 F500.000 
G3 X128.521 Y230.075 Z-1.000 I-0.279 J7.490 F1200.000 
G3 X126.479 Y244.925 Z-1.000 I-1.021 J7.425 F1200.000 
G3 X127.779 Y230.010 Z-1.000 I1.021 J-7.425 F1200.000 
G0 Z5.000 
G0 X127.668 Y233.010 Z5.000 
G0 X127.668 Y233.010 Z3.000 
G1 X127.668 Y233.010 Z-1.000 F500.000 
G3 X128.112 Y233.049 Z-1.000 I-0.168 J4.490 F1200.000 
G3 X131.951 Y238.112 Z-1.000 I-0.612 J4.451 F1200.000 
G3 X126.888 Y241.951 Z-1.000 I-4.451 J-0.612 F1200.000 
G3 X127.668 Y233.010 Z-1.000 I0.612 J-4.451 F1200.000 
G0 Z5.000 
G0 X127.556 Y236.010 Z5.000 
G0 X127.556 Y236.010 Z3.000 
G1 X127.556 Y236.010 Z-1.000 F500.000 
G3 X127.703 Y236.023 Z-1.000 I-0.056 J1.490 F1200.000 
G3 X127.297 Y238.977 Z-1.000 I-0.203 J1.477 F1200.000 
G3 X127.556 Y236.010 Z-1.000 I0.203 J-1.477 F1200.000 
G0 Z5.000 
G0 X127.518 Y237.010 Z5.000 
G0 X127.518 Y237.010 Z3.000 
G1 X127.518 Y237.010 Z-2.000 F500.000 
G3 X127.570 Y237.015 Z-2.000 I-0.018 J0.490 F1200.000 
G3 X127.985 Y237.570 Z-2.000 I-0.070 J0.485 F1200.000 
G3 X127.430 Y237.985 Z-2.000 I-0.485 J-0.070 F1200.000 
G3 X127.518 Y237.010 Z-2.000 I0.070 J-0.485 F1200.000 
G0 Z5.000 
G0 X127.630 Y234.010 Z5.000 
G0 X127.630 Y234.010 Z3.000 
G1 X127.630 Y234.010 Z-2.000 F500.000 
G3 X127.997 Y234.043 Z-2.000 I-0.130 J3.490 F1200.000 
G3 X130.957 Y237.997 Z-2.000 I-0.497 J3.457 F1200.000 
G3 X127.003 Y240.957 Z-2.000 I-3.457 J-0.497 F1200.000 
G3 X127.630 Y234.010 Z-2.000 I0.497 J-3.457 F1200.000 
G0 Z5.000 
G0 X127.742 Y231.010 Z5.000 
G0 X127.742 Y231.010 Z3.000 
G1 X127.742 Y231.010 Z-2.000 F500.000 
G3 X128.424 Y231.072 Z-2.000 I-0.242 J6.490 F1200.000 
G3 X126.576 Y243.928 Z-2.000 I-0.924 J6.428 F1200.000 
G3 X127.742 Y231.010 Z-2.000 I0.924 J-6.428 F1200.000 
G0 Z5.000 
G0 X127.854 Y228.010 Z5.000 
G0 X127.854 Y228.010 Z3.000 
G1 X127.854 Y228.010 Z-2.000 F500.000 
G3 X128.851 Y228.100 Z-2.000 I-0.354 J9.490 F1200.000 
G3 X126.149 Y246.900 Z-2.000 I-1.351 J9.400 F1200.000 
G3 X127.854 Y228.010 Z-2.000 I1.351 J-9.400 F1200.000 
G0 Z5.000 
G0 X127.966 Y225.011 Z5.000 
G0 X127.966 Y225.011 Z3.000 
G1 X127.966 Y225.011 Z-2.000 F500.000 
G3 X129.279 Y225.129 Z-2.000 I-0.466 J12.489 F1200.000 
G3 X125.721 Y249.871 Z-2.000 I-1.779 J12.371 F1200.000 
G3 X127.966 Y225.011 Z-2.000 I1.779 J-12.371 F1200.000 
G0 Z5.000 
G0 X127.712 Y209.996 Z5.000 
G0 X127.712 Y209.996 Z3.000 
G1 X127.712 Y209.996 Z-2.000 F500.000 
G3 X125.721 Y209.871 Z-2.000 I-0.212 J-12.496 F1200.000 
G3 X115.129 Y195.721 Z-2.000 I1.779 J-12.371 F1200.000 
G3 X129.279 Y185.129 Z-2.000 I12.371 J1.779 F1200.000 
G3 X127.712 Y209.996 Z-2.000 I-1.779 J12.371 F1200.000 
G0 Z5.000 
G0 X127.661 Y206.995 Z5.000 
G0 X127.661 Y206.995 Z3.000 
G1 X127.661 Y206.995 Z-2.000 F500.000 
G3 X126.149 Y206.900 Z-2.000 I-0.161 J-9.495 F1200.000 
G3 X118.100 Y196.149 Z-2.000 I1.351 J-9.400 F1200.000 
G3 X128.851 Y188.100 Z-2.000 I9.400 J1.351 F1200.000 
G3 X127.661 Y206.995 Z-2.000 I-1.351 J9.400 F1200.000 
G0 Z5.000 
G0 X127.610 Y203.993 Z5.000 
G0 X127.610 Y203.993 Z3.000 
G1 X127.610 Y203.993 Z-2.000 F500.000 
G3 X126.576 Y203.928 Z-2.000 I-0.110 J-6.493 F1200.000 
G3 X121.072 Y196.576 Z-2.000 I0.924 J-6.428 F1200.000 
G3 X128.424 Y191.072 Z-2.000 I6.428 J0.924 F1200.000 
G3 X127.610 Y203.993 Z-2.000 I-0.924 J6.428 F1200.000 
G0 Z5.000 
G0 X127.559 Y200.992 Z5.000 
G0 X127.559 Y200.992 Z3.000 
G1 X127.559 Y200.992 Z-2.000 F500.000 
G3 X127.003 Y200.957 Z-2.000 I-0.059 J-3.492 F1200.000 
G3 X127.997 Y194.043 Z-2.000 I0.497 J-3.457 F1200.000 
G3 X127.559 Y200.992 Z-2.000 I-0.497 J3.457 F1200.000 
G0 Z5.000 
G0 X127.508 Y197.990 Z5.000 
G0 X127.508 Y197.990 Z3.000 
G1 X127.508 Y197.990 Z-2.000 F500.000 
G3 X127.430 Y197.985 Z-2.000 I-0.008 J-0.490 F1200.000 
G3 X127.570 Y197.015 Z-2.000 I0.070 J-0.485 F1200.000 
G3 X127.508 Y197.990 Z-2.000 I-0.070 J0.485 F1200.000 
G0 Z5.000 
G0 X155.003 Y197.653 Z5.000 
G0 X155.003 Y197.653 Z3.000 
G1 X155.003 Y197.653 Z-2.000 F500.000 
G3 X169.279 Y185.129 Z-2.000 I12.497 J-0.153 F1200.000 
G3 X179.871 Y199.279 Z-2.000 I-1.779 J12.371 F1200.000 
G3 X165.721 Y209.871 Z-2.000 I-12.371 J-1.779 F1200.000 
G3 X155.003 Y197.653 Z-2.000 I1.779 J-12.371 F1200.000 
G0 Z5.000 
G0 X158.005 Y197.616 Z5.000 
G0 X158.005 Y197.616 Z3.000 
G1 X158.005 Y197.616 Z-2.000 F500.000 
G3 X168.851 Y188.100 Z-2.000 I9.495 J-0.116 F1200.000 
G3 X176.900 Y198.851 Z-2.000 I-1.351 J9.400 F1200.000 
G3 X166.149 Y206.900 Z-2.000 I-9.400 J-1.351 F1200.000 
G3 X158.005 Y197.616 Z-2.000 I1.351 J-9.400 F1200.000 
G0 Z5.000 
G0 X161.006 Y197.580 Z5.000 
G0 X161.006 Y197.580 Z3.000 
G1 X161.006 Y197.580 Z-2.000 F500.000 
G3 X168.424 Y191.072 Z-2.000 I6.494 J-0.080 F1200.000 
G3 X173.928 Y198.424 Z-2.000 I-0.924 J6.428 F1200.000 
G3 X166.576 Y203.928 Z-2.000 I-6.428 J-0.924 F1200.000 
G3 X161.006 Y197.580 Z-2.000 I0.924 J-6.428 F1200.000 
G0 Z5.000 
G0 X164.008 Y197.543 Z5.000 
G0 X164.008 Y197.543 Z3.000 
G1 X164.008 Y197.543 Z-2.000 F500.000 
G3 X167.997 Y194.043 Z-2.000 I3.492 J-0.043 F1200.000 
G3 X170.957 Y197.997 Z-2.000 I-0.497 J3.457 F1200.000 
G3 X167.003 Y200.957 Z-2.000 I-3.457 J-0.497 F1200.000 
G3 X164.008 Y197.543 Z-2.000 I0.497 J-3.457 F1200.000 
G0 Z5.000 
G0 X167.010 Y197.506 Z5.000 
G0 X167.010 Y197.506 Z3.000 
G1 X167.010 Y197.506 Z-2.000 F500.000 
G3 X167.570 Y197.015 Z-2.000 I0.490 J-0.006 F1200.000 
G3 X167.430 Y197.985 Z-2.000 I-0.070 J0.485 F1200.000 
G3 X167.010 Y197.506 Z-2.000 I0.070 J-0.485 F1200.000 
G0 Z5.000 
G0 X167.347 Y225.003 Z5.000 
G0 X167.347 Y225.003 Z3.000 
G1 X167.347 Y225.003 Z-2.000 F500.000 
G3 X169.279 Y225.129 Z-2.000 I0.153 J12.497 F1200.000 
G3 X179.871 Y239.279 Z-2.000 I-1.779 J12.371 F1200.000 
G3 X165.721 Y249.871 Z-2.000 I-12.371 J-1.779 F1200.000 
G3 X167.347 Y225.003 Z-2.000 I1.779 J-12.371 F1200.000 
G0 Z5.000 
G0 X167.384 Y228.005 Z5.000 
G0 X167.384 Y228.005 Z3.000 
G1 X167.384 Y228.005 Z-2.000 F500.000 
G3 X168.851 Y228.100 Z-2.000 I0.116 J9.495 F1200.000 
G3 X176.900 Y238.851 Z-2.000 I-1.351 J9.400 F1200.000 
G3 X166.149 Y246.900 Z-2.000 I-9.400 J-1.351 F1200.000 
G3 X167.384 Y228.005 Z-2.000 I1.351 J-9.400 F1200.000 
G0 Z5.000 
G0 X167.420 Y231.006 Z5.000 
G0 X167.420 Y231.006 Z3.000 
G1 X167.420 Y231.006 Z-2.000 F500.000 
G3 X168.424 Y231.072 Z-2.000 I0.080 J6.494 F1200.000 
G3 X173.928 Y238.424 Z-2.000 I-0.924 J6.428 F1200.000 
G3 X166.576 Y243.928 Z-2.000 I-6.428 J-0.924 F1200.000 
G3 X167.420 Y231.006 Z-2.000 I0.924 J-6.428 F1200.000 
G0 Z5.000 
G0 X167.457 Y234.008 Z5.000 
G0 X167.457 Y234.008 Z3.000 
G1 X167.457 Y234.008 Z-2.000 F500.000 
G3 X167.997 Y234.043 Z-2.000 I0.043 J3.492 F1200.000 
G3 X167.003 Y240.957 Z-2.000 I-0.497 J3.457 F1200.000 
G3 X167.457 Y234.008 Z-2.000 I0.497 J-3.457 F1200.000 
G0 Z5.000 
G0 X167.494 Y237.010 Z5.000 
G0 X167.494 Y237.010 Z3.000 
G1 X167.494 Y237.010 Z-2.000 F500.000 
G3 X167.570 Y237.015 Z-2.000 I0.006 J0.490 F1200.000 
G3 X167.430 Y237.985 Z-2.000 I-0.070 J0.485 F1200.000 
G3 X167.494 Y237.010 Z-2.000 I0.070 J-0.485 F1200.000 
G0 Z5.000 
G0 X195.003 Y237.347 Z5.000 
G0 X195.003 Y237.347 Z3.000 
G1 X195.003 Y237.347 Z-2.000 F500.000 
G3 X209.279 Y225.129 Z-2.000 I12.497 J0.153 F1200.000 
G3 X205.721 Y249.871 Z-2.000 I-1.779 J12.371 F1200.000 
G3 X195.003 Y237.347 Z-2.000 I1.779 J-12.371 F1200.000 
G0 Z5.000 
G0 X198.005 Y237.384 Z5.000 
G0 X198.005 Y237.384 Z3.000 
G1 X198.005 Y237.384 Z-2.000 F500.000 
G3 X208.851 Y228.100 Z-2.000 I9.495 J0.116 F1200.000 
G3 X206.149 Y246.900 Z-2.000 I-1.351 J9.400 F1200.000 
G3 X198.005 Y237.384 Z-2.000 I1.351 J-9.400 F1200.000 
G0 Z5.000 
G0 X201.006 Y237.420 Z5.000 
G0 X201.006 Y237.420 Z3.000 
G1 X201.006 Y237.420 Z-2.000 F500.000 
G3 X208.424 Y231.072 Z-2.000 I6.494 J0.080 F1200.000 
G3 X206.576 Y243.928 Z-2.000 I-0.924 J6.428 F1200.000 
G3 X201.006 Y237.420 Z-2.000 I0.924 J-6.428 F1200.000 
G0 Z5.000 
G0 X204.008 Y237.457 Z5.000 
G0 X204.008 Y237.457 Z3.000 
G1 X204.008 Y237.457 Z-2.000 F500.000 
G3 X207.997 Y234.043 Z-2.000 I3.492 J0.043 F1200.000 
G3 X207.003 Y240.957 Z-2.000 I-0.497 J3.457 F1200.000 
G3 X204.008 Y237.457 Z-2.000 I0.497 J-3.457 F1200.000 
G0 Z5.000 
G0 X207.010 Y237.494 Z5.000 
G0 X207.010 Y237.494 Z3.000 
G1 X207.010 Y237.494 Z-2.000 F500.000 
G3 X207.570 Y237.015 Z-2.000 I0.490 J0.006 F1200.000 
G3 X207.985 Y237.570 Z-2.000 I-0.070 J0.485 F1200.000 
G3 X207.430 Y237.985 Z-2.000 I-0.485 J-0.070 F1200.000 
G3 X207.010 Y237.494 Z-2.000 I0.070 J-0.485 F1200.000 
G0 Z5.000 
G0 X207.347 Y209.997 Z5.000 
G0 X207.347 Y209.997 Z3.000 
G1 X207.347 Y209.997 Z-2.000 F500.000 
G3 X205.721 Y209.871 Z-2.000 I0.153 J-12.497 F1200.000 
G3 X209.279 Y185.129 Z-2.000 I1.779 J-12.371 F1200.000 
G3 X207.347 Y209.997 Z-2.000 I-1.779 J12.371 F1200.000 
G0 Z5.000 
G0 X207.384 Y206.995 Z5.000 
G0 X207.384 Y206.995 Z3.000 
G1 X207.384 Y206.995 Z-2.000 F500.000 
G3 X206.149 Y206.900 Z-2.000 I0.116 J-9.495 F1200.000 
G3 X208.851 Y188.100 Z-2.000 I1.351 J-9.400 F1200.000 
G3 X207.384 Y206.995 Z-2.000 I-1.351 J9.400 F1200.000 
G0 Z5.000 
G0 X207.420 Y203.994 Z5.000 
G0 X207.420 Y203.994 Z3.000 
G1 X207.420 Y203.994 Z-2.000 F500.000 
G3 X206.576 Y203.928 Z-2.000 I0.080 J-6.494 F1200.000 
G3 X208.424 Y191.072 Z-2.000 I0.924 J-6.428 F1200.000 
G3 X207.420 Y203.994 Z-2.000 I-0.924 J6.428 F1200.000 
G0 Z5.000 
G0 X207.457 Y200.992 Z5.000 
G0 X207.457 Y200.992 Z3.000 
G1 X207.457 Y200.992 Z-2.000 F500.000 
G3 X207.003 Y200.957 Z-2.000 I0.043 J-3.492 F1200.000 
G3 X207.997 Y194.043 Z-2.000 I0.497 J-3.457 F1200.000 
G3 X207.457 Y200.992 Z-2.000 I-0.497 J3.457 F1200.000 
G0 Z5.000 
G0 X207.494 Y197.990 Z5.000 
G0 X207.494 Y197.990 Z3.000 
G1 X207.494 Y197.990 Z-2.000 F500.000 
G3 X207.430 Y197.985 Z-2.000 I0.006 J-0.490 F1200.000 
G3 X207.570 Y197.015 Z-2.000 I0.070 J-0.485 F1200.000 
G3 X207.494 Y197.990 Z-2.000 I-0.070 J0.485 F1200.000 
G0 Z5.000 
G0 X235.003 Y197.653 Z5.000 
G0 X235.003 Y197.653 Z3.000 
G1 X235.003 Y197.653 Z-2.000 F500.000 
G3 X249.279 Y185.129 Z-2.000 I12.497 J-0.153 F1200.000 
G3 X245.721 Y209.871 Z-2.000 I-1.779 J12.371 F1200.000 
G3 X235.003 Y197.653 Z-2.000 I1.779 J-12.371 F1200.000 
G0 Z5.000 
G0 X238.005 Y197.616 Z5.000 
G0 X238.005 Y197.616 Z3.000 
G1 X238.005 Y197.616 Z-2.000 F500.000 
G3 X248.851 Y188.100 Z-2.000 I9.495 J-0.116 F1200.000 
G3 X256.900 Y198.851 Z-2.000 I-1.351 J9.400 F1200.000 
G3 X246.149 Y206.900 Z-2.000 I-9.400 J-1.351 F1200.000 
G3 X238.005 Y197.616 Z-2.000 I1.351 J-9.400 F1200.000 
G0 Z5.000 
G0 X241.006 Y197.580 Z5.000 
G0 X241.006 Y197.580 Z3.000 
G1 X241.006 Y197.580 Z-2.000 F500.000 
G3 X248.424 Y191.072 Z-2.000 I6.494 J-0.080 F1200.000 
G3 X253.928 Y198.424 Z-2.000 I-0.924 J6.428 F1200.000 
G3 X246.576 Y203.928 Z-2.000 I-6.428 J-0.924 F1200.000 
G3 X241.006 Y197.580 Z-2.000 I0.924 J-6.428 F1200.000 
G0 Z5.000 
G0 X244.008 Y197.543 Z5.000 
G0 X244.008 Y197.543 Z3.000 
G1 X244.008 Y197.543 Z-2.000 F500.000 
G3 X247.997 Y194.043 Z-2.000 I3.492 J-0.043 F1200.000 
G3 X247.003 Y200.957 Z-2.000 I-0.497 J3.457 F1200.000 
G3 X244.008 Y197.543 Z-2.000 I0.497 J-3.457 F1200.000 
G0 Z5.000 
G0 X247.010 Y197.506 Z5.000 
G0 X247.010 Y197.506 Z3.000 
G1 X247.010 Y197.506 Z-2.000 F500.000 
G3 X247.570 Y197.015 Z-2.000 I0.490 J-0.006 F1200.000 
G3 X247.985 Y197.570 Z-2.000 I-0.070 J0.485 F1200.000 
G3 X247.430 Y197.985 Z-2.000 I-0.485 J-0.070 F1200.000 
G3 X247.010 Y197.506 Z-2.000 I0.070 J-0.485 F1200.000 
G0 Z5.000 
G0 X247.347 Y225.003 Z5.000 
G0 X247.347 Y225.003 Z3.000 
G1 X247.347 Y225.003 Z-2.000 F500.000 
G3 X249.279 Y225.129 Z-2.000 I0.153 J12.497 F1200.000 
G3 X245.721 Y249.871 Z-2.000 I-1.779 J12.371 F1200.000 
G3 X247.347 Y225.003 Z-2.000 I1.779 J-12.371 F1200.000 
G0 Z5.000 
G0 X247.384 Y228.005 Z5.000 
G0 X247.384 Y228.005 Z3.000 
G1 X247.384 Y228.005 Z-2.000 F500.000 
G3 X248.851 Y228.100 Z-2.000 I0.116 J9.495 F1200.000 
G3 X256.900 Y238.851 Z-2.000 I-1.351 J9.400 F1200.000 
G3 X246.149 Y246.900 Z-2.000 I-9.400 J-1.351 F1200.000 
G3 X247.384 Y228.005 Z-2.000 I1.351 J-9.400 F1200.000 
G0 Z5.000 
G0 X247.420 Y231.006 Z5.000 
G0 X247.420 Y231.006 Z3.000 
G1 X247.420 Y231.006 Z-2.000 F500.000 
G3 X248.424 Y231.072 Z-2.000 I0.080 J6.494 F1200.000 
G3 X253.928 Y238.424 Z-2.000 I-0.924 J6.428 F1200.000 
G3 X246.576 Y243.928 Z-2.000 I-6.428 J-0.924 F1200.000 
G3 X247.420 Y231.006 Z-2.000 I0.924 J-6.428 F1200.000 
G0 Z5.000 
G0 X247.457 Y234.008 Z5.000 
G0 X247.457 Y234.008 Z3.000 
G1 X247.457 Y234.008 Z-2.000 F500.000 
G3 X247.997 Y234.043 Z-2.000 I0.043 J3.492 F1200.000 
G3 X247.003 Y240.957 Z-2.000 I-0.497 J3.457 F1200.000 
G3 X247.457 Y234.008 Z-2.000 I0.497 J-3.457 F1200.000 
G0 Z5.000 
G0 X247.494 Y237.010 Z5.000 
G0 X247.494 Y237.010 Z3.000 
G1 X247.494 Y237.010 Z-2.000 F500.000 
G3 X247.570 Y237.015 Z-2.000 I0.006 J0.490 F1200.000 
G3 X247.985 Y237.570 Z-2.000 I-0.070 J0.485 F1200.000 
G3 X247.430 Y237.985 Z-2.000 I-0.485 J-0.070 F1200.000 
G3 X247.494 Y237.010 Z-2.000 I0.070 J-0.485 F1200.000 
G0 Z5.000 
G0 X247.498 Y265.002 Z5.000 
G0 X247.498 Y265.002 Z3.000 
G1 X247.498 Y265.002 Z-2.000 F500.000 
G3 X249.279 Y265.129 Z-2.000 I0.002 J12.498 F1200.000 
G3 X245.721 Y289.871 Z-2.000 I-1.779 J12.371 F1200.000 
G3 X247.498 Y265.002 Z-2.000 I1.779 J-12.371 F1200.000 
G0 Z5.000 
G0 X247.499 Y268.004 Z5.000 
G0 X247.499 Y268.004 Z3.000 
G1 X247.499 Y268.004 Z-2.000 F500.000 
G3 X248.851 Y268.100 Z-2.000 I0.001 J9.496 F1200.000 
G3 X256.900 Y278.851 Z-2.000 I-1.351 J9.400 F1200.000 
G3 X246.149 Y286.900 Z-2.000 I-9.400 J-1.351 F1200.000 
G3 X247.499 Y268.004 Z-2.000 I1.351 J-9.400 F1200.000 
G0 Z5.000 
G0 X247.499 Y271.006 Z5.000 
G0 X247.499 Y271.006 Z3.000 
G1 X247.499 Y271.006 Z-2.000 F500.000 
G3 X248.424 Y271.072 Z-2.000 I0.001 J6.494 F1200.000 
G3 X253.928 Y278.424 Z-2.000 I-0.924 J6.428 F1200.000 
G3 X246.576 Y283.928 Z-2.000 I-6.428 J-0.924 F1200.000 
G3 X247.499 Y271.006 Z-2.000 I0.924 J-6.428 F1200.000 
G0 Z5.000 
G0 X247.499 Y274.008 Z5.000 
G0 X247.499 Y274.008 Z3.000 
G1 X247.499 Y274.008 Z-2.000 F500.000 
G3 X247.997 Y274.043 Z-2.000 I0.001 J3.492 F1200.000 
G3 X250.957 Y277.997 Z-2.000 I-0.497 J3.457 F1200.000 
G3 X247.003 Y280.957 Z-2.000 I-3.457 J-0.497 F1200.000 
G3 X247.499 Y274.008 Z-2.000 I0.497 J-3.457 F1200.000 
G0 Z5.000 
G0 X247.500 Y277.010 Z5.000 
G0 X247.500 Y277.010 Z3.000 
G1 X247.500 Y277.010 Z-2.000 F500.000 
G3 X247.570 Y277.015 Z-2.000 I0.000 J0.490 F1200.000 
G3 X247.985 Y277.570 Z-2.000 I-0.070 J0.485 F1200.000 
G3 X247.430 Y277.985 Z-2.000 I-0.485 J-0.070 F1200.000 
G3 X247.500 Y277.010 Z-2.000 I0.070 J-0.485 F1200.000 
G0 Z5.000 
G0 X219.997 Y277.347 Z5.000 
G0 X219.997 Y277.347 Z3.000 
G1 X219.997 Y277.347 Z-2.000 F500.000 
G3 X205.721 Y289.871 Z-2.000 I-12.497 J0.153 F1200.000 
G3 X195.129 Y275.721 Z-2.000 I1.779 J-12.371 F1200.000 
G3 X209.279 Y265.129 Z-2.000 I12.371 J1.779 F1200.000 
G3 X219.997 Y277.347 Z-2.000 I-1.779 J12.371 F1200.000 
G0 Z5.000 
G0 X216.995 Y277.384 Z5.000 
G0 X216.995 Y277.384 Z3.000 
G1 X216.995 Y277.384 Z-2.000 F500.000 
G3 X206.149 Y286.900 Z-2.000 I-9.495 J0.116 F1200.000 
G3 X208.851 Y268.100 Z-2.000 I1.351 J-9.400 F1200.000 
G3 X216.995 Y277.384 Z-2.000 I-1.351 J9.400 F1200.000 
G0 Z5.000 
G0 X213.994 Y277.420 Z5.000 
G0 X213.994 Y277.420 Z3.000 
G1 X213.994 Y277.420 Z-2.000 F500.000 
G3 X206.576 Y283.928 Z-2.000 I-6.494 J0.080 F1200.000 
G3 X208.424 Y271.072 Z-2.000 I0.924 J-6.428 F1200.000 
G3 X213.994 Y277.420 Z-2.000 I-0.924 J6.428 F1200.000 
G0 Z5.000 
G0 X210.992 Y277.457 Z5.000 
G0 X210.992 Y277.457 Z3.000 
G1 X210.992 Y277.457 Z-2.000 F500.000 
G3 X207.003 Y280.957 Z-2.000 I-3.492 J0.043 F1200.000 
G3 X207.997 Y274.043 Z-2.000 I0.497 J-3.457 F1200.000 
G3 X210.992 Y277.457 Z-2.000 I-0.497 J3.457 F1200.000 
G0 Z5.000 
G0 X207.990 Y277.494 Z5.000 
G0 X207.990 Y277.494 Z3.000 
G1 X207.990 Y277.494 Z-2.000 F500.000 
G3 X207.430 Y277.985 Z-2.000 I-0.490 J0.006 F1200.000 
G3 X207.570 Y277.015 Z-2.000 I0.070 J-0.485 F1200.000 
G3 X207.990 Y277.494 Z-2.000 I-0.070 J0.485 F1200.000 
G0 Z5.000 
G0 X207.653 Y305.003 Z5.000 
G0 X207.653 Y305.003 Z3.000 
G1 X207.653 Y305.003 Z-2.000 F500.000 
G3 X209.279 Y305.129 Z-2.000 I-0.153 J12.497 F1200.000 
G3 X205.721 Y329.871 Z-2.000 I-1.779 J12.371 F1200.000 
G3 X207.653 Y305.003 Z-2.000 I1.779 J-12.371 F1200.000 
G0 Z5.000 
G0 X207.616 Y308.005 Z5.000 
G0 X207.616 Y308.005 Z3.000 
G1 X207.616 Y308.005 Z-2.000 F500.000 
G3 X208.851 Y308.100 Z-2.000 I-0.116 J9.495 F1200.000 
G3 X216.900 Y318.851 Z-2.000 I-1.351 J9.400 F1200.000 
G3 X206.149 Y326.900 Z-2.000 I-9.400 J-1.351 F1200.000 
G3 X207.616 Y308.005 Z-2.000 I1.351 J-9.400 F1200.000 
G0 Z5.000 
G0 X207.580 Y311.006 Z5.000 
G0 X207.580 Y311.006 Z3.000 
G1 X207.580 Y311.006 Z-2.000 F500.000 
G3 X208.424 Y311.072 Z-2.000 I-0.080 J6.494 F1200.000 
G3 X206.576 Y323.928 Z-2.000 I-0.924 J6.428 F1200.000 
G3 X207.580 Y311.006 Z-2.000 I0.924 J-6.428 F1200.000 
G0 Z5.000 
G0 X207.543 Y314.008 Z5.000 
G0 X207.543 Y314.008 Z3.000 
G1 X207.543 Y314.008 Z-2.000 F500.000 
G3 X207.997 Y314.043 Z-2.000 I-0.043 J3.492 F1200.000 
G3 X207.003 Y320.957 Z-2.000 I-0.497 J3.457 F1200.000 
G3 X207.543 Y314.008 Z-2.000 I0.497 J-3.457 F1200.000 
G0 Z5.000 
G0 X207.506 Y317.010 Z5.000 
G0 X207.506 Y317.010 Z3.000 
G1 X207.506 Y317.010 Z-2.000 F500.000 
G3 X207.570 Y317.015 Z-2.000 I-0.006 J0.490 F1200.000 
G3 X207.430 Y317.985 Z-2.000 I-0.070 J0.485 F1200.000 
G3 X207.506 Y317.010 Z-2.000 I0.070 J-0.485 F1200.000 
G0 Z5.000 
G0 X235.003 Y317.347 Z5.000 
G0 X235.003 Y317.347 Z3.000 
G1 X235.003 Y317.347 Z-2.000 F500.000 
G3 X249.279 Y305.129 Z-2.000 I12.497 J0.153 F1200.000 
G3 X245.721 Y329.871 Z-2.000 I-1.779 J12.371 F1200.000 
G3 X235.003 Y317.347 Z-2.000 I1.779 J-12.371 F1200.000 
G0 Z5.000 
G0 X238.005 Y317.384 Z5.000 
G0 X238.005 Y317.384 Z3.000 
G1 X238.005 Y317.384 Z-2.000 F500.000 
G3 X248.851 Y308.100 Z-2.000 I9.495 J0.116 F1200.000 
G3 X256.900 Y318.851 Z-2.000 I-1.351 J9.400 F1200.000 
G3 X246.149 Y326.900 Z-2.000 I-9.400 J-1.351 F1200.000 
G3 X238.005 Y317.384 Z-2.000 I1.351 J-9.400 F1200.000 
G0 Z5.000 
G0 X241.006 Y317.420 Z5.000 
G0 X241.006 Y317.420 Z3.000 
G1 X241.006 Y317.420 Z-2.000 F500.000 
G3 X248.424 Y311.072 Z-2.000 I6.494 J0.080 F1200.000 
G3 X253.928 Y318.424 Z-2.000 I-0.924 J6.428 F1200.000 
G3 X246.576 Y323.928 Z-2.000 I-6.428 J-0.924 F1200.000 
G3 X241.006 Y317.420 Z-2.000 I0.924 J-6.428 F1200.000 
G0 Z5.000 
G0 X244.008 Y317.457 Z5.000 
G0 X244.008 Y317.457 Z3.000 
G1 X244.008 Y317.457 Z-2.000 F500.000 
G3 X247.997 Y314.043 Z-2.000 I3.492 J0.043 F1200.000 
G3 X247.003 Y320.957 Z-2.000 I-0.497 J3.457 F1200.000 
G3 X244.008 Y317.457 Z-2.000 I0.497 J-3.457 F1200.000 
G0 Z5.000 
G0 X247.010 Y317.494 Z5.000 
G0 X247.010 Y317.494 Z3.000 
G1 X247.010 Y317.494 Z-2.000 F500.000 
G3 X247.570 Y317.015 Z-2.000 I0.490 J0.006 F1200.000 
G3 X247.985 Y317.570 Z-2.000 I-0.070 J0.485 F1200.000 
G3 X247.430 Y317.985 Z-2.000 I-0.485 J-0.070 F1200.000 
G3 X247.010 Y317.494 Z-2.000 I0.070 J-0.485 F1200.000 
G0 Z5.000 
G0 X179.998 Y317.499 Z5.000 
G0 X179.998 Y317.499 Z3.000 
G1 X179.998 Y317.499 Z-2.000 F500.000 
G3 X165.721 Y329.871 Z-2.000 I-12.498 J0.001 F1200.000 
G3 X155.129 Y315.721 Z-2.000 I1.779 J-12.371 F1200.000 
G3 X169.279 Y305.129 Z-2.000 I12.371 J1.779 F1200.000 
G3 X179.998 Y317.499 Z-2.000 I-1.779 J12.371 F1200.000 
G0 Z5.000 
G0 X176.996 Y317.499 Z5.000 
G0 X176.996 Y317.499 Z3.000 
G1 X176.996 Y317.499 Z-2.000 F500.000 
G3 X166.149 Y326.900 Z-2.000 I-9.496 J0.001 F1200.000 
G3 X168.851 Y308.100 Z-2.000 I1.351 J-9.400 F1200.000 
G3 X176.996 Y317.499 Z-2.000 I-1.351 J9.400 F1200.000 
G0 Z5.000 
G0 X173.994 Y317.500 Z5.000 
G0 X173.994 Y317.500 Z3.000 
G1 X173.994 Y317.500 Z-2.000 F500.000 
G3 X166.576 Y323.928 Z-2.000 I-6.494 J0.000 F1200.000 
G3 X168.424 Y311.072 Z-2.000 I0.924 J-6.428 F1200.000 
G3 X173.994 Y317.500 Z-2.000 I-0.924 J6.428 F1200.000 
G0 Z5.000 
G0 X170.992 Y317.500 Z5.000 
G0 X170.992 Y317.500 Z3.000 
G1 X170.992 Y317.500 Z-2.000 F500.000 
G3 X167.003 Y320.957 Z-2.000 I-3.492 J0.000 F1200.000 
G3 X167.997 Y314.043 Z-2.000 I0.497 J-3.457 F1200.000 
G3 X170.992 Y317.500 Z-2.000 I-0.497 J3.457 F1200.000 
G0 Z5.000 
G0 X167.990 Y317.500 Z5.000 
G0 X167.990 Y317.500 Z3.000 
G1 X167.990 Y317.500 Z-2.000 F500.000 
G3 X167.430 Y317.985 Z-2.000 I-0.490 J0.000 F1200.000 
G3 X167.015 Y317.430 Z-2.000 I0.070 J-0.485 F1200.000 
G3 X167.570 Y317.015 Z-2.000 I0.485 J0.070 F1200.000 
G3 X167.990 Y317.500 Z-2.000 I-0.070 J0.485 F1200.000 
G0 Z5.000 
G0 X167.653 Y289.997 Z5.000 
G0 X167.653 Y289.997 Z3.000 
G1 X167.653 Y289.997 Z-2.000 F500.000 
G3 X165.721 Y289.871 Z-2.000 I-0.153 J-12.497 F1200.000 
G3 X155.129 Y275.721 Z-2.000 I1.779 J-12.371 F1200.000 
G3 X169.279 Y265.129 Z-2.000 I12.371 J1.779 F1200.000 
G3 X167.653 Y289.997 Z-2.000 I-1.779 J12.371 F1200.000 
G0 Z5.000 
G0 X167.616 Y286.995 Z5.000 
G0 X167.616 Y286.995 Z3.000 
G1 X167.616 Y286.995 Z-2.000 F500.000 
G3 X166.149 Y286.900 Z-2.000 I-0.116 J-9.495 F1200.000 
G3 X168.851 Y268.100 Z-2.000 I1.351 J-9.400 F1200.000 
G3 X167.616 Y286.995 Z-2.000 I-1.351 J9.400 F1200.000 
G0 Z5.000 
G0 X167.580 Y283.994 Z5.000 
G0 X167.580 Y283.994 Z3.000 
G1 X167.580 Y283.994 Z-2.000 F500.000 
G3 X166.576 Y283.928 Z-2.000 I-0.080 J-6.494 F1200.000 
G3 X168.424 Y271.072 Z-2.000 I0.924 J-6.428 F1200.000 
G3 X167.580 Y283.994 Z-2.000 I-0.924 J6.428 F1200.000 
G0 Z5.000 
G0 X167.543 Y280.992 Z5.000 
G0 X167.543 Y280.992 Z3.000 
G1 X167.543 Y280.992 Z-2.000 F500.000 
G3 X167.003 Y280.957 Z-2.000 I-0.043 J-3.492 F1200.000 
G3 X167.997 Y274.043 Z-2.000 I0.497 J-3.457 F1200.000 
G3 X167.543 Y280.992 Z-2.000 I-0.497 J3.457 F1200.000 
G0 Z5.000 
G0 X167.506 Y277.990 Z5.000 
G0 X167.506 Y277.990 Z3.000 
G1 X167.506 Y277.990 Z-2.000 F500.000 
G3 X167.430 Y277.985 Z-2.000 I-0.006 J-0.490 F1200.000 
G3 X167.570 Y277.015 Z-2.000 I0.070 J-0.485 F1200.000 
G3 X167.506 Y277.990 Z-2.000 I-0.070 J0.485 F1200.000 
G0 Z5.000 
G0 X139.997 Y277.653 Z5.000 
G0 X139.997 Y277.653 Z3.000 
G1 X139.997 Y277.653 Z-2.000 F500.000 
G3 X125.721 Y289.871 Z-2.000 I-12.497 J-0.153 F1200.000 
G3 X115.129 Y275.721 Z-2.000 I1.779 J-12.371 F1200.000 
G3 X129.279 Y265.129 Z-2.000 I12.371 J1.779 F1200.000 
G3 X139.997 Y277.653 Z-2.000 I-1.779 J12.371 F1200.000 
G0 Z5.000 
G0 X136.995 Y277.616 Z5.000 
G0 X136.995 Y277.616 Z3.000 
G1 X136.995 Y277.616 Z-2.000 F500.000 
G3 X126.149 Y286.900 Z-2.000 I-9.495 J-0.116 F1200.000 
G3 X128.851 Y268.100 Z-2.000 I1.351 J-9.400 F1200.000 
G3 X136.995 Y277.616 Z-2.000 I-1.351 J9.400 F1200.000 
G0 Z5.000 
G0 X133.994 Y277.580 Z5.000 
G0 X133.994 Y277.580 Z3.000 
G1 X133.994 Y277.580 Z-2.000 F500.000 
G3 X126.576 Y283.928 Z-2.000 I-6.494 J-0.080 F1200.000 
G3 X128.424 Y271.072 Z-2.000 I0.924 J-6.428 F1200.000 
G3 X133.994 Y277.580 Z-2.000 I-0.924 J6.428 F1200.000 
G0 Z5.000 
G0 X130.992 Y277.543 Z5.000 
G0 X130.992 Y277.543 Z3.000 
G1 X130.992 Y277.543 Z-2.000 F500.000 
G3 X127.003 Y280.957 Z-2.000 I-3.492 J-0.043 F1200.000 
G3 X127.997 Y274.043 Z-2.000 I0.497 J-3.457 F1200.000 
G3 X130.992 Y277.543 Z-2.000 I-0.497 J3.457 F1200.000 
G0 Z5.000 
G0 X127.990 Y277.506 Z5.000 
G0 X127.990 Y277.506 Z3.000 
G1 X127.990 Y277.506 Z-2.000 F500.000 
G3 X127.430 Y277.985 Z-2.000 I-0.490 J-0.006 F1200.000 
G3 X127.570 Y277.015 Z-2.000 I0.070 J-0.485 F1200.000 
G3 X127.990 Y277.506 Z-2.000 I-0.070 J0.485 F1200.000 
G0 Z5.000 
G0 X127.653 Y305.003 Z5.000 
G0 X127.653 Y305.003 Z3.000 
G1 X127.653 Y305.003 Z-2.000 F500.000 
G3 X129.279 Y305.129 Z-2.000 I-0.153 J12.497 F1200.000 
G3 X139.871 Y319.279 Z-2.000 I-1.779 J12.371 F1200.000 
G3 X125.721 Y329.871 Z-2.000 I-12.371 J-1.779 F1200.000 
G3 X127.653 Y305.003 Z-2.000 I1.779 J-12.371 F1200.000 
G0 Z5.000 
G0 X127.616 Y308.005 Z5.000 
G0 X127.616 Y308.005 Z3.000 
G1 X127.616 Y308.005 Z-2.000 F500.000 
G3 X128.851 Y308.100 Z-2.000 I-0.116 J9.495 F1200.000 
G3 X126.149 Y326.900 Z-2.000 I-1.351 J9.400 F1200.000 
G3 X127.616 Y308.005 Z-2.000 I1.351 J-9.400 F1200.000 
G0 Z5.000 
G0 X127.580 Y311.006 Z5.000 
G0 X127.580 Y311.006 Z3.000 
G1 X127.580 Y311.006 Z-2.000 F500.000 
G3 X128.424 Y311.072 Z-2.000 I-0.080 J6.494 F1200.000 
G3 X126.576 Y323.928 Z-2.000 I-0.924 J6.428 F1200.000 
G3 X127.580 Y311.006 Z-2.000 I0.924 J-6.428 F1200.000 
G0 Z5.000 
G0 X127.543 Y314.008 Z5.000 
G0 X127.543 Y314.008 Z3.000 
G1 X127.543 Y314.008 Z-2.000 F500.000 
G3 X127.997 Y314.043 Z-2.000 I-0.043 J3.492 F1200.000 
G3 X127.003 Y320.957 Z-2.000 I-0.497 J3.457 F1200.000 
G3 X127.543 Y314.008 Z-2.000 I0.497 J-3.457 F1200.000 
G0 Z5.000 
G0 X127.506 Y317.010 Z5.000 
G0 X127.506 Y317.010 Z3.000 
G1 X127.506 Y317.010 Z-2.000 F500.000 
G3 X127.570 Y317.015 Z-2.000 I-0.006 J0.490 F1200.000 
G3 X127.985 Y317.570 Z-2.000 I-0.070 J0.485 F1200.000 
G3 X127.430 Y317.985 Z-2.000 I-0.485 J-0.070 F1200.000 
G3 X127.506 Y317.010 Z-2.000 I0.070 J-0.485 F1200.000 
G0 Z5.000 
G0 X99.997 Y317.347 Z5.000 
G0 X99.997 Y317.347 Z3.000 
G1 X99.997 Y317.347 Z-2.000 F500.000 
G3 X85.721 Y329.871 Z-2.000 I-12.497 J0.153 F1200.000 
G3 X89.279 Y305.129 Z-2.000 I1.779 J-12.371 F1200.000 
G3 X99.997 Y317.347 Z-2.000 I-1.779 J12.371 F1200.000 
G0 Z5.000 
G0 X96.995 Y317.384 Z5.000 
G0 X96.995 Y317.384 Z3.000 
G1 X96.995 Y317.384 Z-2.000 F500.000 
G3 X86.149 Y326.900 Z-2.000 I-9.495 J0.116 F1200.000 
G3 X88.851 Y308.100 Z-2.000 I1.351 J-9.400 F1200.000 
G3 X96.995 Y317.384 Z-2.000 I-1.351 J9.400 F1200.000 
G0 Z5.000 
G0 X93.994 Y317.420 Z5.000 
G0 X93.994 Y317.420 Z3.000 
G1 X93.994 Y317.420 Z-2.000 F500.000 
G3 X86.576 Y323.928 Z-2.000 I-6.494 J0.080 F1200.000 
G3 X88.424 Y311.072 Z-2.000 I0.924 J-6.428 F1200.000 
G3 X93.994 Y317.420 Z-2.000 I-0.924 J6.428 F1200.000 
G0 Z5.000 
G0 X90.992 Y317.457 Z5.000 
G0 X90.992 Y317.457 Z3.000 
G1 X90.992 Y317.457 Z-2.000 F500.000 
G3 X87.003 Y320.957 Z-2.000 I-3.492 J0.043 F1200.000 
G3 X87.997 Y314.043 Z-2.000 I0.497 J-3.457 F1200.000 
G3 X90.992 Y317.457 Z-2.000 I-0.497 J3.457 F1200.000 
G0 Z5.000 
G0 X87.990 Y317.494 Z5.000 
G0 X87.990 Y317.494 Z3.000 
G1 X87.990 Y317.494 Z-2.000 F500.000 
G3 X87.430 Y317.985 Z-2.000 I-0.490 J0.006 F1200.000 
G3 X87.015 Y317.430 Z-2.000 I0.070 J-0.485 F1200.000 
G3 X87.570 Y317.015 Z-2.000 I0.485 J0.070 F1200.000 
G3 X87.990 Y317.494 Z-2.000 I-0.070 J0.485 F1200.000 
G0 Z5.000 
G0 X87.653 Y289.997 Z5.000 
G0 X87.653 Y289.997 Z3.000 
G1 X87.653 Y289.997 Z-2.000 F500.000 
G3 X85.721 Y289.871 Z-2.000 I-0.153 J-12.497 F1200.000 
G3 X75.129 Y275.721 Z-2.000 I1.779 J-12.371 F1200.000 
G3 X89.279 Y265.129 Z-2.000 I12.371 J1.779 F1200.000 
G3 X87.653 Y289.997 Z-2.000 I-1.779 J12.371 F1200.000 
G0 Z5.000 
G0 X87.616 Y286.995 Z5.000 
G0 X87.616 Y286.995 Z3.000 
G1 X87.616 Y286.995 Z-2.000 F500.000 
G3 X86.149 Y286.900 Z-2.000 I-0.116 J-9.495 F1200.000 
G3 X88.851 Y268.100 Z-2.000 I1.351 J-9.400 F1200.000 
G3 X87.616 Y286.995 Z-2.000 I-1.351 J9.400 F1200.000 
G0 Z5.000 
G0 X87.580 Y283.994 Z5.000 
G0 X87.580 Y283.994 Z3.000 
G1 X87.580 Y283.994 Z-2.000 F500.000 
G3 X86.576 Y283.928 Z-2.000 I-0.080 J-6.494 F1200.000 
G3 X88.424 Y271.072 Z-2.000 I0.924 J-6.428 F1200.000 
G3 X87.580 Y283.994 Z-2.000 I-0.924 J6.428 F1200.000 
G0 Z5.000 
G0 X87.543 Y280.992 Z5.000 
G0 X87.543 Y280.992 Z3.000 
G1 X87.543 Y280.992 Z-2.000 F500.000 
G3 X87.003 Y280.957 Z-2.000 I-0.043 J-3.492 F1200.000 
G3 X87.997 Y274.043 Z-2.000 I0.497 J-3.457 F1200.000 
G3 X87.543 Y280.992 Z-2.000 I-0.497 J3.457 F1200.000 
G0 Z5.000 
G0 X87.506 Y277.990 Z5.000 
G0 X87.506 Y277.990 Z3.000 
G1 X87.506 Y277.990 Z-2.000 F500.000 
G3 X87.430 Y277.985 Z-2.000 I-0.006 J-0.490 F1200.000 
G3 X87.570 Y277.015 Z-2.000 I0.070 J-0.485 F1200.000 
G3 X87.506 Y277.990 Z-2.000 I-0.070 J0.485 F1200.000 
G0 Z5.000 
G0 X59.997 Y277.653 Z5.000 
G0 X59.997 Y277.653 Z3.000 
G1 X59.997 Y277.653 Z-2.000 F500.000 
G3 X45.721 Y289.871 Z-2.000 I-12.497 J-0.153 F1200.000 
G3 X35.129 Y275.721 Z-2.000 I1.779 J-12.371 F1200.000 
G3 X49.279 Y265.129 Z-2.000 I12.371 J1.779 F1200.000 
G3 X59.997 Y277.653 Z-2.000 I-1.779 J12.371 F1200.000 
G0 Z5.000 
G0 X56.995 Y277.616 Z5.000 
G0 X56.995 Y277.616 Z3.000 
G1 X56.995 Y277.616 Z-2.000 F500.000 
G3 X46.149 Y286.900 Z-2.000 I-9.495 J-0.116 F1200.000 
G3 X48.851 Y268.100 Z-2.000 I1.351 J-9.400 F1200.000 
G3 X56.995 Y277.616 Z-2.000 I-1.351 J9.400 F1200.000 
G0 Z5.000 
G0 X53.994 Y277.580 Z5.000 
G0 X53.994 Y277.580 Z3.000 
G1 X53.994 Y277.580 Z-2.000 F500.000 
G3 X46.576 Y283.928 Z-2.000 I-6.494 J-0.080 F1200.000 
G3 X48.424 Y271.072 Z-2.000 I0.924 J-6.428 F1200.000 
G3 X53.994 Y277.580 Z-2.000 I-0.924 J6.428 F1200.000 
G0 Z5.000 
G0 X50.992 Y277.543 Z5.000 
G0 X50.992 Y277.543 Z3.000 
G1 X50.992 Y277.543 Z-2.000 F500.000 
G3 X47.003 Y280.957 Z-2.000 I-3.492 J-0.043 F1200.000 
G3 X47.997 Y274.043 Z-2.000 I0.497 J-3.457 F1200.000 
G3 X50.992 Y277.543 Z-2.000 I-0.497 J3.457 F1200.000 
G0 Z5.000 
G0 X47.990 Y277.506 Z5.000 
G0 X47.990 Y277.506 Z3.000 
G1 X47.990 Y277.506 Z-2.000 F500.000 
G3 X47.430 Y277.985 Z-2.000 I-0.490 J-0.006 F1200.000 
G3 X47.015 Y277.430 Z-2.000 I0.070 J-0.485 F1200.000 
G3 X47.570 Y277.015 Z-2.000 I0.485 J0.070 F1200.000 
G3 X47.990 Y277.506 Z-2.000 I-0.070 J0.485 F1200.000 
G0 Z5.000 
G0 X47.653 Y305.003 Z5.000 
G0 X47.653 Y305.003 Z3.000 
G1 X47.653 Y305.003 Z-2.000 F500.000 
G3 X49.279 Y305.129 Z-2.000 I-0.153 J12.497 F1200.000 
G3 X45.721 Y329.871 Z-2.000 I-1.779 J12.371 F1200.000 
G3 X47.653 Y305.003 Z-2.000 I1.779 J-12.371 F1200.000 
G0 Z5.000 
G0 X47.616 Y308.005 Z5.000 
G0 X47.616 Y308.005 Z3.000 
G1 X47.616 Y308.005 Z-2.000 F500.000 
G3 X48.851 Y308.100 Z-2.000 I-0.116 J9.495 F1200.000 
G3 X46.149 Y326.900 Z-2.000 I-1.351 J9.400 F1200.000 
G3 X47.616 Y308.005 Z-2.000 I1.351 J-9.400 F1200.000 
G0 Z5.000 
G0 X47.580 Y311.006 Z5.000 
G0 X47.580 Y311.006 Z3.000 
G1 X47.580 Y311.006 Z-2.000 F500.000 
G3 X48.424 Y311.072 Z-2.000 I-0.080 J6.494 F1200.000 
G3 X46.576 Y323.928 Z-2.000 I-0.924 J6.428 F1200.000 
G3 X47.580 Y311.006 Z-2.000 I0.924 J-6.428 F1200.000 
G0 Z5.000 
G0 X47.543 Y314.008 Z5.000 
G0 X47.543 Y314.008 Z3.000 
G1 X47.543 Y314.008 Z-2.000 F500.000 
G3 X47.997 Y314.043 Z-2.000 I-0.043 J3.492 F1200.000 
G3 X50.957 Y317.997 Z-2.000 I-0.497 J3.457 F1200.000 
G3 X47.003 Y320.957 Z-2.000 I-3.457 J-0.497 F1200.000 
G3 X47.543 Y314.008 Z-2.000 I0.497 J-3.457 F1200.000 
G0 Z5.000 
G0 X47.506 Y317.010 Z5.000 
G0 X47.506 Y317.010 Z3.000 
G1 X47.506 Y317.010 Z-2.000 F500.000 
G3 X47.570 Y317.015 Z-2.000 I-0.006 J0.490 F1200.000 
G3 X47.430 Y317.985 Z-2.000 I-0.070 J0.485 F1200.000 
G3 X47.506 Y317.010 Z-2.000 I0.070 J-0.485 F1200.000 
G0 Z5.000 
G0 X47.501 Y249.998 Z5.000 
G0 X47.501 Y249.998 Z3.000 
G1 X47.501 Y249.998 Z-2.000 F500.000 
G3 X45.721 Y249.871 Z-2.000 I-0.001 J-12.498 F1200.000 
G3 X49.279 Y225.129 Z-2.000 I1.779 J-12.371 F1200.000 
G3 X47.501 Y249.998 Z-2.000 I-1.779 J12.371 F1200.000 
G0 Z5.000 
G0 X47.501 Y246.996 Z5.000 
G0 X47.501 Y246.996 Z3.000 
G1 X47.501 Y246.996 Z-2.000 F500.000 
G3 X46.149 Y246.900 Z-2.000 I-0.001 J-9.496 F1200.000 
G3 X38.100 Y236.149 Z-2.000 I1.351 J-9.400 F1200.000 
G3 X48.851 Y228.100 Z-2.000 I9.400 J1.351 F1200.000 
G3 X47.501 Y246.996 Z-2.000 I-1.351 J9.400 F1200.000 
G0 Z5.000 
G0 X47.500 Y243.994 Z5.000 
G0 X47.500 Y243.994 Z3.000 
G1 X47.500 Y243.994 Z-2.000 F500.000 
G3 X46.576 Y243.928 Z-2.000 I-0.000 J-6.494 F1200.000 
G3 X41.072 Y236.576 Z-2.000 I0.924 J-6.428 F1200.000 
G3 X48.424 Y231.072 Z-2.000 I6.428 J0.924 F1200.000 
G3 X47.500 Y243.994 Z-2.000 I-0.924 J6.428 F1200.000 
G0 Z5.000 
G0 X47.500 Y240.992 Z5.000 
G0 X47.500 Y240.992 Z3.000 
G1 X47.500 Y240.992 Z-2.000 F500.000 
G3 X47.003 Y240.957 Z-2.000 I-0.000 J-3.492 F1200.000 
G3 X47.997 Y234.043 Z-2.000 I0.497 J-3.457 F1200.000 
G3 X47.500 Y240.992 Z-2.000 I-0.497 J3.457 F1200.000 
G0 Z5.000 
G0 X47.500 Y237.990 Z5.000 
G0 X47.500 Y237.990 Z3.000 
G1 X47.500 Y237.990 Z-2.000 F500.000 
G3 X47.430 Y237.985 Z-2.000 I-0.000 J-0.490 F1200.000 
G3 X47.015 Y237.430 Z-2.000 I0.070 J-0.485 F1200.000 
G3 X47.570 Y237.015 Z-2.000 I0.485 J0.070 F1200.000 
G3 X47.500 Y237.990 Z-2.000 I-0.070 J0.485 F1200.000 
G0 Z5.000 
G0 X75.003 Y237.653 Z5.000 
G0 X75.003 Y237.653 Z3.000 
G1 X75.003 Y237.653 Z-2.000 F500.000 
G3 X89.279 Y225.129 Z-2.000 I12.497 J-0.153 F1200.000 
G3 X85.721 Y249.871 Z-2.000 I-1.779 J12.371 F1200.000 
G3 X75.003 Y237.653 Z-2.000 I1.779 J-12.371 F1200.000 
G0 Z5.000 
G0 X78.005 Y237.616 Z5.000 
G0 X78.005 Y237.616 Z3.000 
G1 X78.005 Y237.616 Z-2.000 F500.000 
G3 X88.851 Y228.100 Z-2.000 I9.495 J-0.116 F1200.000 
G3 X86.149 Y246.900 Z-2.000 I-1.351 J9.400 F1200.000 
G3 X78.005 Y237.616 Z-2.000 I1.351 J-9.400 F1200.000 
G0 Z5.000 
G0 X81.006 Y237.580 Z5.000 
G0 X81.006 Y237.580 Z3.000 
G1 X81.006 Y237.580 Z-2.000 F500.000 
G3 X88.424 Y231.072 Z-2.000 I6.494 J-0.080 F1200.000 
G3 X86.576 Y243.928 Z-2.000 I-0.924 J6.428 F1200.000 
G3 X81.006 Y237.580 Z-2.000 I0.924 J-6.428 F1200.000 
G0 Z5.000 
G0 X84.008 Y237.543 Z5.000 
G0 X84.008 Y237.543 Z3.000 
G1 X84.008 Y237.543 Z-2.000 F500.000 
G3 X87.997 Y234.043 Z-2.000 I3.492 J-0.043 F1200.000 
G3 X87.003 Y240.957 Z-2.000 I-0.497 J3.457 F1200.000 
G3 X84.008 Y237.543 Z-2.000 I0.497 J-3.457 F1200.000 
G0 Z5.000 
G0 X87.010 Y237.506 Z5.000 
G0 X87.010 Y237.506 Z3.000 
G1 X87.010 Y237.506 Z-2.000 F500.000 
G3 X87.570 Y237.015 Z-2.000 I0.490 J-0.006 F1200.000 
G3 X87.430 Y237.985 Z-2.000 I-0.070 J0.485 F1200.000 
G3 X87.010 Y237.506 Z-2.000 I0.070 J-0.485 F1200.000 
G0 Z5.000 
G0 X87.347 Y209.997 Z5.000 
G0 X87.347 Y209.997 Z3.000 
G1 X87.347 Y209.997 Z-2.000 F500.000 
G3 X85.721 Y209.871 Z-2.000 I0.153 J-12.497 F1200.000 
G3 X89.279 Y185.129 Z-2.000 I1.779 J-12.371 F1200.000 
G3 X87.347 Y209.997 Z-2.000 I-1.779 J12.371 F1200.000 
G0 Z5.000 
G0 X87.384 Y206.995 Z5.000 
G0 X87.384 Y206.995 Z3.000 
G1 X87.384 Y206.995 Z-2.000 F500.000 
G3 X86.149 Y206.900 Z-2.000 I0.116 J-9.495 F1200.000 
G3 X88.851 Y188.100 Z-2.000 I1.351 J-9.400 F1200.000 
G3 X87.384 Y206.995 Z-2.000 I-1.351 J9.400 F1200.000 
G0 Z5.000 
G0 X87.420 Y203.994 Z5.000 
G0 X87.420 Y203.994 Z3.000 
G1 X87.420 Y203.994 Z-2.000 F500.000 
G3 X86.576 Y203.928 Z-2.000 I0.080 J-6.494 F1200.000 
G3 X88.424 Y191.072 Z-2.000 I0.924 J-6.428 F1200.000 
G3 X87.420 Y203.994 Z-2.000 I-0.924 J6.428 F1200.000 
G0 Z5.000 
G0 X87.457 Y200.992 Z5.000 
G0 X87.457 Y200.992 Z3.000 
G1 X87.457 Y200.992 Z-2.000 F500.000 
G3 X87.003 Y200.957 Z-2.000 I0.043 J-3.492 F1200.000 
G3 X87.997 Y194.043 Z-2.000 I0.497 J-3.457 F1200.000 
G3 X87.457 Y200.992 Z-2.000 I-0.497 J3.457 F1200.000 
G0 Z5.000 
G0 X87.494 Y197.990 Z5.000 
G0 X87.494 Y197.990 Z3.000 
G1 X87.494 Y197.990 Z-2.000 F500.000 
G3 X87.430 Y197.985 Z-2.000 I0.006 J-0.490 F1200.000 
G3 X87.015 Y197.430 Z-2.000 I0.070 J-0.485 F1200.000 
G3 X87.570 Y197.015 Z-2.000 I0.485 J0.070 F1200.000 
G3 X87.494 Y197.990 Z-2.000 I-0.070 J0.485 F1200.000 
G0 Z5.000 
G0 X59.997 Y197.653 Z5.000 
G0 X59.997 Y197.653 Z3.000 
G1 X59.997 Y197.653 Z-2.000 F500.000 
G3 X45.721 Y209.871 Z-2.000 I-12.497 J-0.153 F1200.000 
G3 X49.279 Y185.129 Z-2.000 I1.779 J-12.371 F1200.000 
G3 X59.997 Y197.653 Z-2.000 I-1.779 J12.371 F1200.000 
G0 Z5.000 
G0 X56.995 Y197.616 Z5.000 
G0 X56.995 Y197.616 Z3.000 
G1 X56.995 Y197.616 Z-2.000 F500.000 
G3 X46.149 Y206.900 Z-2.000 I-9.495 J-0.116 F1200.000 
G3 X38.100 Y196.149 Z-2.000 I1.351 J-9.400 F1200.000 
G3 X48.851 Y188.100 Z-2.000 I9.400 J1.351 F1200.000 
G3 X56.995 Y197.616 Z-2.000 I-1.351 J9.400 F1200.000 
G0 Z5.000 
G0 X53.994 Y197.580 Z5.000 
G0 X53.994 Y197.580 Z3.000 
G1 X53.994 Y197.580 Z-2.000 F500.000 
G3 X46.576 Y203.928 Z-2.000 I-6.494 J-0.080 F1200.000 
G3 X41.072 Y196.576 Z-2.000 I0.924 J-6.428 F1200.000 
G3 X48.424 Y191.072 Z-2.000 I6.428 J0.924 F1200.000 
G3 X53.994 Y197.580 Z-2.000 I-0.924 J6.428 F1200.000 
G0 Z5.000 
G0 X50.992 Y197.543 Z5.000 
G0 X50.992 Y197.543 Z3.000 
G1 X50.992 Y197.543 Z-2.000 F500.000 
G3 X47.003 Y200.957 Z-2.000 I-3.492 J-0.043 F1200.000 
G3 X47.997 Y194.043 Z-2.000 I0.497 J-3.457 F1200.000 
G3 X50.992 Y197.543 Z-2.000 I-0.497 J3.457 F1200.000 
G0 Z5.000 
G0 X47.990 Y197.506 Z5.000 
G0 X47.990 Y197.506 Z3.000 
G1 X47.990 Y197.506 Z-2.000 F500.000 
G3 X47.430 Y197.985 Z-2.000 I-0.490 J-0.006 F1200.000 
G3 X47.015 Y197.430 Z-2.000 I0.070 J-0.485 F1200.000 
G3 X47.570 Y197.015 Z-2.000 I0.485 J0.070 F1200.000 
G3 X47.990 Y197.506 Z-2.000 I-0.070 J0.485 F1200.000 
G0 Z5.000 
G0 X47.653 Y169.997 Z5.000 
G0 X47.653 Y169.997 Z3.000 
G1 X47.653 Y169.997 Z-2.000 F500.000 
G3 X45.721 Y169.871 Z-2.000 I-0.153 J-12.497 F1200.000 
G3 X49.279 Y145.129 Z-2.000 I1.779 J-12.371 F1200.000 
G3 X47.653 Y169.997 Z-2.000 I-1.779 J12.371 F1200.000 
G0 Z5.000 
G0 X47.616 Y166.995 Z5.000 
G0 X47.616 Y166.995 Z3.000 
G1 X47.616 Y166.995 Z-2.000 F500.000 
G3 X46.149 Y166.900 Z-2.000 I-0.116 J-9.495 F1200.000 
G3 X38.100 Y156.149 Z-2.000 I1.351 J-9.400 F1200.000 
G3 X48.851 Y148.100 Z-2.000 I9.400 J1.351 F1200.000 
G3 X47.616 Y166.995 Z-2.000 I-1.351 J9.400 F1200.000 
G0 Z5.000 
G0 X47.580 Y163.994 Z5.000 
G0 X47.580 Y163.994 Z3.000 
G1 X47.580 Y163.994 Z-2.000 F500.000 
G3 X46.576 Y163.928 Z-2.000 I-0.080 J-6.494 F1200.000 
G3 X41.072 Y156.576 Z-2.000 I0.924 J-6.428 F1200.000 
G3 X48.424 Y151.072 Z-2.000 I6.428 J0.924 F1200.000 
G3 X47.580 Y163.994 Z-2.000 I-0.924 J6.428 F1200.000 
G0 Z5.000 
G0 X47.543 Y160.992 Z5.000 
G0 X47.543 Y160.992 Z3.000 
G1 X47.543 Y160.992 Z-2.000 F500.000 
G3 X47.003 Y160.957 Z-2.000 I-0.043 J-3.492 F1200.000 
G3 X44.043 Y157.003 Z-2.000 I0.497 J-3.457 F1200.000 
G3 X47.997 Y154.043 Z-2.000 I3.457 J0.497 F1200.000 
G3 X47.543 Y160.992 Z-2.000 I-0.497 J3.457 F1200.000 
G0 Z5.000 
G0 X47.506 Y157.990 Z5.000 
G0 X47.506 Y157.990 Z3.000 
G1 X47.506 Y157.990 Z-2.000 F500.000 
G3 X47.430 Y157.985 Z-2.000 I-0.006 J-0.490 F1200.000 
G3 X47.015 Y157.430 Z-2.000 I0.070 J-0.485 F1200.000 
G3 X47.570 Y157.015 Z-2.000 I0.485 J0.070 F1200.000 
G3 X47.506 Y157.990 Z-2.000 I-0.070 J0.485 F1200.000 
G0 Z5.000 
G0 X75.003 Y157.653 Z5.000 
G0 X75.003 Y157.653 Z3.000 
G1 X75.003 Y157.653 Z-2.000 F500.000 
G3 X89.279 Y145.129 Z-2.000 I12.497 J-0.153 F1200.000 
G3 X99.871 Y159.279 Z-2.000 I-1.779 J12.371 F1200.000 
G3 X85.721 Y169.871 Z-2.000 I-12.371 J-1.779 F1200.000 
G3 X75.003 Y157.653 Z-2.000 I1.779 J-12.371 F1200.000 
G0 Z5.000 
G0 X78.005 Y157.616 Z5.000 
G0 X78.005 Y157.616 Z3.000 
G1 X78.005 Y157.616 Z-2.000 F500.000 
G3 X88.851 Y148.100 Z-2.000 I9.495 J-0.116 F1200.000 
G3 X86.149 Y166.900 Z-2.000 I-1.351 J9.400 F1200.000 
G3 X78.005 Y157.616 Z-2.000 I1.351 J-9.400 F1200.000 
G0 Z5.000 
G0 X81.006 Y157.580 Z5.000 
G0 X81.006 Y157.580 Z3.000 
G1 X81.006 Y157.580 Z-2.000 F500.000 
G3 X88.424 Y151.072 Z-2.000 I6.494 J-0.080 F1200.000 
G3 X86.576 Y163.928 Z-2.000 I-0.924 J6.428 F1200.000 
G3 X81.006 Y157.580 Z-2.000 I0.924 J-6.428 F1200.000 
G0 Z5.000 
G0 X84.008 Y157.543 Z5.000 
G0 X84.008 Y157.543 Z3.000 
G1 X84.008 Y157.543 Z-2.000 F500.000 
G3 X87.997 Y154.043 Z-2.000 I3.492 J-0.043 F1200.000 
G3 X87.003 Y160.957 Z-2.000 I-0.497 J3.457 F1200.000 
G3 X84.008 Y157.543 Z-2.000 I0.497 J-3.457 F1200.000 
G0 Z5.000 
G0 X87.010 Y157.506 Z5.000 
G0 X87.010 Y157.506 Z3.000 
G1 X87.010 Y157.506 Z-2.000 F500.000 
G3 X87.570 Y157.015 Z-2.000 I0.490 J-0.006 F1200.000 
G3 X87.430 Y157.985 Z-2.000 I-0.070 J0.485 F1200.000 
G3 X87.010 Y157.506 Z-2.000 I0.070 J-0.485 F1200.000 
G0 Z5.000 
G0 X87.347 Y129.997 Z5.000 
G0 X87.347 Y129.997 Z3.000 
G1 X87.347 Y129.997 Z-2.000 F500.000 
G3 X85.721 Y129.871 Z-2.000 I0.153 J-12.497 F1200.000 
G3 X89.279 Y105.129 Z-2.000 I1.779 J-12.371 F1200.000 
G3 X87.347 Y129.997 Z-2.000 I-1.779 J12.371 F1200.000 
G0 Z5.000 
G0 X87.384 Y126.995 Z5.000 
G0 X87.384 Y126.995 Z3.000 
G1 X87.384 Y126.995 Z-2.000 F500.000 
G3 X86.149 Y126.900 Z-2.000 I0.116 J-9.495 F1200.000 
G3 X78.100 Y116.149 Z-2.000 I1.351 J-9.400 F1200.000 
G3 X88.851 Y108.100 Z-2.000 I9.400 J1.351 F1200.000 
G3 X87.384 Y126.995 Z-2.000 I-1.351 J9.400 F1200.000 
G0 Z5.000 
G0 X87.420 Y123.994 Z5.000 
G0 X87.420 Y123.994 Z3.000 
G1 X87.420 Y123.994 Z-2.000 F500.000 
G3 X86.576 Y123.928 Z-2.000 I0.080 J-6.494 F1200.000 
G3 X88.424 Y111.072 Z-2.000 I0.924 J-6.428 F1200.000 
G3 X87.420 Y123.994 Z-2.000 I-0.924 J6.428 F1200.000 
G0 Z5.000 
G0 X87.457 Y120.992 Z5.000 
G0 X87.457 Y120.992 Z3.000 
G1 X87.457 Y120.992 Z-2.000 F500.000 
G3 X87.003 Y120.957 Z-2.000 I0.043 J-3.492 F1200.000 
G3 X87.997 Y114.043 Z-2.000 I0.497 J-3.457 F1200.000 
G3 X87.457 Y120.992 Z-2.000 I-0.497 J3.457 F1200.000 
G0 Z5.000 
G0 X87.494 Y117.990 Z5.000 
G0 X87.494 Y117.990 Z3.000 
G1 X87.494 Y117.990 Z-2.000 F500.000 
G3 X87.430 Y117.985 Z-2.000 I0.006 J-0.490 F1200.000 
G3 X87.570 Y117.015 Z-2.000 I0.070 J-0.485 F1200.000 
G3 X87.494 Y117.990 Z-2.000 I-0.070 J0.485 F1200.000 
G0 Z5.000 
G0 X59.997 Y117.653 Z5.000 
G0 X59.997 Y117.653 Z3.000 
G1 X59.997 Y117.653 Z-2.000 F500.000 
G3 X45.721 Y129.871 Z-2.000 I-12.497 J-0.153 F1200.000 
G3 X49.279 Y105.129 Z-2.000 I1.779 J-12.371 F1200.000 
G3 X59.997 Y117.653 Z-2.000 I-1.779 J12.371 F1200.000 
G0 Z5.000 
G0 X56.995 Y117.616 Z5.000 
G0 X56.995 Y117.616 Z3.000 
G1 X56.995 Y117.616 Z-2.000 F500.000 
G3 X46.149 Y126.900 Z-2.000 I-9.495 J-0.116 F1200.000 
G3 X38.100 Y116.149 Z-2.000 I1.351 J-9.400 F1200.000 
G3 X48.851 Y108.100 Z-2.000 I9.400 J1.351 F1200.000 
G3 X56.995 Y117.616 Z-2.000 I-1.351 J9.400 F1200.000 
G0 Z5.000 
G0 X53.994 Y117.580 Z5.000 
G0 X53.994 Y117.580 Z3.000 
G1 X53.994 Y117.580 Z-2.000 F500.000 
G3 X46.576 Y123.928 Z-2.000 I-6.494 J-0.080 F1200.000 
G3 X41.072 Y116.576 Z-2.000 I0.924 J-6.428 F1200.000 
G3 X48.424 Y111.072 Z-2.000 I6.428 J0.924 F1200.000 
G3 X53.994 Y117.580 Z-2.000 I-0.924 J6.428 F1200.000 
G0 Z5.000 
G0 X50.992 Y117.543 Z5.000 
G0 X50.992 Y117.543 Z3.000 
G1 X50.992 Y117.543 Z-2.000 F500.000 
G3 X47.003 Y120.957 Z-2.000 I-3.492 J-0.043 F1200.000 
G3 X47.997 Y114.043 Z-2.000 I0.497 J-3.457 F1200.000 
G3 X50.992 Y117.543 Z-2.000 I-0.497 J3.457 F1200.000 
G0 Z5.000 
G0 X47.990 Y117.506 Z5.000 
G0 X47.990 Y117.506 Z3.000 
G1 X47.990 Y117.506 Z-2.000 F500.000 
G3 X47.430 Y117.985 Z-2.000 I-0.490 J-0.006 F1200.000 
G3 X47.015 Y117.430 Z-2.000 I0.070 J-0.485 F1200.000 
G3 X47.570 Y117.015 Z-2.000 I0.485 J0.070 F1200.000 
G3 X47.990 Y117.506 Z-2.000 I-0.070 J0.485 F1200.000 
G0 Z5.000 
G0 X115.002 Y117.501 Z5.000 
G0 X115.002 Y117.501 Z3.000 
G1 X115.002 Y117.501 Z-2.000 F500.000 
G3 X129.279 Y105.129 Z-2.000 I12.498 J-0.001 F1200.000 
G3 X139.871 Y119.279 Z-2.000 I-1.779 J12.371 F1200.000 
G3 X125.721 Y129.871 Z-2.000 I-12.371 J-1.779 F1200.000 
G3 X115.002 Y117.501 Z-2.000 I1.779 J-12.371 F1200.000 
G0 Z5.000 
G0 X118.004 Y117.501 Z5.000 
G0 X118.004 Y117.501 Z3.000 
G1 X118.004 Y117.501 Z-2.000 F500.000 
G3 X128.851 Y108.100 Z-2.000 I9.496 J-0.001 F1200.000 
G3 X126.149 Y126.900 Z-2.000 I-1.351 J9.400 F1200.000 
G3 X118.004 Y117.501 Z-2.000 I1.351 J-9.400 F1200.000 
G0 Z5.000 
G0 X121.006 Y117.500 Z5.000 
G0 X121.006 Y117.500 Z3.000 
G1 X121.006 Y117.500 Z-2.000 F500.000 
G3 X128.424 Y111.072 Z-2.000 I6.494 J-0.000 F1200.000 
G3 X126.576 Y123.928 Z-2.000 I-0.924 J6.428 F1200.000 
G3 X121.006 Y117.500 Z-2.000 I0.924 J-6.428 F1200.000 
G0 Z5.000 
G0 X124.008 Y117.500 Z5.000 
G0 X124.008 Y117.500 Z3.000 
G1 X124.008 Y117.500 Z-2.000 F500.000 
G3 X127.997 Y114.043 Z-2.000 I3.492 J-0.000 F1200.000 
G3 X127.003 Y120.957 Z-2.000 I-0.497 J3.457 F1200.000 
G3 X124.008 Y117.500 Z-2.000 I0.497 J-3.457 F1200.000 
G0 Z5.000 
G0 X127.010 Y117.500 Z5.000 
G0 X127.010 Y117.500 Z3.000 
G1 X127.010 Y117.500 Z-2.000 F500.000 
G3 X127.570 Y117.015 Z-2.000 I0.490 J-0.000 F1200.000 
G3 X127.985 Y117.570 Z-2.000 I-0.070 J0.485 F1200.000 
G3 X127.430 Y117.985 Z-2.000 I-0.485 J-0.070 F1200.000 
G3 X127.010 Y117.500 Z-2.000 I0.070 J-0.485 F1200.000 
G0 Z5.000 
G0 X127.347 Y145.003 Z5.000 
G0 X127.347 Y145.003 Z3.000 
G1 X127.347 Y145.003 Z-2.000 F500.000 
G3 X129.279 Y145.129 Z-2.000 I0.153 J12.497 F1200.000 
G3 X139.871 Y159.279 Z-2.000 I-1.779 J12.371 F1200.000 
G3 X125.721 Y169.871 Z-2.000 I-12.371 J-1.779 F1200.000 
G3 X127.347 Y145.003 Z-2.000 I1.779 J-12.371 F1200.000 
G0 Z5.000 
G0 X127.384 Y148.005 Z5.000 
G0 X127.384 Y148.005 Z3.000 
G1 X127.384 Y148.005 Z-2.000 F500.000 
G3 X128.851 Y148.100 Z-2.000 I0.116 J9.495 F1200.000 
G3 X126.149 Y166.900 Z-2.000 I-1.351 J9.400 F1200.000 
G3 X127.384 Y148.005 Z-2.000 I1.351 J-9.400 F1200.000 
G0 Z5.000 
G0 X127.420 Y151.006 Z5.000 
G0 X127.420 Y151.006 Z3.000 
G1 X127.420 Y151.006 Z-2.000 F500.000 
G3 X128.424 Y151.072 Z-2.000 I0.080 J6.494 F1200.000 
G3 X126.576 Y163.928 Z-2.000 I-0.924 J6.428 F1200.000 
G3 X127.420 Y151.006 Z-2.000 I0.924 J-6.428 F1200.000 
G0 Z5.000 
G0 X127.457 Y154.008 Z5.000 
G0 X127.457 Y154.008 Z3.000 
G1 X127.457 Y154.008 Z-2.000 F500.000 
G3 X127.997 Y154.043 Z-2.000 I0.043 J3.492 F1200.000 
G3 X127.003 Y160.957 Z-2.000 I-0.497 J3.457 F1200.000 
G3 X127.457 Y154.008 Z-2.000 I0.497 J-3.457 F1200.000 
G0 Z5.000 
G0 X127.494 Y157.010 Z5.000 
G0 X127.494 Y157.010 Z3.000 
G1 X127.494 Y157.010 Z-2.000 F500.000 
G3 X127.570 Y157.015 Z-2.000 I0.006 J0.490 F1200.000 
G3 X127.430 Y157.985 Z-2.000 I-0.070 J0.485 F1200.000 
G3 X127.494 Y157.010 Z-2.000 I0.070 J-0.485 F1200.000 
G0 Z5.000 
G0 X155.003 Y157.347 Z5.000 
G0 X155.003 Y157.347 Z3.000 
G1 X155.003 Y157.347 Z-2.000 F500.000 
G3 X169.279 Y145.129 Z-2.000 I12.497 J0.153 F1200.000 
G3 X179.871 Y159.279 Z-2.000 I-1.779 J12.371 F1200.000 
G3 X165.721 Y169.871 Z-2.000 I-12.371 J-1.779 F1200.000 
G3 X155.003 Y157.347 Z-2.000 I1.779 J-12.371 F1200.000 
G0 Z5.000 
G0 X158.005 Y157.384 Z5.000 
G0 X158.005 Y157.384 Z3.000 
G1 X158.005 Y157.384 Z-2.000 F500.000 
G3 X168.851 Y148.100 Z-2.000 I9.495 J0.116 F1200.000 
G3 X166.149 Y166.900 Z-2.000 I-1.351 J9.400 F1200.000 
G3 X158.005 Y157.384 Z-2.000 I1.351 J-9.400 F1200.000 
G0 Z5.000 
G0 X161.006 Y157.420 Z5.000 
G0 X161.006 Y157.420 Z3.000 
G1 X161.006 Y157.420 Z-2.000 F500.000 
G3 X168.424 Y151.072 Z-2.000 I6.494 J0.080 F1200.000 
G3 X166.576 Y163.928 Z-2.000 I-0.924 J6.428 F1200.000 
G3 X161.006 Y157.420 Z-2.000 I0.924 J-6.428 F1200.000 
G0 Z5.000 
G0 X164.008 Y157.457 Z5.000 
G0 X164.008 Y157.457 Z3.000 
G1 X164.008 Y157.457 Z-2.000 F500.000 
G3 X167.997 Y154.043 Z-2.000 I3.492 J0.043 F1200.000 
G3 X167.003 Y160.957 Z-2.000 I-0.497 J3.457 F1200.000 
G3 X164.008 Y157.457 Z-2.000 I0.497 J-3.457 F1200.000 
G0 Z5.000 
G0 X167.010 Y157.494 Z5.000 
G0 X167.010 Y157.494 Z3.000 
G1 X167.010 Y157.494 Z-2.000 F500.000 
G3 X167.570 Y157.015 Z-2.000 I0.490 J0.006 F1200.000 
G3 X167.430 Y157.985 Z-2.000 I-0.070 J0.485 F1200.000 
G3 X167.010 Y157.494 Z-2.000 I0.070 J-0.485 F1200.000 
G0 Z5.000 
G0 X167.347 Y129.997 Z5.000 
G0 X167.347 Y129.997 Z3.000 
G1 X167.347 Y129.997 Z-2.000 F500.000 
G3 X165.721 Y129.871 Z-2.000 I0.153 J-12.497 F1200.000 
G3 X155.129 Y115.721 Z-2.000 I1.779 J-12.371 F1200.000 
G3 X169.279 Y105.129 Z-2.000 I12.371 J1.779 F1200.000 
G3 X167.347 Y129.997 Z-2.000 I-1.779 J12.371 F1200.000 
G0 Z5.000 
G0 X167.384 Y126.995 Z5.000 
G0 X167.384 Y126.995 Z3.000 
G1 X167.384 Y126.995 Z-2.000 F500.000 
G3 X166.149 Y126.900 Z-2.000 I0.116 J-9.495 F1200.000 
G3 X168.851 Y108.100 Z-2.000 I1.351 J-9.400 F1200.000 
G3 X167.384 Y126.995 Z-2.000 I-1.351 J9.400 F1200.000 
G0 Z5.000 
G0 X167.420 Y123.994 Z5.000 
G0 X167.420 Y123.994 Z3.000 
G1 X167.420 Y123.994 Z-2.000 F500.000 
G3 X166.576 Y123.928 Z-2.000 I0.080 J-6.494 F1200.000 
G3 X168.424 Y111.072 Z-2.000 I0.924 J-6.428 F1200.000 
G3 X167.420 Y123.994 Z-2.000 I-0.924 J6.428 F1200.000 
G0 Z5.000 
G0 X167.457 Y120.992 Z5.000 
G0 X167.457 Y120.992 Z3.000 
G1 X167.457 Y120.992 Z-2.000 F500.000 
G3 X167.003 Y120.957 Z-2.000 I0.043 J-3.492 F1200.000 
G3 X167.997 Y114.043 Z-2.000 I0.497 J-3.457 F1200.000 
