(Exported by FreeCAD)
(Post Processor: linuxcnc_post)
(Output Time:2026-05-03 10:47:14.093491)
(begin preamble)
G17 G54 G40 G49 G80 G90
G21
(begin operation: TC: Gravierstichel 60)
(machine units: mm/min)
(TC: Gravierstichel 60) 
M5
M6 T2 
G43 H2 
M3 S24000 
(finish operation: TC: Gravierstichel 60)
(begin operation: Fixture)
(machine units: mm/min)
G54 
(finish operation: Fixture)
(begin operation: Vcarve)
(machine units: mm/min)
(starting) 
G0 Z3.000 
G0 X19.907 Y315.937 Z3.000 
G1 X19.907 Y315.937 Z-1.741 F400.000 
G1 X20.346 Y316.376 Z-2.000 F699.424 
G1 X19.907 Y316.815 Z-1.741 F699.424 
G0 Z3.000 
G0 X20.346 Y316.376 Z3.000 
G1 X20.346 Y316.376 Z-2.000 F400.000 
G1 X21.612 Y316.376 Z-2.000 F800.000 
G1 X21.865 Y316.413 Z-2.000 F800.000 
G1 X22.129 Y316.528 Z-2.000 F800.000 
G1 X22.401 Y316.411 Z-2.000 F800.000 
G1 X22.646 Y316.376 Z-2.000 F800.000 
G1 X23.912 Y316.376 Z-2.000 F800.000 
G1 X24.351 Y315.937 Z-1.741 F699.529 
G0 Z3.000 
G0 X23.912 Y316.376 Z3.000 
G1 X23.912 Y316.376 Z-2.000 F400.000 
G1 X24.351 Y316.815 Z-1.741 F699.494 
G0 Z3.000 
G0 X22.129 Y316.528 Z3.000 
G1 X22.129 Y316.528 Z-2.000 F400.000 
G1 X22.129 Y316.815 Z-2.000 F800.000 
G1 X22.129 Y322.701 Z-2.000 F800.000 
G1 X22.113 Y322.885 Z-2.000 F800.000 
G1 X22.064 Y323.069 Z-2.000 F800.000 
G0 Z3.000 
G0 X21.650 Y323.176 Z3.000 
G1 X21.650 Y323.176 Z-2.000 F400.000 
G1 X21.913 Y323.130 Z-2.000 F800.000 
G1 X22.063 Y323.070 Z-2.000 F800.000 
G1 X22.646 Y323.652 Z-1.741 F722.470 
G0 Z3.000 
G0 X21.602 Y323.652 Z3.000 
G1 X21.602 Y323.652 Z-1.741 F400.000 
G1 X21.650 Y323.176 Z-2.000 F673.726 
G1 X21.520 Y323.159 Z-2.000 F800.000 
G1 X20.223 Y322.898 Z-2.000 F800.000 
G0 Z3.000 
G0 X19.757 Y323.280 Z3.000 
G1 X19.757 Y323.280 Z-1.741 F400.000 
G1 X20.223 Y322.898 Z-2.000 F696.541 
G1 X19.757 Y322.329 Z-1.741 F713.793 
G0 Z3.000 
G0 X19.234 Y274.993 Z3.000 
G1 X19.234 Y274.993 Z-1.741 F400.000 
G1 X19.858 Y275.617 Z-2.000 F727.372 
G1 X19.234 Y275.872 Z-1.741 F706.678 
G0 Z3.000 
G0 X19.858 Y275.617 Z3.000 
G1 X19.858 Y275.617 Z-2.000 F400.000 
G1 X19.896 Y275.633 Z-2.000 F800.000 
G1 X19.993 Y275.930 Z-2.000 F800.000 
G1 X20.169 Y276.185 Z-2.000 F800.000 
G1 X21.170 Y277.207 Z-2.000 F800.000 
G1 X21.173 Y277.210 Z-2.000 F800.000 
G1 X22.118 Y278.184 Z-2.000 F800.000 
G1 X22.466 Y278.548 Z-2.000 F800.000 
G1 X22.507 Y278.593 Z-2.000 F800.000 
G1 X22.881 Y279.041 Z-2.000 F800.000 
G1 X23.265 Y278.740 Z-1.740 F675.556 
G0 Z3.000 
G0 X22.881 Y279.041 Z3.000 
G1 X22.881 Y279.041 Z-2.000 F400.000 
G1 X23.219 Y279.533 Z-2.000 F800.000 
G1 X23.305 Y279.688 Z-2.000 F800.000 
G1 X23.417 Y279.943 Z-2.000 F800.000 
G1 X23.911 Y279.743 Z-1.741 F684.706 
G0 Z3.000 
G0 X23.417 Y279.943 Z3.000 
G1 X23.417 Y279.943 Z-2.000 F400.000 
G1 X23.535 Y280.451 Z-2.000 F800.000 
G1 X23.548 Y280.519 Z-2.000 F800.000 
G1 X23.557 Y280.588 Z-2.000 F800.000 
G0 Z3.000 
G0 X24.092 Y280.647 Z3.000 
G1 X24.092 Y280.647 Z-1.740 F400.000 
G1 X23.556 Y280.588 Z-2.000 F685.675 
G1 X23.495 Y280.776 Z-2.000 F800.000 
G1 X23.056 Y281.776 Z-2.000 F800.000 
G1 X23.021 Y281.848 Z-2.000 F800.000 
G0 Z3.000 
G0 X23.379 Y282.249 Z3.000 
G1 X23.379 Y282.249 Z-1.741 F400.000 
G1 X23.021 Y281.847 Z-2.000 F685.572 
G1 X22.751 Y281.992 Z-2.000 F800.000 
G1 X21.623 Y282.363 Z-2.000 F800.000 
G1 X21.428 Y282.403 Z-2.000 F800.000 
G0 Z3.000 
G0 X21.467 Y282.848 Z3.000 
G1 X21.467 Y282.848 Z-1.742 F400.000 
G1 X21.428 Y282.403 Z-2.000 F666.540 
G1 X21.416 Y282.401 Z-2.000 F800.000 
G1 X20.563 Y282.276 Z-2.000 F800.000 
G0 Z3.000 
G0 X20.464 Y282.719 Z3.000 
G1 X20.464 Y282.719 Z-1.741 F400.000 
G1 X20.563 Y282.276 Z-2.000 F668.025 
G1 X20.378 Y282.231 Z-2.000 F800.000 
G1 X20.272 Y282.198 Z-2.000 F800.000 
G1 X19.751 Y281.999 Z-2.000 F800.000 
G0 Z3.000 
G0 X19.286 Y282.337 Z3.000 
G1 X19.286 Y282.337 Z-1.740 F400.000 
G1 X19.751 Y281.999 Z-2.000 F692.072 
G1 X19.286 Y281.283 Z-1.740 F724.823 
G0 Z3.000 
G0 X19.896 Y275.634 Z3.000 
G1 X19.896 Y275.634 Z-2.000 F400.000 
G1 X20.174 Y275.490 Z-2.000 F800.000 
G1 X20.490 Y275.433 Z-2.000 F800.000 
G1 X23.694 Y275.433 Z-2.000 F800.000 
G1 X24.133 Y274.993 Z-1.741 F699.527 
G0 Z3.000 
G0 X23.694 Y275.433 Z3.000 
G1 X23.694 Y275.433 Z-2.000 F400.000 
G1 X24.133 Y275.872 Z-1.741 F699.457 
G0 Z3.000 
G0 X21.413 Y233.405 Z3.000 
G1 X21.413 Y233.405 Z-1.740 F400.000 
G1 X21.374 Y233.847 Z-2.000 F665.146 
G1 X21.330 Y233.851 Z-2.000 F800.000 
G1 X20.490 Y233.942 Z-2.000 F800.000 
G1 X20.251 Y233.988 Z-2.000 F800.000 
G1 X20.143 Y234.017 Z-2.000 F800.000 
G1 X19.799 Y234.131 Z-2.000 F800.000 
G0 Z3.000 
G0 X19.351 Y233.787 Z3.000 
G1 X19.351 Y233.787 Z-1.741 F400.000 
G1 X19.799 Y234.131 Z-2.000 F690.646 
G1 X19.351 Y234.795 Z-1.741 F720.439 
G0 Z3.000 
G0 X21.374 Y233.847 Z3.000 
G1 X21.374 Y233.847 Z-2.000 F400.000 
G1 X21.489 Y233.870 Z-2.000 F800.000 
G1 X22.979 Y234.272 Z-2.000 F800.000 
G1 X23.142 Y234.335 Z-2.000 F800.000 
G1 X23.296 Y234.434 Z-2.000 F800.000 
G1 X23.645 Y234.030 Z-1.741 F685.130 
G0 Z3.000 
G0 X23.297 Y234.434 Z3.000 
G1 X23.297 Y234.434 Z-2.000 F400.000 
G1 X23.314 Y234.470 Z-2.000 F800.000 
G1 X23.823 Y235.599 Z-2.000 F800.000 
G1 X23.893 Y235.822 Z-2.000 F800.000 
G1 X24.431 Y235.797 Z-1.741 F685.889 
G0 Z3.000 
G0 X23.894 Y235.822 Z3.000 
G1 X23.894 Y235.822 Z-2.000 F400.000 
G1 X23.842 Y236.000 Z-2.000 F800.000 
G1 X23.571 Y236.688 Z-2.000 F800.000 
G0 Z3.000 
G0 X24.007 Y237.048 Z3.000 
G1 X24.007 Y237.048 Z-1.741 F400.000 
G1 X23.571 Y236.688 Z-2.000 F690.783 
G1 X23.267 Y237.022 Z-2.000 F800.000 
G1 X23.148 Y237.129 Z-2.000 F800.000 
G1 X23.012 Y237.205 Z-2.000 F800.000 
G1 X22.639 Y237.363 Z-2.000 F800.000 
G1 X22.425 Y237.494 Z-2.000 F800.000 
G1 X22.255 Y237.665 Z-2.000 F800.000 
G0 Z3.000 
G0 X21.113 Y237.678 Z3.000 
G1 X21.113 Y237.678 Z-2.000 F400.000 
G1 X21.583 Y237.678 Z-2.000 F800.000 
G1 X21.625 Y237.678 Z-2.000 F800.000 
G1 X21.706 Y237.673 Z-2.000 F800.000 
G1 X21.738 Y237.673 Z-2.000 F800.000 
G1 X22.255 Y237.664 Z-2.000 F800.000 
G1 X22.460 Y237.891 Z-2.000 F800.000 
G1 X22.663 Y238.016 Z-2.000 F800.000 
G1 X22.882 Y238.106 Z-2.000 F800.000 
G1 X23.006 Y238.174 Z-2.000 F800.000 
G1 X23.113 Y238.270 Z-2.000 F800.000 
G1 X23.469 Y238.662 Z-2.000 F800.000 
G1 X23.883 Y238.324 Z-1.741 F685.043 
G0 Z3.000 
G0 X23.469 Y238.662 Z3.000 
G1 X23.469 Y238.662 Z-2.000 F400.000 
G1 X23.644 Y239.102 Z-2.000 F800.000 
G1 X23.686 Y239.236 Z-2.000 F800.000 
G1 X23.709 Y239.377 Z-2.000 F800.000 
G1 X24.250 Y239.409 Z-1.742 F686.838 
G0 Z3.000 
G0 X23.709 Y239.378 Z3.000 
G1 X23.709 Y239.378 Z-2.000 F400.000 
G1 X23.658 Y239.509 Z-2.000 F800.000 
G1 X23.231 Y240.416 Z-2.000 F800.000 
G1 X23.211 Y240.458 Z-2.000 F800.000 
G0 Z3.000 
G0 X23.558 Y240.867 Z3.000 
G1 X23.558 Y240.867 Z-1.740 F400.000 
G1 X23.210 Y240.458 Z-2.000 F685.301 
G1 X23.059 Y240.555 Z-2.000 F800.000 
G1 X22.897 Y240.619 Z-2.000 F800.000 
G1 X21.695 Y240.951 Z-2.000 F800.000 
G1 X21.634 Y240.966 Z-2.000 F800.000 
G0 Z3.000 
G0 X21.677 Y241.409 Z3.000 
G1 X21.677 Y241.409 Z-1.741 F400.000 
G1 X21.633 Y240.966 Z-2.000 F665.956 
G1 X21.539 Y240.963 Z-2.000 F800.000 
G1 X20.762 Y240.890 Z-2.000 F800.000 
G1 X20.621 Y240.867 Z-2.000 F800.000 
G1 X20.552 Y240.854 Z-2.000 F800.000 
G1 X20.026 Y240.724 Z-2.000 F800.000 
G0 Z3.000 
G0 X19.584 Y241.078 Z3.000 
G1 X19.584 Y241.078 Z-1.742 F400.000 
G1 X20.026 Y240.724 Z-2.000 F691.026 
G1 X19.584 Y240.148 Z-1.741 F712.879 
G0 Z3.000 
G0 X20.684 Y238.107 Z3.000 
G1 X20.684 Y238.107 Z-1.741 F400.000 
G1 X21.113 Y237.678 Z-2.000 F697.323 
G1 X20.684 Y237.249 Z-1.741 F697.430 
G0 Z3.000 
G0 X22.319 Y193.255 Z3.000 
G1 X22.319 Y193.255 Z-1.742 F400.000 
G1 X22.838 Y193.774 Z-2.000 F713.875 
G1 X23.358 Y193.255 Z-1.741 F713.721 
G0 Z3.000 
G0 X22.838 Y193.774 Z3.000 
G1 X22.838 Y193.774 Z-2.000 F400.000 
G1 X22.838 Y195.074 Z-2.000 F800.000 
G1 X22.838 Y195.508 Z-2.000 F800.000 
G1 X22.838 Y195.943 Z-2.000 F800.000 
G1 X22.838 Y200.061 Z-2.000 F800.000 
G1 X22.785 Y200.397 Z-2.000 F800.000 
G0 Z3.000 
G0 X22.291 Y200.516 Z3.000 
G1 X22.291 Y200.516 Z-2.000 F400.000 
G1 X22.548 Y200.488 Z-2.000 F800.000 
G1 X22.784 Y200.398 Z-2.000 F800.000 
G1 X23.358 Y200.971 Z-1.740 F721.162 
G0 Z3.000 
G0 X22.045 Y200.971 Z3.000 
G1 X22.045 Y200.971 Z-1.740 F400.000 
G1 X22.291 Y200.516 Z-2.000 F681.606 
G1 X22.090 Y200.357 Z-2.000 F800.000 
G1 X22.013 Y200.257 Z-2.000 F800.000 
G1 X19.353 Y196.155 Z-2.000 F800.000 
G1 X19.301 Y196.059 Z-2.000 F800.000 
G1 X19.260 Y195.955 Z-2.000 F800.000 
G0 Z3.000 
G0 X19.339 Y195.578 Z3.000 
G1 X19.339 Y195.578 Z-2.000 F400.000 
G1 X19.511 Y195.526 Z-2.000 F800.000 
G1 X19.684 Y195.509 Z-2.000 F800.000 
G1 X22.319 Y195.508 Z-2.000 F800.000 
G1 X22.838 Y195.508 Z-2.000 F800.000 
G1 X23.358 Y195.508 Z-2.000 F800.000 
G1 X24.024 Y195.508 Z-2.000 F800.000 
G1 X24.459 Y195.074 Z-1.741 F698.277 
G0 Z3.000 
G0 X24.024 Y195.508 Z3.000 
G1 X24.024 Y195.508 Z-2.000 F400.000 
G1 X24.459 Y195.943 Z-1.740 F698.137 
G0 Z3.000 
G0 X18.836 Y196.082 Z3.000 
G1 X18.836 Y196.082 Z-1.741 F400.000 
G1 X19.260 Y195.955 Z-2.000 F665.137 
G1 X19.293 Y195.707 Z-2.000 F800.000 
G1 X19.340 Y195.577 Z-2.000 F800.000 
G1 X18.836 Y195.074 Z-1.742 F711.300 
G0 Z3.000 
G0 X21.583 Y154.062 Z3.000 
G1 X21.583 Y154.062 Z-1.741 F400.000 
G1 X21.534 Y154.505 Z-2.000 F666.066 
G1 X21.511 Y154.507 Z-2.000 F800.000 
G1 X20.662 Y154.592 Z-2.000 F800.000 
G1 X20.461 Y154.628 Z-2.000 F800.000 
G1 X20.352 Y154.655 Z-2.000 F800.000 
G1 X20.017 Y154.760 Z-2.000 F800.000 
G0 Z3.000 
G0 X19.552 Y154.393 Z3.000 
G1 X19.552 Y154.393 Z-1.741 F400.000 
G1 X20.017 Y154.760 Z-2.000 F694.936 
G1 X19.552 Y155.442 Z-1.741 F722.490 
G0 Z3.000 
G0 X21.534 Y154.505 Z3.000 
G1 X21.534 Y154.505 Z-2.000 F400.000 
G1 X21.695 Y154.540 Z-2.000 F800.000 
G1 X23.115 Y154.999 Z-2.000 F800.000 
G1 X23.397 Y155.150 Z-2.000 F800.000 
G1 X23.769 Y154.749 Z-1.741 F687.223 
G0 Z3.000 
G0 X23.397 Y155.150 Z3.000 
G1 X23.397 Y155.150 Z-2.000 F400.000 
G1 X23.432 Y155.225 Z-2.000 F800.000 
G1 X23.949 Y156.503 Z-2.000 F800.000 
G1 X23.980 Y156.594 Z-2.000 F800.000 
G1 X24.003 Y156.688 Z-2.000 F800.000 
G1 X24.544 Y156.687 Z-1.741 F686.349 
G0 Z3.000 
G0 X24.003 Y156.689 Z3.000 
G1 X24.003 Y156.689 Z-2.000 F400.000 
G1 X23.950 Y156.871 Z-2.000 F800.000 
G1 X23.436 Y158.151 Z-2.000 F800.000 
G1 X23.411 Y158.210 Z-2.000 F800.000 
G0 Z3.000 
G0 X23.789 Y158.605 Z3.000 
G1 X23.789 Y158.605 Z-1.741 F400.000 
G1 X23.410 Y158.210 Z-2.000 F687.612 
G1 X23.268 Y158.309 Z-2.000 F800.000 
G1 X23.115 Y158.378 Z-2.000 F800.000 
G1 X21.702 Y158.856 Z-2.000 F800.000 
G1 X21.688 Y158.861 Z-2.000 F800.000 
G0 Z3.000 
G0 X21.743 Y159.312 Z3.000 
G1 X21.743 Y159.312 Z-1.742 F400.000 
G1 X21.688 Y158.861 Z-2.000 F668.602 
G1 X21.515 Y158.861 Z-2.000 F800.000 
G1 X21.360 Y158.845 Z-2.000 F800.000 
G1 X20.931 Y158.768 Z-2.000 F800.000 
G1 X20.805 Y158.756 Z-2.000 F800.000 
G1 X20.678 Y158.763 Z-2.000 F800.000 
G1 X20.577 Y158.776 Z-2.000 F800.000 
G1 X20.418 Y158.810 Z-2.000 F800.000 
G0 Z3.000 
G0 X19.877 Y158.052 Z3.000 
G1 X19.877 Y158.052 Z-1.742 F400.000 
G1 X20.418 Y158.809 Z-2.000 F731.014 
G1 X20.372 Y158.983 Z-2.000 F800.000 
G1 X20.356 Y159.157 Z-2.000 F800.000 
G1 X20.355 Y161.049 Z-2.000 F800.000 
G1 X20.371 Y161.219 Z-2.000 F800.000 
G1 X20.416 Y161.389 Z-2.000 F800.000 
G1 X19.877 Y161.927 Z-1.742 F716.675 
G0 Z3.000 
G0 X20.415 Y161.389 Z3.000 
G1 X20.415 Y161.389 Z-2.000 F400.000 
G1 X20.681 Y161.475 Z-2.000 F800.000 
G1 X20.833 Y161.489 Z-2.000 F800.000 
G1 X23.536 Y161.488 Z-2.000 F800.000 
G1 X23.975 Y161.049 Z-1.741 F699.529 
G0 Z3.000 
G0 X23.536 Y161.488 Z3.000 
G1 X23.536 Y161.488 Z-2.000 F400.000 
G1 X23.975 Y161.927 Z-1.742 F699.564 
G0 Z3.000 
G0 X21.924 Y114.994 Z3.000 
G1 X21.924 Y114.994 Z-1.741 F400.000 
G1 X21.892 Y115.416 Z-2.000 F660.210 
G1 X21.763 Y115.447 Z-2.000 F800.000 
G1 X20.972 Y115.700 Z-2.000 F800.000 
G0 Z3.000 
G0 X20.744 Y115.250 Z3.000 
G1 X20.744 Y115.250 Z-1.740 F400.000 
G1 X20.972 Y115.700 Z-2.000 F678.852 
G1 X20.640 Y115.910 Z-2.000 F800.000 
G1 X20.498 Y116.025 Z-2.000 F800.000 
G1 X20.381 Y116.169 Z-2.000 F800.000 
G1 X20.311 Y116.277 Z-2.000 F800.000 
G0 Z3.000 
G0 X19.878 Y116.017 Z3.000 
G1 X19.878 Y116.017 Z-1.741 F400.000 
G1 X20.311 Y116.277 Z-2.000 F679.433 
G1 X19.980 Y117.489 Z-2.000 F800.000 
G1 X19.955 Y117.622 Z-2.000 F800.000 
G1 X19.949 Y117.759 Z-2.000 F800.000 
G1 X19.979 Y118.646 Z-2.000 F800.000 
G1 X19.838 Y118.830 Z-2.000 F800.000 
G1 X19.736 Y119.022 Z-2.000 F800.000 
G0 Z3.000 
G0 X19.979 Y118.646 Z3.000 
G1 X19.979 Y118.646 Z-2.000 F400.000 
G1 X20.271 Y118.835 Z-2.000 F800.000 
G1 X20.455 Y119.040 Z-2.000 F800.000 
G1 X20.458 Y119.045 Z-2.000 F800.000 
G1 X20.553 Y119.164 Z-2.000 F800.000 
G1 X20.670 Y119.258 Z-2.000 F800.000 
G1 X21.190 Y119.590 Z-2.000 F800.000 
G1 X20.974 Y120.001 Z-1.741 F670.286 
G0 Z3.000 
G0 X21.190 Y119.590 Z3.000 
G1 X21.190 Y119.590 Z-2.000 F400.000 
G1 X21.767 Y119.782 Z-2.000 F800.000 
G1 X21.861 Y119.808 Z-2.000 F800.000 
G1 X21.958 Y119.821 Z-2.000 F800.000 
G1 X21.986 Y120.244 Z-1.741 F660.344 
G0 Z3.000 
G0 X21.958 Y119.821 Z3.000 
G1 X21.958 Y119.821 Z-2.000 F400.000 
G1 X22.021 Y119.804 Z-2.000 F800.000 
G1 X22.082 Y119.782 Z-2.000 F800.000 
G1 X23.202 Y119.324 Z-2.000 F800.000 
G1 X23.447 Y119.173 Z-2.000 F800.000 
G1 X23.821 Y119.536 Z-1.741 F682.864 
G0 Z3.000 
G0 X23.447 Y119.172 Z3.000 
G1 X23.447 Y119.172 Z-2.000 F400.000 
G1 X23.485 Y119.078 Z-2.000 F800.000 
G1 X23.573 Y118.812 Z-2.000 F800.000 
G1 X23.637 Y118.559 Z-2.000 F800.000 
G1 X23.700 Y118.432 Z-2.000 F800.000 
G1 X24.002 Y118.652 Z-2.000 F800.000 
G1 X24.069 Y118.753 Z-2.000 F800.000 
G1 X24.039 Y118.805 Z-2.000 F800.000 
G1 X23.920 Y118.832 Z-2.000 F800.000 
G1 X23.574 Y118.812 Z-2.000 F800.000 
G0 Z3.000 
G0 X23.699 Y118.431 Z3.000 
G1 X23.699 Y118.431 Z-2.000 F400.000 
G1 X23.921 Y117.767 Z-2.000 F800.000 
G1 X23.942 Y117.696 Z-2.000 F800.000 
G1 X23.958 Y117.623 Z-2.000 F800.000 
G0 Z3.000 
G0 X24.498 Y117.619 Z3.000 
G1 X24.498 Y117.619 Z-1.741 F400.000 
G1 X23.957 Y117.623 Z-2.000 F686.064 
G1 X23.919 Y117.471 Z-2.000 F800.000 
G1 X23.473 Y116.164 Z-2.000 F800.000 
G1 X23.434 Y116.068 Z-2.000 F800.000 
G0 Z3.000 
G0 X23.795 Y115.712 Z3.000 
G1 X23.795 Y115.712 Z-1.741 F400.000 
G1 X23.434 Y116.068 Z-2.000 F679.646 
G1 X23.198 Y115.924 Z-2.000 F800.000 
G1 X22.077 Y115.466 Z-2.000 F800.000 
G1 X21.987 Y115.436 Z-2.000 F800.000 
G1 X21.892 Y115.416 Z-2.000 F800.000 
G0 Z3.000 
G0 X19.170 Y118.993 Z3.000 
G1 X19.170 Y118.993 Z-1.741 F400.000 
G1 X19.735 Y119.022 Z-2.000 F690.670 
G1 X19.713 Y119.303 Z-2.000 F800.000 
G1 X19.732 Y119.454 Z-2.000 F800.000 
G1 X19.946 Y120.463 Z-2.000 F800.000 
G1 X19.387 Y120.637 Z-1.741 F693.940 
G0 Z3.000 
G0 X19.946 Y120.463 Z3.000 
G1 X19.946 Y120.463 Z-2.000 F400.000 
G1 X20.381 Y121.554 Z-2.000 F800.000 
G1 X20.405 Y121.609 Z-2.000 F800.000 
G1 X20.038 Y121.908 Z-1.741 F672.474 
G0 Z3.000 
G0 X20.405 Y121.609 Z3.000 
G1 X20.405 Y121.609 Z-2.000 F400.000 
G1 X20.518 Y121.731 Z-2.000 F800.000 
G1 X20.649 Y121.829 Z-2.000 F800.000 
G1 X21.293 Y122.221 Z-2.000 F800.000 
G1 X21.055 Y122.726 Z-1.740 F689.156 
G0 Z3.000 
G0 X21.293 Y122.221 Z3.000 
G1 X21.293 Y122.221 Z-2.000 F400.000 
G1 X22.233 Y122.522 Z-2.000 F800.000 
G1 X22.393 Y122.557 Z-2.000 F800.000 
G1 X22.369 Y122.998 Z-1.742 F665.278 
G0 Z3.000 
G0 X22.393 Y122.557 Z3.000 
G1 X22.393 Y122.557 Z-2.000 F400.000 
G1 X22.464 Y122.552 Z-2.000 F800.000 
G1 X23.078 Y122.484 Z-2.000 F800.000 
G1 X23.254 Y122.449 Z-2.000 F800.000 
G1 X23.345 Y122.425 Z-2.000 F800.000 
G1 X23.561 Y122.357 Z-2.000 F800.000 
G1 X23.997 Y121.737 Z-1.740 F715.942 
G0 Z3.000 
G0 X23.561 Y122.357 Z3.000 
G1 X23.561 Y122.357 Z-2.000 F400.000 
G1 X23.997 Y122.688 Z-1.742 F687.811 
G0 Z3.000 
G0 X42.955 Y349.375 Z3.000 
G1 X42.955 Y349.375 Z-1.741 F400.000 
G1 X43.395 Y349.815 Z-2.000 F699.352 
G1 X42.955 Y350.254 Z-1.741 F699.352 
G0 Z3.000 
G0 X43.395 Y349.815 Z3.000 
G1 X43.395 Y349.815 Z-2.000 F400.000 
G1 X44.660 Y349.815 Z-2.000 F800.000 
G1 X44.913 Y349.851 Z-2.000 F800.000 
G1 X45.177 Y349.967 Z-2.000 F800.000 
G1 X45.449 Y349.849 Z-2.000 F800.000 
G1 X45.694 Y349.815 Z-2.000 F800.000 
G1 X46.959 Y349.815 Z-2.000 F800.000 
G1 X47.399 Y349.375 Z-1.741 F699.457 
G0 Z3.000 
G0 X46.959 Y349.815 Z3.000 
G1 X46.959 Y349.815 Z-2.000 F400.000 
G1 X47.399 Y350.254 Z-1.741 F699.422 
G0 Z3.000 
G0 X45.177 Y349.967 Z3.000 
G1 X45.177 Y349.967 Z-2.000 F400.000 
G1 X45.177 Y350.254 Z-2.000 F800.000 
G1 X45.177 Y356.140 Z-2.000 F800.000 
G1 X45.161 Y356.324 Z-2.000 F800.000 
G1 X45.112 Y356.508 Z-2.000 F800.000 
G0 Z3.000 
G0 X44.698 Y356.615 Z3.000 
G1 X44.698 Y356.615 Z-2.000 F400.000 
G1 X44.961 Y356.568 Z-2.000 F800.000 
G1 X45.111 Y356.509 Z-2.000 F800.000 
G1 X45.694 Y357.091 Z-1.741 F722.330 
G0 Z3.000 
G0 X44.650 Y357.091 Z3.000 
G1 X44.650 Y357.091 Z-1.741 F400.000 
G1 X44.698 Y356.615 Z-2.000 F673.520 
G1 X44.568 Y356.598 Z-2.000 F800.000 
G1 X43.271 Y356.337 Z-2.000 F800.000 
G0 Z3.000 
G0 X42.805 Y356.719 Z3.000 
G1 X42.805 Y356.719 Z-1.740 F400.000 
G1 X43.271 Y356.337 Z-2.000 F696.398 
G1 X42.805 Y355.768 Z-1.741 F713.701 
G0 Z3.000 
G0 X85.297 Y349.995 Z3.000 
G1 X85.297 Y349.995 Z-1.740 F400.000 
G1 X85.920 Y350.618 Z-2.000 F727.072 
G1 X85.297 Y350.873 Z-1.740 F706.296 
G0 Z3.000 
G0 X85.920 Y350.618 Z3.000 
G1 X85.920 Y350.618 Z-2.000 F400.000 
G1 X85.959 Y350.634 Z-2.000 F800.000 
G1 X86.055 Y350.931 Z-2.000 F800.000 
G1 X86.231 Y351.186 Z-2.000 F800.000 
G1 X87.233 Y352.209 Z-2.000 F800.000 
G1 X87.235 Y352.212 Z-2.000 F800.000 
G1 X88.181 Y353.185 Z-2.000 F800.000 
G1 X88.528 Y353.549 Z-2.000 F800.000 
G1 X88.569 Y353.594 Z-2.000 F800.000 
G1 X88.943 Y354.042 Z-2.000 F800.000 
G1 X89.327 Y353.741 Z-1.741 F675.673 
G0 Z3.000 
G0 X88.943 Y354.042 Z3.000 
G1 X88.943 Y354.042 Z-2.000 F400.000 
G1 X89.281 Y354.534 Z-2.000 F800.000 
G1 X89.328 Y354.610 Z-2.000 F800.000 
G1 X89.368 Y354.690 Z-2.000 F800.000 
G1 X89.479 Y354.944 Z-2.000 F800.000 
G1 X89.973 Y354.744 Z-1.741 F684.916 
G0 Z3.000 
G0 X89.479 Y354.944 Z3.000 
G1 X89.479 Y354.944 Z-2.000 F400.000 
G1 X89.597 Y355.453 Z-2.000 F800.000 
G1 X89.610 Y355.520 Z-2.000 F800.000 
G1 X89.619 Y355.588 Z-2.000 F800.000 
G0 Z3.000 
G0 X90.154 Y355.648 Z3.000 
G1 X90.154 Y355.648 Z-1.741 F400.000 
G1 X89.618 Y355.589 Z-2.000 F685.982 
G1 X89.558 Y355.777 Z-2.000 F800.000 
G1 X89.118 Y356.777 Z-2.000 F800.000 
G1 X89.084 Y356.849 Z-2.000 F800.000 
G0 Z3.000 
G0 X89.441 Y357.250 Z3.000 
G1 X89.441 Y357.250 Z-1.742 F400.000 
G1 X89.083 Y356.849 Z-2.000 F685.895 
G1 X88.812 Y356.994 Z-2.000 F800.000 
G1 X87.686 Y357.364 Z-2.000 F800.000 
G1 X87.490 Y357.404 Z-2.000 F800.000 
G0 Z3.000 
G0 X87.529 Y357.850 Z3.000 
G1 X87.529 Y357.850 Z-1.741 F400.000 
G1 X87.490 Y357.404 Z-2.000 F666.304 
G1 X87.479 Y357.403 Z-2.000 F800.000 
G1 X86.626 Y357.278 Z-2.000 F800.000 
G0 Z3.000 
G0 X86.527 Y357.720 Z3.000 
G1 X86.527 Y357.720 Z-1.742 F400.000 
G1 X86.626 Y357.278 Z-2.000 F668.163 
G1 X86.440 Y357.232 Z-2.000 F800.000 
G1 X86.334 Y357.200 Z-2.000 F800.000 
G1 X85.813 Y357.000 Z-2.000 F800.000 
G0 Z3.000 
G0 X85.348 Y357.338 Z3.000 
G1 X85.348 Y357.338 Z-1.741 F400.000 
G1 X85.813 Y357.000 Z-2.000 F692.095 
G1 X85.348 Y356.284 Z-1.740 F724.791 
G0 Z3.000 
G0 X85.959 Y350.635 Z3.000 
G1 X85.959 Y350.635 Z-2.000 F400.000 
G1 X86.236 Y350.492 Z-2.000 F800.000 
G1 X86.552 Y350.435 Z-2.000 F800.000 
G1 X89.757 Y350.434 Z-2.000 F800.000 
G1 X90.196 Y349.995 Z-1.740 F699.109 
G0 Z3.000 
G0 X89.757 Y350.434 Z3.000 
G1 X89.757 Y350.434 Z-2.000 F400.000 
G1 X90.196 Y350.873 Z-1.742 F699.564 
G0 Z3.000 
G0 X125.114 Y350.235 Z3.000 
G1 X125.114 Y350.235 Z-1.741 F400.000 
G1 X125.562 Y350.579 Z-2.000 F690.497 
G1 X125.114 Y351.243 Z-1.741 F720.324 
G0 Z3.000 
G0 X125.562 Y350.579 Z3.000 
G1 X125.562 Y350.579 Z-2.000 F400.000 
G1 X125.906 Y350.464 Z-2.000 F800.000 
G1 X126.014 Y350.436 Z-2.000 F800.000 
G1 X126.253 Y350.390 Z-2.000 F800.000 
G1 X127.093 Y350.298 Z-2.000 F800.000 
G1 X127.137 Y350.295 Z-2.000 F800.000 
G1 X127.176 Y349.852 Z-1.742 F665.876 
G0 Z3.000 
G0 X127.137 Y350.295 Z3.000 
G1 X127.137 Y350.295 Z-2.000 F400.000 
G1 X127.252 Y350.318 Z-2.000 F800.000 
G1 X128.742 Y350.720 Z-2.000 F800.000 
G1 X128.905 Y350.783 Z-2.000 F800.000 
G1 X129.059 Y350.882 Z-2.000 F800.000 
G1 X129.408 Y350.478 Z-1.741 F684.966 
G0 Z3.000 
G0 X129.059 Y350.882 Z3.000 
G1 X129.059 Y350.882 Z-2.000 F400.000 
G1 X129.077 Y350.918 Z-2.000 F800.000 
G1 X129.586 Y352.047 Z-2.000 F800.000 
G1 X129.628 Y352.155 Z-2.000 F800.000 
G1 X129.656 Y352.270 Z-2.000 F800.000 
G1 X130.194 Y352.245 Z-1.741 F685.774 
G0 Z3.000 
G0 X129.656 Y352.270 Z3.000 
G1 X129.656 Y352.270 Z-2.000 F400.000 
G1 X129.605 Y352.448 Z-2.000 F800.000 
G1 X129.333 Y353.136 Z-2.000 F800.000 
G0 Z3.000 
G0 X129.770 Y353.496 Z3.000 
G1 X129.770 Y353.496 Z-1.741 F400.000 
G1 X129.333 Y353.136 Z-2.000 F690.686 
G1 X129.029 Y353.470 Z-2.000 F800.000 
G1 X128.910 Y353.577 Z-2.000 F800.000 
G1 X128.774 Y353.653 Z-2.000 F800.000 
G1 X128.402 Y353.811 Z-2.000 F800.000 
G1 X128.188 Y353.942 Z-2.000 F800.000 
G1 X128.018 Y354.113 Z-2.000 F800.000 
G0 Z3.000 
G0 X126.876 Y354.126 Z3.000 
G1 X126.876 Y354.126 Z-2.000 F400.000 
G1 X127.346 Y354.126 Z-2.000 F800.000 
G1 X127.388 Y354.126 Z-2.000 F800.000 
G1 X127.470 Y354.121 Z-2.000 F800.000 
G1 X127.501 Y354.121 Z-2.000 F800.000 
G1 X128.018 Y354.112 Z-2.000 F800.000 
G1 X128.223 Y354.339 Z-2.000 F800.000 
G1 X128.426 Y354.464 Z-2.000 F800.000 
G1 X128.645 Y354.554 Z-2.000 F800.000 
G1 X128.769 Y354.622 Z-2.000 F800.000 
G1 X128.876 Y354.718 Z-2.000 F800.000 
G1 X129.232 Y355.110 Z-2.000 F800.000 
G1 X129.646 Y354.772 Z-1.740 F684.927 
G0 Z3.000 
G0 X129.232 Y355.110 Z3.000 
G1 X129.232 Y355.110 Z-2.000 F400.000 
G1 X129.407 Y355.550 Z-2.000 F800.000 
G1 X129.449 Y355.684 Z-2.000 F800.000 
G1 X129.472 Y355.825 Z-2.000 F800.000 
G1 X130.013 Y355.857 Z-1.741 F686.689 
G0 Z3.000 
G0 X129.472 Y355.825 Z3.000 
G1 X129.472 Y355.825 Z-2.000 F400.000 
G1 X129.421 Y355.957 Z-2.000 F800.000 
G1 X128.993 Y356.865 Z-2.000 F800.000 
G1 X128.973 Y356.906 Z-2.000 F800.000 
G0 Z3.000 
G0 X129.320 Y357.315 Z3.000 
G1 X129.320 Y357.315 Z-1.741 F400.000 
G1 X128.972 Y356.906 Z-2.000 F685.761 
G1 X128.821 Y357.004 Z-2.000 F800.000 
G1 X128.659 Y357.067 Z-2.000 F800.000 
G1 X127.458 Y357.399 Z-2.000 F800.000 
G1 X127.396 Y357.414 Z-2.000 F800.000 
G0 Z3.000 
G0 X127.439 Y357.857 Z3.000 
G1 X127.439 Y357.857 Z-1.742 F400.000 
G1 X127.395 Y357.414 Z-2.000 F666.113 
G1 X127.302 Y357.411 Z-2.000 F800.000 
G1 X126.524 Y357.338 Z-2.000 F800.000 
G1 X126.383 Y357.315 Z-2.000 F800.000 
G1 X126.314 Y357.302 Z-2.000 F800.000 
G1 X125.788 Y357.172 Z-2.000 F800.000 
G0 Z3.000 
G0 X125.346 Y357.526 Z3.000 
G1 X125.346 Y357.526 Z-1.741 F400.000 
G1 X125.788 Y357.172 Z-2.000 F690.877 
G1 X125.346 Y356.596 Z-1.741 F712.754 
G0 Z3.000 
G0 X126.447 Y354.555 Z3.000 
G1 X126.447 Y354.555 Z-1.741 F400.000 
G1 X126.876 Y354.126 Z-2.000 F697.287 
G1 X126.447 Y353.697 Z-1.741 F697.394 
G0 Z3.000 
G0 X166.504 Y350.073 Z3.000 
G1 X166.504 Y350.073 Z-1.741 F400.000 
G1 X167.024 Y350.592 Z-2.000 F713.628 
G1 X167.543 Y350.073 Z-1.740 F713.443 
G0 Z3.000 
G0 X167.024 Y350.592 Z3.000 
G1 X167.024 Y350.592 Z-2.000 F400.000 
G1 X167.024 Y351.892 Z-2.000 F800.000 
G1 X167.024 Y352.326 Z-2.000 F800.000 
G1 X167.024 Y352.760 Z-2.000 F800.000 
G1 X167.024 Y356.879 Z-2.000 F800.000 
G1 X166.970 Y357.214 Z-2.000 F800.000 
G0 Z3.000 
G0 X166.476 Y357.333 Z3.000 
G1 X166.476 Y357.333 Z-2.000 F400.000 
G1 X166.733 Y357.305 Z-2.000 F800.000 
G1 X166.969 Y357.215 Z-2.000 F800.000 
G1 X167.543 Y357.788 Z-1.741 F721.387 
G0 Z3.000 
G0 X166.230 Y357.788 Z3.000 
G1 X166.230 Y357.788 Z-1.741 F400.000 
G1 X166.476 Y357.333 Z-2.000 F681.848 
G1 X166.274 Y357.174 Z-2.000 F800.000 
G1 X166.198 Y357.075 Z-2.000 F800.000 
G1 X163.537 Y352.972 Z-2.000 F800.000 
G1 X163.445 Y352.773 Z-2.000 F800.000 
G0 Z3.000 
G0 X163.523 Y352.395 Z3.000 
G1 X163.523 Y352.395 Z-2.000 F400.000 
G1 X163.696 Y352.344 Z-2.000 F800.000 
G1 X163.868 Y352.326 Z-2.000 F800.000 
G1 X166.504 Y352.326 Z-2.000 F800.000 
G1 X167.024 Y352.326 Z-2.000 F800.000 
G1 X167.543 Y352.326 Z-2.000 F800.000 
G1 X168.209 Y352.326 Z-2.000 F800.000 
G1 X168.643 Y351.892 Z-1.741 F698.489 
G0 Z3.000 
G0 X168.209 Y352.326 Z3.000 
G1 X168.209 Y352.326 Z-2.000 F400.000 
G1 X168.643 Y352.760 Z-1.741 F698.348 
G0 Z3.000 
G0 X163.021 Y352.900 Z3.000 
G1 X163.021 Y352.900 Z-1.741 F400.000 
G1 X163.445 Y352.773 Z-2.000 F664.883 
G1 X163.478 Y352.525 Z-2.000 F800.000 
G1 X163.524 Y352.394 Z-2.000 F800.000 
G1 X163.021 Y351.892 Z-1.741 F710.920 
G0 Z3.000 
G0 X205.546 Y350.224 Z3.000 
G1 X205.546 Y350.224 Z-1.741 F400.000 
G1 X206.011 Y350.591 Z-2.000 F694.875 
G1 X205.546 Y351.273 Z-1.741 F722.516 
G0 Z3.000 
G0 X206.011 Y350.591 Z3.000 
G1 X206.011 Y350.591 Z-2.000 F400.000 
G1 X206.346 Y350.485 Z-2.000 F800.000 
G1 X206.456 Y350.459 Z-2.000 F800.000 
G1 X206.656 Y350.422 Z-2.000 F800.000 
G1 X207.505 Y350.337 Z-2.000 F800.000 
G1 X207.528 Y350.336 Z-2.000 F800.000 
G1 X207.577 Y349.893 Z-1.741 F665.597 
G0 Z3.000 
G0 X207.528 Y350.336 Z3.000 
G1 X207.528 Y350.336 Z-2.000 F400.000 
G1 X207.689 Y350.371 Z-2.000 F800.000 
G1 X209.109 Y350.830 Z-2.000 F800.000 
G1 X209.254 Y350.892 Z-2.000 F800.000 
G1 X209.391 Y350.981 Z-2.000 F800.000 
G1 X209.763 Y350.580 Z-1.740 F687.109 
G0 Z3.000 
G0 X209.391 Y350.981 Z3.000 
G1 X209.391 Y350.981 Z-2.000 F400.000 
G1 X209.426 Y351.056 Z-2.000 F800.000 
G1 X209.943 Y352.334 Z-2.000 F800.000 
G1 X209.997 Y352.519 Z-2.000 F800.000 
G1 X210.538 Y352.518 Z-1.741 F686.274 
G0 Z3.000 
G0 X209.997 Y352.520 Z3.000 
G1 X209.997 Y352.520 Z-2.000 F400.000 
G1 X209.944 Y352.702 Z-2.000 F800.000 
G1 X209.430 Y353.981 Z-2.000 F800.000 
G1 X209.405 Y354.040 Z-2.000 F800.000 
G0 Z3.000 
G0 X209.783 Y354.435 Z3.000 
G1 X209.783 Y354.435 Z-1.742 F400.000 
G1 X209.404 Y354.040 Z-2.000 F687.756 
G1 X209.262 Y354.139 Z-2.000 F800.000 
G1 X209.110 Y354.208 Z-2.000 F800.000 
G1 X207.696 Y354.687 Z-2.000 F800.000 
G1 X207.682 Y354.692 Z-2.000 F800.000 
G0 Z3.000 
G0 X207.737 Y355.143 Z3.000 
G1 X207.737 Y355.143 Z-1.741 F400.000 
G1 X207.682 Y354.692 Z-2.000 F668.348 
G1 X207.509 Y354.692 Z-2.000 F800.000 
G1 X207.354 Y354.676 Z-2.000 F800.000 
G1 X206.925 Y354.599 Z-2.000 F800.000 
G1 X206.672 Y354.594 Z-2.000 F800.000 
G1 X206.570 Y354.607 Z-2.000 F800.000 
G1 X206.412 Y354.640 Z-2.000 F800.000 
G0 Z3.000 
G0 X205.871 Y353.882 Z3.000 
G1 X205.871 Y353.882 Z-1.742 F400.000 
G1 X206.413 Y354.640 Z-2.000 F731.092 
G1 X206.366 Y354.814 Z-2.000 F800.000 
G1 X206.350 Y354.988 Z-2.000 F800.000 
G1 X206.349 Y356.879 Z-2.000 F800.000 
G1 X206.365 Y357.049 Z-2.000 F800.000 
G1 X206.410 Y357.219 Z-2.000 F800.000 
G1 X205.871 Y357.758 Z-1.742 F716.743 
G0 Z3.000 
G0 X206.410 Y357.220 Z3.000 
G1 X206.410 Y357.220 Z-2.000 F400.000 
G1 X206.676 Y357.306 Z-2.000 F800.000 
G1 X206.827 Y357.319 Z-2.000 F800.000 
G1 X209.530 Y357.318 Z-2.000 F800.000 
G1 X209.969 Y356.879 Z-1.742 F699.666 
G0 Z3.000 
G0 X209.530 Y357.318 Z3.000 
G1 X209.530 Y357.318 Z-2.000 F400.000 
G1 X209.969 Y357.758 Z-1.741 F699.457 
G0 Z3.000 
G0 X246.958 Y350.245 Z3.000 
G1 X246.958 Y350.245 Z-1.742 F400.000 
G1 X247.186 Y350.695 Z-2.000 F679.524 
G1 X246.854 Y350.906 Z-2.000 F800.000 
G1 X246.712 Y351.021 Z-2.000 F800.000 
G1 X246.596 Y351.165 Z-2.000 F800.000 
G1 X246.527 Y351.272 Z-2.000 F800.000 
G0 Z3.000 
G0 X246.093 Y351.012 Z3.000 
G1 X246.093 Y351.012 Z-1.741 F400.000 
G1 X246.527 Y351.272 Z-2.000 F679.334 
G1 X246.195 Y352.484 Z-2.000 F800.000 
G1 X246.164 Y352.754 Z-2.000 F800.000 
G1 X246.194 Y353.641 Z-2.000 F800.000 
G1 X246.052 Y353.825 Z-2.000 F800.000 
G1 X245.950 Y354.018 Z-2.000 F800.000 
G0 Z3.000 
G0 X246.193 Y353.641 Z3.000 
G1 X246.193 Y353.641 Z-2.000 F400.000 
G1 X246.485 Y353.830 Z-2.000 F800.000 
G1 X246.669 Y354.035 Z-2.000 F800.000 
G1 X246.673 Y354.040 Z-2.000 F800.000 
G1 X246.768 Y354.159 Z-2.000 F800.000 
G1 X246.884 Y354.253 Z-2.000 F800.000 
G1 X247.404 Y354.586 Z-2.000 F800.000 
G1 X247.188 Y354.997 Z-1.741 F670.399 
G0 Z3.000 
G0 X247.404 Y354.586 Z3.000 
G1 X247.404 Y354.586 Z-2.000 F400.000 
G1 X247.982 Y354.778 Z-2.000 F800.000 
G1 X248.173 Y354.817 Z-2.000 F800.000 
G1 X248.201 Y355.239 Z-1.742 F660.543 
G0 Z3.000 
G0 X248.173 Y354.817 Z3.000 
G1 X248.173 Y354.817 Z-2.000 F400.000 
G1 X248.297 Y354.778 Z-2.000 F800.000 
G1 X249.417 Y354.319 Z-2.000 F800.000 
G1 X249.544 Y354.255 Z-2.000 F800.000 
G1 X249.662 Y354.169 Z-2.000 F800.000 
G1 X250.036 Y354.532 Z-1.740 F682.494 
G0 Z3.000 
G0 X249.662 Y354.168 Z3.000 
G1 X249.662 Y354.168 Z-2.000 F400.000 
G1 X249.699 Y354.073 Z-2.000 F800.000 
G1 X249.788 Y353.807 Z-2.000 F800.000 
G1 X249.851 Y353.554 Z-2.000 F800.000 
G1 X249.915 Y353.428 Z-2.000 F800.000 
G1 X250.218 Y353.649 Z-2.000 F800.000 
G1 X250.284 Y353.748 Z-2.000 F800.000 
G1 X250.254 Y353.801 Z-2.000 F800.000 
G1 X250.134 Y353.827 Z-2.000 F800.000 
G1 X249.787 Y353.807 Z-2.000 F800.000 
G0 Z3.000 
G0 X249.914 Y353.428 Z3.000 
G1 X249.914 Y353.428 Z-2.000 F400.000 
G1 X250.136 Y352.762 Z-2.000 F800.000 
G1 X250.157 Y352.691 Z-2.000 F800.000 
G1 X250.173 Y352.618 Z-2.000 F800.000 
G0 Z3.000 
G0 X250.713 Y352.614 Z3.000 
G1 X250.713 Y352.614 Z-1.740 F400.000 
G1 X250.172 Y352.618 Z-2.000 F686.024 
G1 X250.134 Y352.466 Z-2.000 F800.000 
G1 X249.688 Y351.159 Z-2.000 F800.000 
G1 X249.649 Y351.063 Z-2.000 F800.000 
G0 Z3.000 
G0 X250.010 Y350.707 Z3.000 
G1 X250.010 Y350.707 Z-1.742 F400.000 
G1 X249.649 Y351.063 Z-2.000 F680.059 
G1 X249.414 Y350.919 Z-2.000 F800.000 
G1 X248.292 Y350.462 Z-2.000 F800.000 
G1 X248.106 Y350.412 Z-2.000 F800.000 
G0 Z3.000 
G0 X248.139 Y349.989 Z3.000 
G1 X248.139 Y349.989 Z-1.741 F400.000 
G1 X248.107 Y350.411 Z-2.000 F660.472 
G1 X248.042 Y350.424 Z-2.000 F800.000 
G1 X247.978 Y350.442 Z-2.000 F800.000 
G1 X247.186 Y350.695 Z-2.000 F800.000 
G0 Z3.000 
G0 X245.385 Y353.989 Z3.000 
G1 X245.385 Y353.989 Z-1.741 F400.000 
G1 X245.949 Y354.018 Z-2.000 F690.434 
G1 X245.927 Y354.299 Z-2.000 F800.000 
G1 X245.947 Y354.449 Z-2.000 F800.000 
G1 X246.160 Y355.458 Z-2.000 F800.000 
G1 X245.602 Y355.632 Z-1.741 F693.705 
G0 Z3.000 
G0 X246.160 Y355.458 Z3.000 
G1 X246.160 Y355.458 Z-2.000 F400.000 
G1 X246.596 Y356.550 Z-2.000 F800.000 
G1 X246.620 Y356.604 Z-2.000 F800.000 
G1 X246.253 Y356.903 Z-1.740 F672.221 
G0 Z3.000 
G0 X246.620 Y356.604 Z3.000 
G1 X246.620 Y356.604 Z-2.000 F400.000 
G1 X246.733 Y356.727 Z-2.000 F800.000 
G1 X246.865 Y356.825 Z-2.000 F800.000 
G1 X247.508 Y357.216 Z-2.000 F800.000 
G1 X247.270 Y357.721 Z-1.741 F689.407 
G0 Z3.000 
G0 X247.508 Y357.216 Z3.000 
G1 X247.508 Y357.216 Z-2.000 F400.000 
G1 X248.448 Y357.517 Z-2.000 F800.000 
G1 X248.607 Y357.553 Z-2.000 F800.000 
G1 X248.584 Y357.994 Z-1.741 F665.026 
G0 Z3.000 
G0 X248.608 Y357.553 Z3.000 
G1 X248.608 Y357.553 Z-2.000 F400.000 
G1 X248.679 Y357.548 Z-2.000 F800.000 
G1 X249.292 Y357.479 Z-2.000 F800.000 
G1 X249.469 Y357.444 Z-2.000 F800.000 
G1 X249.560 Y357.421 Z-2.000 F800.000 
G1 X249.775 Y357.352 Z-2.000 F800.000 
G1 X250.211 Y356.733 Z-1.742 F716.310 
G0 Z3.000 
G0 X249.775 Y357.352 Z3.000 
G1 X249.775 Y357.352 Z-2.000 F400.000 
G1 X250.211 Y357.684 Z-1.741 F687.595 
G0 Z5.000 
(finish operation: Vcarve)
(begin postamble)
M05
G17 G54 G90 G80 G40
M2
