(Exported by FreeCAD)
(Post Processor: linuxcnc_post)
(Output Time:2026-05-01 10:54:20.128424)
(begin preamble)
G17 G54 G40 G49 G80 G90
G21
(begin operation: TC: Gravierstichel 60)
(machine units: mm/min)
(TC: Gravierstichel 60) 
M5
M6 T2 
G43 H2 
M3 S24000 
(finish operation: TC: Gravierstichel 60)
(begin operation: Fixture)
(machine units: mm/min)
G54 
(finish operation: Fixture)
(begin operation: Vcarve)
(machine units: mm/min)
(starting) 
G0 Z3.000 
G0 X19.183 Y253.347 Z3.000 
G1 X19.183 Y253.347 Z-1.742 F400.000 
G1 X19.622 Y253.786 Z-2.000 F699.669 
G1 X19.183 Y254.225 Z-1.742 F699.669 
G0 Z3.000 
G0 X19.622 Y253.786 Z3.000 
G1 X19.622 Y253.786 Z-2.000 F400.000 
G1 X20.889 Y253.786 Z-2.000 F800.000 
G1 X21.142 Y253.823 Z-2.000 F800.000 
G1 X21.405 Y253.938 Z-2.000 F800.000 
G1 X21.678 Y253.821 Z-2.000 F800.000 
G1 X21.922 Y253.786 Z-2.000 F800.000 
G1 X23.189 Y253.786 Z-2.000 F800.000 
G1 X23.628 Y253.347 Z-1.740 F699.144 
G0 Z3.000 
G0 X23.189 Y253.786 Z3.000 
G1 X23.189 Y253.786 Z-2.000 F400.000 
G1 X23.628 Y254.225 Z-1.741 F699.529 
G0 Z3.000 
G0 X21.405 Y253.938 Z3.000 
G1 X21.405 Y253.938 Z-2.000 F400.000 
G1 X21.405 Y254.225 Z-2.000 F800.000 
G1 X21.405 Y260.111 Z-2.000 F800.000 
G1 X21.390 Y260.295 Z-2.000 F800.000 
G1 X21.341 Y260.480 Z-2.000 F800.000 
G1 X20.926 Y260.586 Z-2.000 F400.000 
G1 X21.189 Y260.540 Z-2.000 F800.000 
G1 X21.340 Y260.480 Z-2.000 F800.000 
G1 X21.922 Y261.062 Z-1.741 F722.430 
G0 Z3.000 
G0 X20.878 Y261.062 Z3.000 
G1 X20.878 Y261.062 Z-1.741 F400.000 
G1 X20.926 Y260.586 Z-2.000 F673.718 
G1 X20.797 Y260.570 Z-2.000 F800.000 
G1 X19.500 Y260.308 Z-2.000 F800.000 
G0 Z3.000 
G0 X19.034 Y260.690 Z3.000 
G1 X19.034 Y260.690 Z-1.741 F400.000 
G1 X19.500 Y260.308 Z-2.000 F696.648 
G1 X19.034 Y259.739 Z-1.741 F713.889 
G0 Z3.000 
G0 X18.805 Y224.523 Z3.000 
G1 X18.805 Y224.523 Z-1.741 F400.000 
G1 X19.429 Y225.147 Z-2.000 F727.301 
G1 X18.805 Y225.402 Z-1.741 F706.585 
G0 Z3.000 
G0 X19.429 Y225.147 Z3.000 
G1 X19.429 Y225.147 Z-2.000 F400.000 
G1 X19.467 Y225.163 Z-2.000 F800.000 
G1 X19.564 Y225.460 Z-2.000 F800.000 
G1 X19.741 Y225.715 Z-2.000 F800.000 
G1 X20.741 Y226.737 Z-2.000 F800.000 
G1 X20.743 Y226.740 Z-2.000 F800.000 
G1 X21.689 Y227.713 Z-2.000 F800.000 
G1 X22.036 Y228.077 Z-2.000 F800.000 
G1 X22.077 Y228.122 Z-2.000 F800.000 
G1 X22.452 Y228.571 Z-2.000 F800.000 
G1 X22.836 Y228.270 Z-1.740 F675.614 
G1 X22.452 Y228.571 Z-2.000 F400.000 
G1 X22.789 Y229.062 Z-2.000 F800.000 
G1 X22.876 Y229.217 Z-2.000 F800.000 
G1 X22.988 Y229.472 Z-2.000 F800.000 
G1 X23.482 Y229.272 Z-1.740 F684.516 
G0 Z3.000 
G0 X22.988 Y229.472 Z3.000 
G1 X22.988 Y229.472 Z-2.000 F400.000 
G1 X23.106 Y229.980 Z-2.000 F800.000 
G1 X23.127 Y230.116 Z-2.000 F800.000 
G0 Z3.000 
G0 X23.663 Y230.176 Z3.000 
G1 X23.663 Y230.176 Z-1.740 F400.000 
G1 X23.127 Y230.116 Z-2.000 F685.680 
G1 X23.066 Y230.305 Z-2.000 F800.000 
G1 X22.626 Y231.306 Z-2.000 F800.000 
G1 X22.592 Y231.377 Z-2.000 F800.000 
G0 Z3.000 
G0 X22.949 Y231.778 Z3.000 
G1 X22.949 Y231.778 Z-1.742 F400.000 
G1 X22.591 Y231.377 Z-2.000 F686.162 
G1 X22.321 Y231.522 Z-2.000 F800.000 
G1 X21.194 Y231.892 Z-2.000 F800.000 
G1 X20.998 Y231.933 Z-2.000 F800.000 
G1 X21.037 Y232.378 Z-1.741 F400.000 
G1 X20.998 Y231.932 Z-2.000 F666.560 
G1 X20.987 Y231.931 Z-2.000 F800.000 
G1 X20.135 Y231.806 Z-2.000 F800.000 
G1 X20.035 Y232.249 Z-1.740 F400.000 
G1 X20.135 Y231.806 Z-2.000 F667.737 
G1 X19.948 Y231.761 Z-2.000 F800.000 
G1 X19.842 Y231.728 Z-2.000 F800.000 
G1 X19.322 Y231.528 Z-2.000 F800.000 
G0 Z3.000 
G0 X18.857 Y231.866 Z3.000 
G1 X18.857 Y231.866 Z-1.741 F400.000 
G1 X19.322 Y231.528 Z-2.000 F692.364 
G1 X18.857 Y230.812 Z-1.741 F725.007 
G0 Z3.000 
G0 X19.467 Y225.164 Z3.000 
G1 X19.467 Y225.164 Z-2.000 F400.000 
G1 X19.745 Y225.020 Z-2.000 F800.000 
G1 X20.061 Y224.963 Z-2.000 F800.000 
G1 X23.265 Y224.963 Z-2.000 F800.000 
G1 X23.704 Y224.523 Z-1.741 F699.422 
G0 Z3.000 
G0 X23.265 Y224.963 Z3.000 
G1 X23.265 Y224.963 Z-2.000 F400.000 
G1 X23.704 Y225.402 Z-1.740 F699.213 
G0 Z3.000 
G0 X20.630 Y196.319 Z3.000 
G1 X20.630 Y196.319 Z-1.741 F400.000 
G1 X20.591 Y196.761 Z-2.000 F665.487 
G1 X20.547 Y196.765 Z-2.000 F800.000 
G1 X19.708 Y196.856 Z-2.000 F800.000 
G1 X19.468 Y196.903 Z-2.000 F800.000 
G1 X19.360 Y196.931 Z-2.000 F800.000 
G1 X19.017 Y197.045 Z-2.000 F800.000 
G0 Z3.000 
G0 X18.568 Y196.701 Z3.000 
G1 X18.568 Y196.701 Z-1.742 F400.000 
G1 X19.017 Y197.045 Z-2.000 F690.857 
G1 X18.568 Y197.709 Z-1.742 F720.546 
G0 Z3.000 
G0 X20.591 Y196.762 Z3.000 
G1 X20.591 Y196.762 Z-2.000 F400.000 
G1 X20.706 Y196.784 Z-2.000 F800.000 
G1 X22.197 Y197.186 Z-2.000 F800.000 
G1 X22.360 Y197.250 Z-2.000 F800.000 
G1 X22.514 Y197.348 Z-2.000 F800.000 
G1 X22.863 Y196.944 Z-1.740 F684.786 
G0 Z3.000 
G0 X22.514 Y197.348 Z3.000 
G1 X22.514 Y197.348 Z-2.000 F400.000 
G1 X22.531 Y197.384 Z-2.000 F800.000 
G1 X23.041 Y198.514 Z-2.000 F800.000 
G1 X23.111 Y198.736 Z-2.000 F800.000 
G1 X23.648 Y198.712 Z-1.741 F685.921 
G0 Z3.000 
G0 X23.111 Y198.737 Z3.000 
G1 X23.111 Y198.737 Z-2.000 F400.000 
G1 X23.059 Y198.915 Z-2.000 F800.000 
G1 X22.788 Y199.602 Z-2.000 F800.000 
G0 Z3.000 
G0 X23.224 Y199.962 Z3.000 
G1 X23.224 Y199.962 Z-1.742 F400.000 
G1 X22.788 Y199.602 Z-2.000 F691.019 
G1 X22.484 Y199.936 Z-2.000 F800.000 
G1 X22.366 Y200.043 Z-2.000 F800.000 
G1 X22.230 Y200.119 Z-2.000 F800.000 
G1 X21.855 Y200.278 Z-2.000 F800.000 
G1 X21.642 Y200.409 Z-2.000 F800.000 
G1 X21.472 Y200.580 Z-2.000 F800.000 
G0 Z3.000 
G0 X20.331 Y200.593 Z3.000 
G1 X20.331 Y200.593 Z-2.000 F400.000 
G1 X20.801 Y200.593 Z-2.000 F800.000 
G1 X20.842 Y200.592 Z-2.000 F800.000 
G1 X20.925 Y200.588 Z-2.000 F800.000 
G1 X20.954 Y200.587 Z-2.000 F800.000 
G1 X21.472 Y200.579 Z-2.000 F800.000 
G1 X21.677 Y200.805 Z-2.000 F800.000 
G1 X21.880 Y200.930 Z-2.000 F800.000 
G1 X22.099 Y201.020 Z-2.000 F800.000 
G1 X22.222 Y201.088 Z-2.000 F800.000 
G1 X22.330 Y201.183 Z-2.000 F800.000 
G1 X22.686 Y201.577 Z-2.000 F800.000 
G1 X23.100 Y201.239 Z-1.741 F685.226 
G0 Z3.000 
G0 X22.686 Y201.577 Z3.000 
G1 X22.686 Y201.577 Z-2.000 F400.000 
G1 X22.861 Y202.016 Z-2.000 F800.000 
G1 X22.926 Y202.292 Z-2.000 F800.000 
G1 X23.467 Y202.324 Z-1.741 F686.722 
G0 Z3.000 
G0 X22.926 Y202.292 Z3.000 
G1 X22.926 Y202.292 Z-2.000 F400.000 
G1 X22.876 Y202.423 Z-2.000 F800.000 
G1 X22.448 Y203.331 Z-2.000 F800.000 
G1 X22.428 Y203.372 Z-2.000 F800.000 
G0 Z3.000 
G0 X22.775 Y203.781 Z3.000 
G1 X22.775 Y203.781 Z-1.741 F400.000 
G1 X22.428 Y203.372 Z-2.000 F685.509 
G1 X22.276 Y203.470 Z-2.000 F800.000 
G1 X22.113 Y203.533 Z-2.000 F800.000 
G1 X20.913 Y203.866 Z-2.000 F800.000 
G1 X20.850 Y203.881 Z-2.000 F800.000 
G1 X20.894 Y204.324 Z-1.741 F400.000 
G1 X20.850 Y203.880 Z-2.000 F665.769 
G1 X20.757 Y203.877 Z-2.000 F800.000 
G1 X19.979 Y203.805 Z-2.000 F800.000 
G1 X19.838 Y203.782 Z-2.000 F800.000 
G1 X19.770 Y203.768 Z-2.000 F800.000 
G1 X19.243 Y203.639 Z-2.000 F800.000 
G0 Z3.000 
G0 X18.801 Y203.993 Z3.000 
G1 X18.801 Y203.993 Z-1.741 F400.000 
G1 X19.243 Y203.639 Z-2.000 F690.707 
G1 X18.801 Y203.063 Z-1.740 F712.536 
G0 Z3.000 
G0 X19.902 Y201.022 Z3.000 
G1 X19.902 Y201.022 Z-1.740 F400.000 
G1 X20.331 Y200.593 Z-2.000 F696.968 
G1 X19.902 Y200.164 Z-1.740 F697.074 
G0 Z3.000 
G0 X21.500 Y168.238 Z3.000 
G1 X21.500 Y168.238 Z-1.740 F400.000 
G1 X22.019 Y168.757 Z-2.000 F713.428 
G1 X22.538 Y168.238 Z-1.742 F713.798 
G0 Z3.000 
G0 X22.019 Y168.757 Z3.000 
G1 X22.019 Y168.757 Z-2.000 F400.000 
G1 X22.019 Y170.057 Z-2.000 F800.000 
G1 X22.019 Y170.492 Z-2.000 F800.000 
G1 X22.019 Y170.926 Z-2.000 F800.000 
G1 X22.019 Y175.044 Z-2.000 F800.000 
G1 X21.965 Y175.380 Z-2.000 F800.000 
G0 Z3.000 
G0 X21.472 Y175.499 Z3.000 
G1 X21.472 Y175.499 Z-2.000 F400.000 
G1 X21.729 Y175.471 Z-2.000 F800.000 
G1 X21.964 Y175.381 Z-2.000 F800.000 
G1 X22.538 Y175.954 Z-1.740 F721.119 
G0 Z3.000 
G0 X21.226 Y175.954 Z3.000 
G1 X21.226 Y175.954 Z-1.740 F400.000 
G1 X21.472 Y175.499 Z-2.000 F681.606 
G1 X21.270 Y175.340 Z-2.000 F800.000 
G1 X21.193 Y175.240 Z-2.000 F800.000 
G1 X18.534 Y171.137 Z-2.000 F800.000 
G1 X18.441 Y170.938 Z-2.000 F800.000 
G1 X18.520 Y170.560 Z-2.000 F400.000 
G1 X18.692 Y170.509 Z-2.000 F800.000 
G1 X18.864 Y170.492 Z-2.000 F800.000 
G1 X21.500 Y170.492 Z-2.000 F800.000 
G1 X22.019 Y170.492 Z-2.000 F800.000 
G1 X22.538 Y170.492 Z-2.000 F800.000 
G1 X23.204 Y170.492 Z-2.000 F800.000 
G1 X23.639 Y170.057 Z-1.741 F698.453 
G0 Z3.000 
G0 X23.204 Y170.492 Z3.000 
G1 X23.204 Y170.492 Z-2.000 F400.000 
G1 X23.639 Y170.926 Z-1.740 F698.137 
G0 Z3.000 
G0 X18.017 Y171.065 Z3.000 
G1 X18.017 Y171.065 Z-1.741 F400.000 
G1 X18.441 Y170.938 Z-2.000 F664.878 
G1 X18.474 Y170.690 Z-2.000 F800.000 
G1 X18.520 Y170.560 Z-2.000 F800.000 
G1 X18.017 Y170.057 Z-1.742 F711.254 
G0 Z3.000 
G0 X21.329 Y139.490 Z3.000 
G1 X21.329 Y139.490 Z-1.742 F400.000 
G1 X21.280 Y139.933 Z-2.000 F666.155 
G1 X21.257 Y139.935 Z-2.000 F800.000 
G1 X20.409 Y140.020 Z-2.000 F800.000 
G1 X20.207 Y140.056 Z-2.000 F800.000 
G1 X20.098 Y140.083 Z-2.000 F800.000 
G1 X19.763 Y140.188 Z-2.000 F800.000 
G0 Z3.000 
G0 X19.298 Y139.821 Z3.000 
G1 X19.298 Y139.821 Z-1.741 F400.000 
G1 X19.763 Y140.188 Z-2.000 F695.082 
G1 X19.298 Y140.870 Z-1.741 F722.597 
G0 Z3.000 
G0 X21.280 Y139.933 Z3.000 
G1 X21.280 Y139.933 Z-2.000 F400.000 
G1 X21.441 Y139.968 Z-2.000 F800.000 
G1 X22.861 Y140.427 Z-2.000 F800.000 
G1 X23.006 Y140.489 Z-2.000 F800.000 
G1 X23.144 Y140.579 Z-2.000 F800.000 
G1 X23.515 Y140.178 Z-1.741 F687.125 
G0 Z3.000 
G0 X23.144 Y140.579 Z3.000 
G1 X23.144 Y140.579 Z-2.000 F400.000 
G1 X23.178 Y140.653 Z-2.000 F800.000 
G1 X23.695 Y141.931 Z-2.000 F800.000 
G1 X23.726 Y142.022 Z-2.000 F800.000 
G1 X23.749 Y142.116 Z-2.000 F800.000 
G1 X24.290 Y142.115 Z-1.741 F686.504 
G0 Z3.000 
G0 X23.750 Y142.117 Z3.000 
G1 X23.750 Y142.117 Z-2.000 F400.000 
G1 X23.696 Y142.299 Z-2.000 F800.000 
G1 X23.182 Y143.579 Z-2.000 F800.000 
G1 X23.157 Y143.638 Z-2.000 F800.000 
G0 Z3.000 
G0 X23.535 Y144.033 Z3.000 
G1 X23.535 Y144.033 Z-1.742 F400.000 
G1 X23.156 Y143.638 Z-2.000 F687.756 
G1 X23.014 Y143.737 Z-2.000 F800.000 
G1 X22.861 Y143.806 Z-2.000 F800.000 
G1 X21.448 Y144.284 Z-2.000 F800.000 
G1 X21.434 Y144.289 Z-2.000 F800.000 
G1 X21.489 Y144.741 Z-1.741 F400.000 
G1 X21.434 Y144.289 Z-2.000 F668.193 
G1 X21.261 Y144.289 Z-2.000 F800.000 
G1 X21.106 Y144.273 Z-2.000 F800.000 
G1 X20.677 Y144.196 Z-2.000 F800.000 
G1 X20.552 Y144.184 Z-2.000 F800.000 
G1 X20.424 Y144.191 Z-2.000 F800.000 
G1 X20.322 Y144.205 Z-2.000 F800.000 
G1 X20.166 Y144.237 Z-2.000 F800.000 
G0 Z3.000 
G0 X19.624 Y143.480 Z3.000 
G1 X19.624 Y143.480 Z-1.740 F400.000 
G1 X20.166 Y144.237 Z-2.000 F730.721 
G1 X20.118 Y144.412 Z-2.000 F800.000 
G1 X20.102 Y144.586 Z-2.000 F800.000 
G1 X20.102 Y146.477 Z-2.000 F800.000 
G1 X20.117 Y146.647 Z-2.000 F800.000 
G1 X20.162 Y146.817 Z-2.000 F800.000 
G1 X19.624 Y147.355 Z-1.740 F716.285 
G0 Z3.000 
G0 X20.162 Y146.817 Z3.000 
G1 X20.162 Y146.817 Z-2.000 F400.000 
G1 X20.428 Y146.904 Z-2.000 F800.000 
G1 X20.580 Y146.917 Z-2.000 F800.000 
G1 X23.283 Y146.916 Z-2.000 F800.000 
G1 X23.722 Y146.477 Z-1.740 F699.075 
G0 Z3.000 
G0 X23.283 Y146.916 Z3.000 
G1 X23.283 Y146.916 Z-2.000 F400.000 
G1 X23.722 Y147.355 Z-1.742 F699.634 
G0 Z3.000 
G0 X21.119 Y112.172 Z3.000 
G1 X21.119 Y112.172 Z-1.742 F400.000 
G1 X21.087 Y112.594 Z-2.000 F660.697 
G1 X21.022 Y112.608 Z-2.000 F800.000 
G1 X20.958 Y112.625 Z-2.000 F800.000 
G1 X20.166 Y112.878 Z-2.000 F800.000 
G0 Z3.000 
G0 X19.938 Y112.428 Z3.000 
G1 X19.938 Y112.428 Z-1.742 F400.000 
G1 X20.166 Y112.878 Z-2.000 F679.689 
G1 X19.835 Y113.089 Z-2.000 F800.000 
G1 X19.692 Y113.204 Z-2.000 F800.000 
G1 X19.576 Y113.348 Z-2.000 F800.000 
G1 X19.506 Y113.455 Z-2.000 F800.000 
G0 Z3.000 
G0 X19.073 Y113.196 Z3.000 
G1 X19.073 Y113.196 Z-1.741 F400.000 
G1 X19.506 Y113.455 Z-2.000 F679.256 
G1 X19.175 Y114.668 Z-2.000 F800.000 
G1 X19.150 Y114.801 Z-2.000 F800.000 
G1 X19.144 Y114.938 Z-2.000 F800.000 
G1 X19.174 Y115.825 Z-2.000 F800.000 
G1 X19.032 Y116.008 Z-2.000 F800.000 
G1 X18.930 Y116.201 Z-2.000 F800.000 
G1 X19.174 Y115.825 Z-2.000 F400.000 
G1 X19.466 Y116.014 Z-2.000 F800.000 
G1 X19.650 Y116.219 Z-2.000 F800.000 
G1 X19.653 Y116.224 Z-2.000 F800.000 
G1 X19.748 Y116.342 Z-2.000 F800.000 
G1 X19.864 Y116.437 Z-2.000 F800.000 
G1 X20.384 Y116.769 Z-2.000 F800.000 
G1 X20.168 Y117.180 Z-1.741 F670.268 
G1 X20.384 Y116.769 Z-2.000 F400.000 
G1 X20.962 Y116.961 Z-2.000 F800.000 
G1 X21.056 Y116.987 Z-2.000 F800.000 
G1 X21.153 Y117.000 Z-2.000 F800.000 
G1 X21.181 Y117.423 Z-1.740 F660.123 
G1 X21.153 Y117.000 Z-2.000 F400.000 
G1 X21.216 Y116.983 Z-2.000 F800.000 
G1 X21.277 Y116.961 Z-2.000 F800.000 
G1 X22.397 Y116.502 Z-2.000 F800.000 
G1 X22.524 Y116.438 Z-2.000 F800.000 
G1 X22.642 Y116.352 Z-2.000 F800.000 
G1 X23.016 Y116.715 Z-1.741 F682.641 
G0 Z3.000 
G0 X22.642 Y116.351 Z3.000 
G1 X22.642 Y116.351 Z-2.000 F400.000 
G1 X22.680 Y116.256 Z-2.000 F800.000 
G1 X22.768 Y115.990 Z-2.000 F800.000 
G1 X22.831 Y115.738 Z-2.000 F800.000 
G1 X22.895 Y115.610 Z-2.000 F800.000 
G1 X23.197 Y115.831 Z-2.000 F800.000 
G1 X23.264 Y115.931 Z-2.000 F800.000 
G1 X23.234 Y115.984 Z-2.000 F800.000 
G1 X23.114 Y116.010 Z-2.000 F800.000 
G1 X22.767 Y115.990 Z-2.000 F800.000 
G1 X22.894 Y115.610 Z-2.000 F400.000 
G1 X23.116 Y114.946 Z-2.000 F800.000 
G1 X23.137 Y114.875 Z-2.000 F800.000 
G1 X23.153 Y114.802 Z-2.000 F800.000 
G0 Z3.000 
G0 X23.693 Y114.798 Z3.000 
G1 X23.693 Y114.798 Z-1.740 F400.000 
G1 X23.152 Y114.802 Z-2.000 F686.025 
G1 X23.114 Y114.650 Z-2.000 F800.000 
G1 X22.668 Y113.343 Z-2.000 F800.000 
G1 X22.629 Y113.247 Z-2.000 F800.000 
G0 Z3.000 
G0 X22.990 Y112.891 Z3.000 
G1 X22.990 Y112.891 Z-1.740 F400.000 
G1 X22.629 Y113.247 Z-2.000 F679.478 
G1 X22.393 Y113.103 Z-2.000 F800.000 
G1 X21.272 Y112.645 Z-2.000 F800.000 
G1 X21.181 Y112.614 Z-2.000 F800.000 
G1 X21.086 Y112.595 Z-2.000 F800.000 
G0 Z3.000 
G0 X18.365 Y116.172 Z3.000 
G1 X18.365 Y116.172 Z-1.741 F400.000 
G1 X18.930 Y116.201 Z-2.000 F690.559 
G1 X18.907 Y116.482 Z-2.000 F800.000 
G1 X18.927 Y116.633 Z-2.000 F800.000 
G1 X19.141 Y117.641 Z-2.000 F800.000 
G1 X18.582 Y117.815 Z-1.741 F693.733 
G0 Z3.000 
G0 X19.141 Y117.641 Z3.000 
G1 X19.141 Y117.641 Z-2.000 F400.000 
G1 X19.576 Y118.733 Z-2.000 F800.000 
G1 X19.600 Y118.788 Z-2.000 F800.000 
G1 X19.233 Y119.087 Z-1.741 F672.482 
G1 X19.600 Y118.788 Z-2.000 F400.000 
G1 X19.713 Y118.910 Z-2.000 F800.000 
G1 X19.844 Y119.008 Z-2.000 F800.000 
G1 X20.488 Y119.399 Z-2.000 F800.000 
G1 X20.250 Y119.904 Z-1.741 F689.480 
G0 Z3.000 
G0 X20.488 Y119.399 Z3.000 
G1 X20.488 Y119.399 Z-2.000 F400.000 
G1 X21.428 Y119.700 Z-2.000 F800.000 
G1 X21.588 Y119.736 Z-2.000 F800.000 
G1 X21.564 Y120.177 Z-1.741 F665.067 
G1 X21.588 Y119.736 Z-2.000 F400.000 
G1 X21.659 Y119.731 Z-2.000 F800.000 
G1 X22.272 Y119.662 Z-2.000 F800.000 
G1 X22.449 Y119.627 Z-2.000 F800.000 
G1 X22.540 Y119.604 Z-2.000 F800.000 
G1 X22.755 Y119.535 Z-2.000 F800.000 
G1 X23.191 Y118.916 Z-1.742 F716.371 
G0 Z3.000 
G0 X22.755 Y119.535 Z3.000 
G1 X22.755 Y119.535 Z-2.000 F400.000 
G1 X23.191 Y119.867 Z-1.741 F687.783 
G0 Z3.000 
G0 X42.752 Y275.362 Z3.000 
G1 X42.752 Y275.362 Z-1.741 F400.000 
G1 X43.191 Y275.801 Z-2.000 F699.631 
G1 X42.752 Y276.241 Z-1.741 F699.631 
G0 Z3.000 
G0 X43.191 Y275.801 Z3.000 
G1 X43.191 Y275.801 Z-2.000 F400.000 
G1 X44.458 Y275.801 Z-2.000 F800.000 
G1 X44.711 Y275.838 Z-2.000 F800.000 
G1 X44.974 Y275.954 Z-2.000 F800.000 
G1 X45.247 Y275.836 Z-2.000 F800.000 
G1 X45.491 Y275.802 Z-2.000 F800.000 
G1 X46.757 Y275.801 Z-2.000 F800.000 
G1 X47.196 Y275.362 Z-1.742 F699.736 
G0 Z3.000 
G0 X46.757 Y275.801 Z3.000 
G1 X46.757 Y275.801 Z-2.000 F400.000 
G1 X47.196 Y276.241 Z-1.740 F699.282 
G0 Z3.000 
G0 X44.974 Y275.953 Z3.000 
G1 X44.974 Y275.953 Z-2.000 F400.000 
G1 X44.974 Y276.241 Z-2.000 F800.000 
G1 X44.974 Y282.127 Z-2.000 F800.000 
G1 X44.958 Y282.311 Z-2.000 F800.000 
G1 X44.909 Y282.495 Z-2.000 F800.000 
G1 X44.494 Y282.602 Z-2.000 F400.000 
G1 X44.758 Y282.555 Z-2.000 F800.000 
G1 X44.909 Y282.496 Z-2.000 F800.000 
G1 X45.491 Y283.077 Z-1.742 F722.623 
G0 Z3.000 
G0 X44.447 Y283.077 Z3.000 
G1 X44.447 Y283.077 Z-1.742 F400.000 
G1 X44.494 Y282.601 Z-2.000 F673.935 
G1 X44.366 Y282.585 Z-2.000 F800.000 
G1 X43.068 Y282.324 Z-2.000 F800.000 
G0 Z3.000 
G0 X42.602 Y282.705 Z3.000 
G1 X42.602 Y282.705 Z-1.741 F400.000 
G1 X43.068 Y282.324 Z-2.000 F696.699 
G1 X42.602 Y281.755 Z-1.740 F713.555 
G0 Z3.000 
G0 X71.013 Y275.323 Z3.000 
G1 X71.013 Y275.323 Z-1.741 F400.000 
G1 X71.637 Y275.947 Z-2.000 F727.399 
G1 X71.013 Y276.202 Z-1.741 F706.711 
G0 Z3.000 
G0 X71.637 Y275.947 Z3.000 
G1 X71.637 Y275.947 Z-2.000 F400.000 
G1 X71.675 Y275.963 Z-2.000 F800.000 
G1 X71.772 Y276.260 Z-2.000 F800.000 
G1 X71.948 Y276.515 Z-2.000 F800.000 
G1 X72.949 Y277.537 Z-2.000 F800.000 
G1 X72.952 Y277.540 Z-2.000 F800.000 
G1 X73.897 Y278.514 Z-2.000 F800.000 
G1 X74.245 Y278.878 Z-2.000 F800.000 
G1 X74.286 Y278.923 Z-2.000 F800.000 
G1 X74.660 Y279.371 Z-2.000 F800.000 
G1 X75.044 Y279.070 Z-1.740 F675.596 
G1 X74.660 Y279.371 Z-2.000 F400.000 
G1 X74.998 Y279.863 Z-2.000 F800.000 
G1 X75.045 Y279.938 Z-2.000 F800.000 
G1 X75.084 Y280.018 Z-2.000 F800.000 
G1 X75.196 Y280.273 Z-2.000 F800.000 
G1 X75.690 Y280.073 Z-1.741 F684.744 
G0 Z3.000 
G0 X75.196 Y280.273 Z3.000 
G1 X75.196 Y280.273 Z-2.000 F400.000 
G1 X75.314 Y280.781 Z-2.000 F800.000 
G1 X75.327 Y280.849 Z-2.000 F800.000 
G1 X75.336 Y280.917 Z-2.000 F800.000 
G0 Z3.000 
G0 X75.871 Y280.977 Z3.000 
G1 X75.871 Y280.977 Z-1.740 F400.000 
G1 X75.335 Y280.918 Z-2.000 F685.713 
G1 X75.275 Y281.106 Z-2.000 F800.000 
G1 X74.835 Y282.106 Z-2.000 F800.000 
G1 X74.801 Y282.178 Z-2.000 F800.000 
G0 Z3.000 
G0 X75.158 Y282.579 Z3.000 
G1 X75.158 Y282.579 Z-1.741 F400.000 
G1 X74.800 Y282.177 Z-2.000 F685.611 
G1 X74.530 Y282.322 Z-2.000 F800.000 
G1 X73.402 Y282.693 Z-2.000 F800.000 
G1 X73.306 Y282.719 Z-2.000 F800.000 
G1 X73.207 Y282.733 Z-2.000 F800.000 
G1 X73.246 Y283.178 Z-1.741 F400.000 
G1 X73.207 Y282.733 Z-2.000 F666.497 
G1 X73.195 Y282.731 Z-2.000 F800.000 
G1 X72.342 Y282.606 Z-2.000 F800.000 
G1 X72.243 Y283.049 Z-1.741 F400.000 
G1 X72.342 Y282.606 Z-2.000 F668.025 
G1 X72.157 Y282.561 Z-2.000 F800.000 
G1 X72.051 Y282.528 Z-2.000 F800.000 
G1 X71.531 Y282.329 Z-2.000 F800.000 
G0 Z3.000 
G0 X71.065 Y282.667 Z3.000 
G1 X71.065 Y282.667 Z-1.740 F400.000 
G1 X71.531 Y282.329 Z-2.000 F692.075 
G1 X71.065 Y281.612 Z-1.741 F725.192 
G0 Z3.000 
G0 X71.675 Y275.964 Z3.000 
G1 X71.675 Y275.964 Z-2.000 F400.000 
G1 X71.953 Y275.820 Z-2.000 F800.000 
G1 X72.269 Y275.763 Z-2.000 F800.000 
G1 X75.472 Y275.762 Z-2.000 F800.000 
G1 X75.912 Y275.323 Z-1.741 F699.562 
G0 Z3.000 
G0 X75.472 Y275.762 Z3.000 
G1 X75.472 Y275.762 Z-2.000 F400.000 
G1 X75.912 Y276.202 Z-1.741 F699.457 
G0 Z3.000 
G0 X100.228 Y275.738 Z3.000 
G1 X100.228 Y275.738 Z-1.741 F400.000 
G1 X100.676 Y276.082 Z-2.000 F690.389 
G1 X100.228 Y276.745 Z-1.741 F720.190 
G0 Z3.000 
G0 X100.676 Y276.082 Z3.000 
G1 X100.676 Y276.082 Z-2.000 F400.000 
G1 X101.020 Y275.967 Z-2.000 F800.000 
G1 X101.128 Y275.939 Z-2.000 F800.000 
G1 X101.367 Y275.893 Z-2.000 F800.000 
G1 X102.207 Y275.801 Z-2.000 F800.000 
G1 X102.251 Y275.798 Z-2.000 F800.000 
G1 X102.290 Y275.355 Z-1.742 F665.834 
G1 X102.251 Y275.798 Z-2.000 F400.000 
G1 X102.366 Y275.821 Z-2.000 F800.000 
G1 X103.855 Y276.222 Z-2.000 F800.000 
G1 X104.019 Y276.286 Z-2.000 F800.000 
G1 X104.173 Y276.385 Z-2.000 F800.000 
G1 X104.522 Y275.981 Z-1.741 F684.878 
G0 Z3.000 
G0 X104.173 Y276.385 Z3.000 
G1 X104.173 Y276.385 Z-2.000 F400.000 
G1 X104.190 Y276.420 Z-2.000 F800.000 
G1 X104.700 Y277.550 Z-2.000 F800.000 
G1 X104.742 Y277.658 Z-2.000 F800.000 
G1 X104.770 Y277.773 Z-2.000 F800.000 
G1 X105.308 Y277.748 Z-1.740 F685.658 
G0 Z3.000 
G0 X104.770 Y277.773 Z3.000 
G1 X104.770 Y277.773 Z-2.000 F400.000 
G1 X104.719 Y277.951 Z-2.000 F800.000 
G1 X104.447 Y278.639 Z-2.000 F800.000 
G0 Z3.000 
G0 X104.884 Y278.999 Z3.000 
G1 X104.884 Y278.999 Z-1.741 F400.000 
G1 X104.447 Y278.639 Z-2.000 F690.597 
G1 X104.143 Y278.973 Z-2.000 F800.000 
G1 X104.025 Y279.080 Z-2.000 F800.000 
G1 X103.889 Y279.156 Z-2.000 F800.000 
G1 X103.515 Y279.313 Z-2.000 F800.000 
G1 X103.302 Y279.444 Z-2.000 F800.000 
G1 X103.132 Y279.616 Z-2.000 F800.000 
G0 Z3.000 
G0 X101.990 Y279.629 Z3.000 
G1 X101.990 Y279.629 Z-2.000 F400.000 
G1 X102.460 Y279.629 Z-2.000 F800.000 
G1 X102.501 Y279.629 Z-2.000 F800.000 
G1 X102.584 Y279.624 Z-2.000 F800.000 
G1 X102.614 Y279.624 Z-2.000 F800.000 
G1 X103.131 Y279.615 Z-2.000 F800.000 
G1 X103.336 Y279.842 Z-2.000 F800.000 
G1 X103.540 Y279.967 Z-2.000 F800.000 
G1 X103.759 Y280.057 Z-2.000 F800.000 
G1 X103.883 Y280.125 Z-2.000 F800.000 
G1 X103.990 Y280.221 Z-2.000 F800.000 
G1 X104.346 Y280.613 Z-2.000 F800.000 
G1 X104.760 Y280.275 Z-1.740 F684.850 
G0 Z3.000 
G0 X104.346 Y280.613 Z3.000 
G1 X104.346 Y280.613 Z-2.000 F400.000 
G1 X104.521 Y281.053 Z-2.000 F800.000 
G1 X104.585 Y281.328 Z-2.000 F800.000 
G1 X105.127 Y281.360 Z-1.741 F686.576 
G0 Z3.000 
G0 X104.586 Y281.328 Z3.000 
G1 X104.586 Y281.328 Z-2.000 F400.000 
G1 X104.535 Y281.460 Z-2.000 F800.000 
G1 X104.107 Y282.368 Z-2.000 F800.000 
G1 X104.087 Y282.408 Z-2.000 F800.000 
G0 Z3.000 
G0 X104.434 Y282.817 Z3.000 
G1 X104.434 Y282.817 Z-1.742 F400.000 
G1 X104.087 Y282.408 Z-2.000 F685.854 
G1 X103.935 Y282.506 Z-2.000 F800.000 
G1 X103.773 Y282.570 Z-2.000 F800.000 
G1 X102.572 Y282.902 Z-2.000 F800.000 
G1 X102.509 Y282.917 Z-2.000 F800.000 
G1 X102.553 Y283.360 Z-1.741 F400.000 
G1 X102.509 Y282.917 Z-2.000 F665.986 
G1 X102.416 Y282.914 Z-2.000 F800.000 
G1 X101.638 Y282.841 Z-2.000 F800.000 
G1 X101.497 Y282.818 Z-2.000 F800.000 
G1 X101.428 Y282.805 Z-2.000 F800.000 
G1 X100.902 Y282.675 Z-2.000 F800.000 
G0 Z3.000 
G0 X100.460 Y283.029 Z3.000 
G1 X100.460 Y283.029 Z-1.741 F400.000 
G1 X100.902 Y282.675 Z-2.000 F690.840 
G1 X100.460 Y282.099 Z-1.741 F712.692 
G0 Z3.000 
G0 X101.561 Y280.058 Z3.000 
G1 X101.561 Y280.058 Z-1.741 F400.000 
G1 X101.990 Y279.629 Z-2.000 F697.216 
G1 X101.561 Y279.200 Z-1.741 F697.323 
G0 Z3.000 
G0 X129.528 Y275.442 Z3.000 
G1 X129.528 Y275.442 Z-1.741 F400.000 
G1 X130.047 Y275.961 Z-2.000 F713.490 
G1 X130.566 Y275.442 Z-1.742 F713.860 
G0 Z3.000 
G0 X130.047 Y275.961 Z3.000 
G1 X130.047 Y275.961 Z-2.000 F400.000 
G1 X130.047 Y277.261 Z-2.000 F800.000 
G1 X130.047 Y277.695 Z-2.000 F800.000 
G1 X130.047 Y278.130 Z-2.000 F800.000 
G1 X130.047 Y282.248 Z-2.000 F800.000 
G1 X129.993 Y282.584 Z-2.000 F800.000 
G0 Z3.000 
G0 X129.500 Y282.703 Z3.000 
G1 X129.500 Y282.703 Z-2.000 F400.000 
G1 X129.757 Y282.675 Z-2.000 F800.000 
G1 X129.992 Y282.585 Z-2.000 F800.000 
G1 X130.566 Y283.158 Z-1.741 F721.204 
G0 Z3.000 
G0 X129.254 Y283.158 Z3.000 
G1 X129.254 Y283.158 Z-1.741 F400.000 
G1 X129.500 Y282.703 Z-2.000 F681.724 
G1 X129.298 Y282.544 Z-2.000 F800.000 
G1 X129.221 Y282.444 Z-2.000 F800.000 
G1 X126.562 Y278.341 Z-2.000 F800.000 
G1 X126.469 Y278.142 Z-2.000 F800.000 
G1 X126.548 Y277.765 Z-2.000 F400.000 
G1 X126.720 Y277.713 Z-2.000 F800.000 
G1 X126.892 Y277.696 Z-2.000 F800.000 
G1 X129.528 Y277.695 Z-2.000 F800.000 
G1 X130.047 Y277.695 Z-2.000 F800.000 
G1 X130.566 Y277.695 Z-2.000 F800.000 
G1 X131.232 Y277.695 Z-2.000 F800.000 
G1 X131.667 Y277.261 Z-1.741 F698.524 
G0 Z3.000 
G0 X131.232 Y277.695 Z3.000 
G1 X131.232 Y277.695 Z-2.000 F400.000 
G1 X131.667 Y278.130 Z-1.740 F698.242 
G0 Z3.000 
G0 X126.045 Y278.269 Z3.000 
G1 X126.045 Y278.269 Z-1.740 F400.000 
G1 X126.469 Y278.142 Z-2.000 F664.835 
G1 X126.502 Y277.894 Z-2.000 F800.000 
G1 X126.548 Y277.764 Z-2.000 F800.000 
G1 X126.045 Y277.261 Z-1.742 F711.317 
G0 Z3.000 
G0 X158.436 Y275.914 Z3.000 
G1 X158.436 Y275.914 Z-1.740 F400.000 
G1 X158.901 Y276.281 Z-2.000 F694.828 
G1 X158.436 Y276.963 Z-1.740 F722.406 
G0 Z3.000 
G0 X158.901 Y276.281 Z3.000 
G1 X158.901 Y276.281 Z-2.000 F400.000 
G1 X159.236 Y276.176 Z-2.000 F800.000 
G1 X159.346 Y276.150 Z-2.000 F800.000 
G1 X159.546 Y276.113 Z-2.000 F800.000 
G1 X160.395 Y276.028 Z-2.000 F800.000 
G1 X160.418 Y276.027 Z-2.000 F800.000 
G1 X160.467 Y275.584 Z-1.740 F665.513 
G1 X160.418 Y276.027 Z-2.000 F400.000 
G1 X160.579 Y276.062 Z-2.000 F800.000 
G1 X161.999 Y276.520 Z-2.000 F800.000 
G1 X162.281 Y276.672 Z-2.000 F800.000 
G1 X162.652 Y276.271 Z-1.741 F687.352 
G0 Z3.000 
G0 X162.281 Y276.671 Z3.000 
G1 X162.281 Y276.671 Z-2.000 F400.000 
G1 X162.315 Y276.747 Z-2.000 F800.000 
G1 X162.833 Y278.026 Z-2.000 F800.000 
G1 X162.864 Y278.116 Z-2.000 F800.000 
G1 X162.887 Y278.210 Z-2.000 F800.000 
G1 X163.428 Y278.209 Z-1.740 F686.125 
G0 Z3.000 
G0 X162.887 Y278.211 Z3.000 
G1 X162.887 Y278.211 Z-2.000 F400.000 
G1 X162.834 Y278.393 Z-2.000 F800.000 
G1 X162.320 Y279.672 Z-2.000 F800.000 
G1 X162.295 Y279.731 Z-2.000 F800.000 
G0 Z3.000 
G0 X162.673 Y280.126 Z3.000 
G1 X162.673 Y280.126 Z-1.741 F400.000 
G1 X162.294 Y279.731 Z-2.000 F687.642 
G1 X162.152 Y279.830 Z-2.000 F800.000 
G1 X161.999 Y279.899 Z-2.000 F800.000 
G1 X160.586 Y280.377 Z-2.000 F800.000 
G1 X160.572 Y280.383 Z-2.000 F800.000 
G1 X160.627 Y280.834 Z-1.741 F400.000 
G1 X160.572 Y280.382 Z-2.000 F668.339 
G1 X160.399 Y280.383 Z-2.000 F800.000 
G1 X160.244 Y280.366 Z-2.000 F800.000 
G1 X159.815 Y280.289 Z-2.000 F800.000 
G1 X159.689 Y280.277 Z-2.000 F800.000 
G1 X159.562 Y280.285 Z-2.000 F800.000 
G1 X159.461 Y280.297 Z-2.000 F800.000 
G1 X159.302 Y280.331 Z-2.000 F800.000 
G0 Z3.000 
G0 X158.761 Y279.573 Z3.000 
G1 X158.761 Y279.573 Z-1.741 F400.000 
G1 X159.303 Y280.330 Z-2.000 F730.992 
G1 X159.256 Y280.504 Z-2.000 F800.000 
G1 X159.240 Y280.679 Z-2.000 F800.000 
G1 X159.239 Y282.570 Z-2.000 F800.000 
G1 X159.255 Y282.740 Z-2.000 F800.000 
G1 X159.300 Y282.910 Z-2.000 F800.000 
G1 X158.761 Y283.449 Z-1.741 F716.653 
G0 Z3.000 
G0 X159.300 Y282.911 Z3.000 
G1 X159.300 Y282.911 Z-2.000 F400.000 
G1 X159.566 Y282.997 Z-2.000 F800.000 
G1 X159.717 Y283.010 Z-2.000 F800.000 
G1 X162.419 Y283.010 Z-2.000 F800.000 
G1 X162.859 Y282.570 Z-1.741 F699.562 
G0 Z3.000 
G0 X162.419 Y283.010 Z3.000 
G1 X162.419 Y283.010 Z-2.000 F400.000 
G1 X162.859 Y283.449 Z-1.741 F699.352 
G0 Z3.000 
G0 X185.890 Y275.697 Z3.000 
G1 X185.890 Y275.697 Z-1.741 F400.000 
G1 X186.118 Y276.147 Z-2.000 F679.174 
G1 X185.787 Y276.357 Z-2.000 F800.000 
G1 X185.644 Y276.472 Z-2.000 F800.000 
G1 X185.528 Y276.616 Z-2.000 F800.000 
G1 X185.458 Y276.724 Z-2.000 F800.000 
G0 Z3.000 
G0 X185.024 Y276.464 Z3.000 
G1 X185.024 Y276.464 Z-1.742 F400.000 
G1 X185.458 Y276.724 Z-2.000 F679.886 
G1 X185.126 Y277.936 Z-2.000 F800.000 
G1 X185.101 Y278.069 Z-2.000 F800.000 
G1 X185.096 Y278.206 Z-2.000 F800.000 
G1 X185.125 Y279.093 Z-2.000 F800.000 
G1 X184.984 Y279.277 Z-2.000 F800.000 
G1 X184.882 Y279.470 Z-2.000 F800.000 
G1 X185.125 Y279.093 Z-2.000 F400.000 
G1 X185.417 Y279.282 Z-2.000 F800.000 
G1 X185.601 Y279.487 Z-2.000 F800.000 
G1 X185.605 Y279.493 Z-2.000 F800.000 
G1 X185.700 Y279.611 Z-2.000 F800.000 
G1 X185.817 Y279.705 Z-2.000 F800.000 
G1 X186.336 Y280.037 Z-2.000 F800.000 
G1 X186.120 Y280.448 Z-1.741 F670.166 
G1 X186.336 Y280.037 Z-2.000 F400.000 
G1 X186.914 Y280.229 Z-2.000 F800.000 
G1 X187.105 Y280.268 Z-2.000 F800.000 
G1 X187.133 Y280.691 Z-1.741 F660.474 
G1 X187.105 Y280.268 Z-2.000 F400.000 
G1 X187.229 Y280.229 Z-2.000 F800.000 
G1 X188.349 Y279.770 Z-2.000 F800.000 
G1 X188.475 Y279.707 Z-2.000 F800.000 
G1 X188.593 Y279.620 Z-2.000 F800.000 
G1 X188.967 Y279.983 Z-1.742 F682.927 
G0 Z3.000 
G0 X188.594 Y279.620 Z3.000 
G1 X188.594 Y279.620 Z-2.000 F400.000 
G1 X188.631 Y279.525 Z-2.000 F800.000 
G1 X188.720 Y279.256 Z-2.000 F800.000 
G1 X188.784 Y279.004 Z-2.000 F800.000 
G1 X188.846 Y278.880 Z-2.000 F800.000 
G1 X189.151 Y279.101 Z-2.000 F800.000 
G1 X189.216 Y279.201 Z-2.000 F800.000 
G1 X189.185 Y279.253 Z-2.000 F800.000 
G1 X189.064 Y279.279 Z-2.000 F800.000 
G1 X188.731 Y279.260 Z-2.000 F800.000 
G1 X188.845 Y278.880 Z-2.000 F400.000 
G1 X189.067 Y278.214 Z-2.000 F800.000 
G1 X189.089 Y278.143 Z-2.000 F800.000 
G1 X189.104 Y278.070 Z-2.000 F800.000 
G0 Z3.000 
G0 X189.644 Y278.066 Z3.000 
G1 X189.644 Y278.066 Z-1.741 F400.000 
G1 X189.103 Y278.070 Z-2.000 F686.328 
G1 X189.066 Y277.919 Z-2.000 F800.000 
G1 X188.620 Y276.611 Z-2.000 F800.000 
G1 X188.581 Y276.515 Z-2.000 F800.000 
G0 Z3.000 
G0 X188.942 Y276.159 Z3.000 
G1 X188.942 Y276.159 Z-1.741 F400.000 
G1 X188.581 Y276.515 Z-2.000 F679.847 
G1 X188.345 Y276.371 Z-2.000 F800.000 
G1 X187.224 Y275.913 Z-2.000 F800.000 
G1 X187.039 Y275.864 Z-2.000 F800.000 
G1 X187.071 Y275.441 Z-1.741 F400.000 
G1 X187.039 Y275.863 Z-2.000 F660.209 
G1 X186.910 Y275.894 Z-2.000 F800.000 
G1 X186.118 Y276.147 Z-2.000 F800.000 
G0 Z3.000 
G0 X184.317 Y279.441 Z3.000 
G1 X184.317 Y279.441 Z-1.740 F400.000 
G1 X184.882 Y279.470 Z-2.000 F690.287 
G1 X184.859 Y279.751 Z-2.000 F800.000 
G1 X184.879 Y279.901 Z-2.000 F800.000 
G1 X185.092 Y280.910 Z-2.000 F800.000 
G1 X184.534 Y281.084 Z-1.740 F693.534 
G0 Z3.000 
G0 X185.092 Y280.910 Z3.000 
G1 X185.092 Y280.910 Z-2.000 F400.000 
G1 X185.528 Y282.001 Z-2.000 F800.000 
G1 X185.552 Y282.056 Z-2.000 F800.000 
G1 X185.185 Y282.355 Z-1.740 F672.196 
G1 X185.552 Y282.056 Z-2.000 F400.000 
G1 X185.664 Y282.178 Z-2.000 F800.000 
G1 X185.795 Y282.276 Z-2.000 F800.000 
G1 X186.440 Y282.668 Z-2.000 F800.000 
G1 X186.201 Y283.173 Z-1.741 F689.325 
G0 Z3.000 
G0 X186.440 Y282.668 Z3.000 
G1 X186.440 Y282.668 Z-2.000 F400.000 
G1 X187.380 Y282.969 Z-2.000 F800.000 
G1 X187.539 Y283.004 Z-2.000 F800.000 
G1 X187.515 Y283.445 Z-1.742 F665.283 
G1 X187.539 Y283.004 Z-2.000 F400.000 
G1 X187.611 Y282.999 Z-2.000 F800.000 
G1 X188.224 Y282.931 Z-2.000 F800.000 
G1 X188.400 Y282.896 Z-2.000 F800.000 
G1 X188.491 Y282.873 Z-2.000 F800.000 
G1 X188.707 Y282.804 Z-2.000 F800.000 
G1 X189.143 Y282.185 Z-1.741 F716.108 
G0 Z3.000 
G0 X188.707 Y282.804 Z3.000 
G1 X188.707 Y282.804 Z-2.000 F400.000 
G1 X189.143 Y283.135 Z-1.742 F687.897 
G0 Z5.000 
(finish operation: Vcarve)
(begin postamble)
M05
G17 G54 G90 G80 G40
M2
