(Exported by FreeCAD)
(Post Processor: linuxcnc_post)
(Output Time:2026-05-03 10:40:21.358121)
(begin preamble)
G17 G54 G40 G49 G80 G90
G21
(begin operation: TC: Diamantverzahnt 1,5mm)
(machine units: mm/min)
(TC: Diamantverzahnt 1,5mm) 
M5
M6 T4 
G43 H4 
M3 S24000 
(finish operation: TC: Diamantverzahnt 1,5mm)
(begin operation: Fixture)
(machine units: mm/min)
G54 
(finish operation: Fixture)
(begin operation: Pocket_Shape)
(machine units: mm/min)
(Pocket_Shape) 
G0 Z5.000 
G0 
G0 X49.277 Y49.371 
G0 X49.277 Y49.371 Z3.000 
G1 X49.277 Y49.371 Z-1.000 F400.000 
G1 X51.766 Y52.920 Z-1.000 F800.000 
G1 X48.908 Y50.062 Z-1.000 F800.000 
G1 X48.538 Y50.753 Z-1.000 F800.000 
G1 X54.198 Y56.413 Z-1.000 F800.000 
G1 X56.479 Y59.755 Z-1.000 F800.000 
G1 X48.368 Y51.643 Z-1.000 F800.000 
G1 X48.281 Y52.579 Z-1.000 F800.000 
G3 X48.307 Y52.643 Z-1.000 I-1.040 J0.453 F800.000 
G1 X58.760 Y63.097 Z-1.000 F800.000 
G1 X60.283 Y65.327 Z-1.000 F800.000 
G2 X60.864 Y66.261 Z-1.000 I57.395 J-35.061 F800.000 
G1 X49.508 Y54.905 Z-1.000 F800.000 
G3 X49.836 Y55.840 Z-1.000 I-4.888 J2.236 F800.000 
G3 X49.888 Y56.346 Z-1.000 I-4.013 J0.675 F800.000 
G1 X62.917 Y69.375 Z-1.000 F800.000 
G2 X64.083 Y70.962 Z-1.000 I24.948 J-17.101 F800.000 
G1 X64.339 Y71.382 Z-1.000 F800.000 
G2 X62.396 Y69.914 Z-1.000 I-14.432 J17.088 F800.000 
G1 X49.997 Y57.515 Z-1.000 F800.000 
G1 X50.105 Y58.684 Z-1.000 F800.000 
G1 X59.464 Y68.042 Z-1.000 F800.000 
G2 X58.180 Y67.288 Z-1.000 I-6.437 J9.488 F800.000 
G2 X57.253 Y66.893 Z-1.000 I-12.580 J28.192 F800.000 
G1 X56.402 Y66.530 Z-1.000 F800.000 
G2 X55.522 Y65.570 Z-1.000 I-17.524 J15.177 F800.000 
G2 X55.424 Y65.489 Z-1.000 I-0.524 J0.537 F800.000 
G1 X54.506 Y64.854 Z-1.000 F800.000 
G2 X53.647 Y63.657 Z-1.000 I-20.775 J13.986 F800.000 
G2 X53.556 Y63.562 Z-1.000 I-0.583 J0.472 F800.000 
G3 X51.151 Y61.356 Z-1.000 I14.899 J-18.653 F800.000 
G3 X50.562 Y60.644 Z-1.000 I3.138 J-3.198 F800.000 
G2 X50.214 Y59.851 Z-1.000 I-34.539 J14.710 F800.000 
G1 X49.850 Y55.933 Z-1.000 F800.000 
G2 X49.810 Y55.750 Z-1.000 I-0.747 J0.069 F800.000 
G2 X49.274 Y54.262 Z-1.000 I-13.746 J4.109 F800.000 
G2 X48.770 Y53.699 Z-1.000 I-1.555 J0.884 F800.000 
G3 X48.394 Y52.874 Z-1.000 I2.337 J-1.562 F800.000 
G2 X48.281 Y52.579 Z-1.000 I-4.533 J1.572 F800.000 
G1 X48.432 Y50.953 Z-1.000 F800.000 
G1 X49.277 Y49.371 Z-1.000 F800.000 
G3 X60.283 Y65.327 Z-1.000 I-629.934 J446.263 F800.000 
G2 X64.083 Y70.962 Z-1.000 I52.521 J-31.320 F800.000 
G1 X64.339 Y71.382 Z-1.000 F800.000 
G2 X63.671 Y70.840 Z-1.000 I-6.955 J7.890 F800.000 
G2 X61.377 Y69.175 Z-1.000 I-71.694 J96.370 F800.000 
G2 X61.333 Y69.146 Z-1.000 I-0.426 J0.617 F800.000 
G2 X58.223 Y67.310 Z-1.000 I-57.821 J94.371 F800.000 
G2 X57.253 Y66.893 Z-1.000 I-3.698 J7.257 F800.000 
G1 X50.215 Y59.855 Z-1.000 F800.000 
G2 X50.674 Y60.832 Z-1.000 I22.055 J-9.753 F800.000 
G2 X52.098 Y62.298 Z-1.000 I15.610 J-13.744 F800.000 
G3 X53.588 Y63.592 Z-1.000 I-21.240 J25.965 F800.000 
G3 X53.674 Y63.692 Z-1.000 I-0.524 J0.537 F800.000 
G1 X54.506 Y64.854 Z-1.000 F800.000 
G3 X55.491 Y65.541 Z-1.000 I-3.624 J6.245 F800.000 
G3 X56.402 Y66.530 Z-1.000 I-8.334 J8.592 F800.000 
G1 X57.253 Y66.893 Z-1.000 F800.000 
G0 Z5.000 
G0 Z5.000 
G0 
G0 X62.866 Y73.082 
G0 X62.866 Y73.082 Z3.000 
G1 X62.866 Y73.082 Z-1.000 F400.000 
G1 X62.978 Y73.132 Z-1.000 F800.000 
G1 X62.106 Y72.413 Z-1.000 F800.000 
G1 X61.955 Y72.313 Z-1.000 F800.000 
G2 X62.866 Y73.082 Z-1.000 I3.025 J-2.660 F800.000 
G1 X62.978 Y73.132 Z-1.000 F800.000 
G1 X62.106 Y72.413 Z-1.000 F800.000 
G1 X61.955 Y72.313 Z-1.000 F800.000 
G2 X62.866 Y73.082 Z-1.000 I3.025 J-2.660 F800.000 
G0 Z5.000 
G0 Z5.000 
G0 
G0 X50.990 Y40.471 
G0 X50.990 Y40.471 Z3.000 
G1 X50.990 Y40.471 Z-1.000 F400.000 
G3 X52.472 Y43.014 Z-1.000 I-35.740 J22.537 F800.000 
G1 X50.687 Y41.228 Z-1.000 F800.000 
G3 X50.252 Y41.854 Z-1.000 I-1.150 J-0.335 F800.000 
G1 X53.739 Y45.342 Z-1.000 F800.000 
G1 X55.006 Y47.669 Z-1.000 F800.000 
G1 X49.625 Y42.288 Z-1.000 F800.000 
G2 X49.112 Y42.836 Z-1.000 I0.740 J1.208 F800.000 
G1 X56.208 Y49.932 Z-1.000 F800.000 
G1 X57.311 Y52.096 Z-1.000 F800.000 
G1 X48.800 Y43.585 Z-1.000 F800.000 
G2 X48.712 Y44.557 Z-1.000 I3.980 J0.853 F800.000 
G1 X58.414 Y54.259 Z-1.000 F800.000 
G3 X59.498 Y56.403 Z-1.000 I-114.836 J59.374 F800.000 
G1 X50.682 Y47.588 Z-1.000 F800.000 
G3 X53.261 Y51.227 Z-1.000 I-70.194 J52.470 F800.000 
G1 X60.550 Y58.517 Z-1.000 F800.000 
G3 X61.600 Y60.627 Z-1.000 I-210.121 J105.844 F800.000 
G1 X55.706 Y54.733 Z-1.000 F800.000 
G1 X58.152 Y58.240 Z-1.000 F800.000 
G1 X62.627 Y62.715 Z-1.000 F800.000 
G3 X63.653 Y64.801 Z-1.000 I-882.964 J435.376 F800.000 
G1 X60.260 Y61.409 Z-1.000 F800.000 
G1 X62.289 Y64.498 Z-1.000 F800.000 
G1 X64.673 Y66.882 Z-1.000 F800.000 
G1 X65.694 Y68.964 Z-1.000 F800.000 
G1 X64.317 Y67.587 Z-1.000 F800.000 
G1 X66.345 Y70.676 Z-1.000 F800.000 
G2 X58.624 Y58.917 Z-1.000 I-1686.924 J1099.261 F800.000 
G2 X58.615 Y58.904 Z-1.000 I-0.624 J0.416 F800.000 
G2 X51.451 Y48.633 Z-1.000 I-1814.636 J1258.099 F800.000 
G2 X49.673 Y46.214 Z-1.000 I-362.277 J264.451 F800.000 
G3 X48.713 Y44.679 Z-1.000 I10.917 J-7.894 F800.000 
G3 X49.001 Y43.040 Z-1.000 I2.980 J-0.322 F800.000 
G3 X49.973 Y42.055 Z-1.000 I1.802 J0.806 F800.000 
G2 X50.760 Y41.045 Z-1.000 I-0.723 J-1.375 F800.000 
G2 X50.990 Y40.471 Z-1.000 I-37.393 J-15.327 F800.000 
G1 X52.248 Y42.603 Z-1.000 F800.000 
G1 X55.775 Y49.081 Z-1.000 F800.000 
G3 X65.821 Y69.222 Z-1.000 I-1135.911 J579.159 F800.000 
G2 X67.148 Y71.879 Z-1.000 I719.497 J-357.826 F800.000 
G3 X66.345 Y70.676 Z-1.000 I69.566 J-47.287 F800.000 
G1 X66.748 Y71.079 Z-1.000 F800.000 
G1 X67.148 Y71.879 Z-1.000 F800.000 
G3 X66.345 Y70.676 Z-1.000 I69.567 J-47.287 F800.000 
G0 Z5.000 
G0 Z5.000 
G0 
G0 X54.702 Y32.476 
G0 X54.702 Y32.476 Z3.000 
G1 X54.702 Y32.476 Z-1.000 F400.000 
G3 X55.533 Y34.367 Z-1.000 I-27.627 J13.263 F800.000 
G1 X54.296 Y33.130 Z-1.000 F800.000 
G3 X53.829 Y33.723 Z-1.000 I-1.512 J-0.710 F800.000 
G1 X56.320 Y36.215 Z-1.000 F800.000 
G1 X57.107 Y38.063 Z-1.000 F800.000 
G1 X53.214 Y34.170 Z-1.000 F800.000 
G3 X52.390 Y34.406 Z-1.000 I-1.300 J-2.977 F800.000 
G1 X57.895 Y39.911 Z-1.000 F800.000 
G3 X58.604 Y41.680 Z-1.000 I-33.449 J14.429 F800.000 
G1 X51.767 Y34.844 Z-1.000 F800.000 
G3 X51.416 Y35.553 Z-1.000 I-1.562 J-0.330 F800.000 
G1 X59.297 Y43.435 Z-1.000 F800.000 
G1 X59.991 Y45.189 Z-1.000 F800.000 
G1 X51.289 Y36.487 Z-1.000 F800.000 
G1 X51.291 Y36.616 Z-1.000 F800.000 
G3 X52.696 Y38.955 Z-1.000 I-90.040 J55.665 F800.000 
G1 X60.685 Y46.943 Z-1.000 F800.000 
G1 X61.378 Y48.698 Z-1.000 F800.000 
G1 X54.142 Y41.461 Z-1.000 F800.000 
G3 X55.474 Y43.854 Z-1.000 I-145.824 J82.754 F800.000 
G1 X62.072 Y50.452 Z-1.000 F800.000 
G3 X62.745 Y52.186 Z-1.000 I-74.686 J30.004 F800.000 
G1 X56.725 Y46.166 Z-1.000 F800.000 
G3 X57.897 Y48.399 Z-1.000 I-94.121 J50.841 F800.000 
G1 X63.401 Y53.903 Z-1.000 F800.000 
G1 X64.057 Y55.619 Z-1.000 F800.000 
G1 X58.979 Y50.541 Z-1.000 F800.000 
G1 X60.061 Y52.683 Z-1.000 F800.000 
G1 X64.713 Y57.336 Z-1.000 F800.000 
G1 X65.369 Y59.052 Z-1.000 F800.000 
G1 X61.142 Y54.826 Z-1.000 F800.000 
G1 X62.224 Y56.968 Z-1.000 F800.000 
G1 X66.025 Y60.769 Z-1.000 F800.000 
G2 X66.682 Y62.487 Z-1.000 I848.109 J-323.507 F800.000 
G1 X63.305 Y59.110 Z-1.000 F800.000 
G3 X64.369 Y61.234 Z-1.000 I-117.455 J60.125 F800.000 
G1 X67.341 Y64.206 Z-1.000 F800.000 
G1 X68.000 Y65.926 Z-1.000 F800.000 
G1 X65.402 Y63.329 Z-1.000 F800.000 
G1 X66.436 Y65.423 Z-1.000 F800.000 
G1 X68.659 Y67.646 Z-1.000 F800.000 
G1 X69.318 Y69.366 Z-1.000 F800.000 
G1 X67.470 Y67.518 Z-1.000 F800.000 
G1 X68.504 Y69.612 Z-1.000 F800.000 
G1 X69.978 Y71.086 Z-1.000 F800.000 
G1 X70.637 Y72.805 Z-1.000 F800.000 
G1 X69.538 Y71.707 Z-1.000 F800.000 
G1 X70.572 Y73.802 Z-1.000 F800.000 
G1 X71.393 Y74.622 Z-1.000 F800.000 
G1 X72.226 Y76.516 Z-1.000 F800.000 
G1 X71.876 Y76.166 Z-1.000 F800.000 
G1 X72.805 Y77.833 Z-1.000 F800.000 
G1 X72.226 Y76.516 Z-1.000 F800.000 
G1 X72.805 Y77.833 Z-1.000 F800.000 
G1 X70.691 Y74.042 Z-1.000 F800.000 
G2 X63.968 Y60.423 Z-1.000 I-1514.692 J739.222 F800.000 
G2 X57.819 Y48.243 Z-1.000 I-1002.432 J498.472 F800.000 
G2 X51.291 Y36.616 Z-1.000 I-176.459 J91.417 F800.000 
G3 X51.462 Y35.479 Z-1.000 I1.817 J-0.309 F800.000 
G2 X51.705 Y35.009 Z-1.000 I-0.696 J-0.657 F800.000 
G3 X51.969 Y34.450 Z-1.000 I1.723 J0.472 F800.000 
G2 X53.757 Y33.795 Z-1.000 I0.038 J-2.665 F800.000 
G2 X54.115 Y33.421 Z-1.000 I-5.772 J-5.893 F800.000 
G1 X54.702 Y32.476 Z-1.000 F800.000 
G1 X54.992 Y33.096 Z-1.000 F800.000 
G1 X58.025 Y40.216 Z-1.000 F800.000 
G3 X66.389 Y61.721 Z-1.000 I-926.142 J372.581 F800.000 
G2 X70.933 Y73.577 Z-1.000 I9627.320 J-3683.307 F800.000 
G2 X72.226 Y76.516 Z-1.000 I242.777 J-105.074 F800.000 
G0 Z5.000 
G0 Z5.000 
G0 
G0 X59.767 Y26.046 
G0 X59.767 Y26.046 Z3.000 
G1 X59.767 Y26.046 Z-1.000 F400.000 
G1 X60.484 Y27.824 Z-1.000 F800.000 
G1 X59.192 Y26.531 Z-1.000 F800.000 
G3 X58.607 Y27.008 Z-1.000 I-2.097 J-1.975 F800.000 
G1 X61.157 Y29.557 Z-1.000 F800.000 
G1 X61.808 Y31.269 Z-1.000 F800.000 
G1 X57.860 Y27.321 Z-1.000 F800.000 
G3 X57.317 Y27.447 Z-1.000 I-0.470 J-0.789 F800.000 
G1 X56.881 Y27.402 Z-1.000 F800.000 
G1 X62.425 Y32.946 Z-1.000 F800.000 
G1 X63.016 Y34.598 Z-1.000 F800.000 
G1 X56.070 Y27.653 Z-1.000 F800.000 
G1 X55.682 Y28.325 Z-1.000 F800.000 
G1 X63.586 Y36.229 Z-1.000 F800.000 
G1 X64.124 Y37.827 Z-1.000 F800.000 
G1 X55.513 Y29.217 Z-1.000 F800.000 
G1 X56.432 Y31.197 Z-1.000 F800.000 
G1 X64.656 Y39.420 Z-1.000 F800.000 
G1 X65.144 Y40.969 Z-1.000 F800.000 
G1 X57.286 Y33.111 Z-1.000 F800.000 
G1 X58.113 Y34.999 Z-1.000 F800.000 
G1 X65.632 Y42.517 Z-1.000 F800.000 
G1 X66.119 Y44.066 Z-1.000 F800.000 
G1 X58.941 Y36.887 Z-1.000 F800.000 
G3 X59.747 Y38.754 Z-1.000 I-25.784 J12.242 F800.000 
G1 X66.577 Y45.584 Z-1.000 F800.000 
G1 X67.029 Y47.097 Z-1.000 F800.000 
G1 X60.442 Y40.510 Z-1.000 F800.000 
G1 X61.137 Y42.265 Z-1.000 F800.000 
G1 X67.481 Y48.609 Z-1.000 F800.000 
G3 X67.916 Y50.105 Z-1.000 I-48.963 J15.052 F800.000 
G1 X61.832 Y44.021 Z-1.000 F800.000 
G1 X62.527 Y45.777 Z-1.000 F800.000 
G1 X68.333 Y51.583 Z-1.000 F800.000 
G1 X68.750 Y53.061 Z-1.000 F800.000 
G1 X63.222 Y47.532 Z-1.000 F800.000 
G1 X63.917 Y49.288 Z-1.000 F800.000 
G1 X69.166 Y54.537 Z-1.000 F800.000 
G1 X69.550 Y55.982 Z-1.000 F800.000 
G1 X64.612 Y51.044 Z-1.000 F800.000 
G3 X65.304 Y52.796 Z-1.000 I-61.264 J25.202 F800.000 
G1 X69.933 Y57.426 Z-1.000 F800.000 
G1 X70.317 Y58.870 Z-1.000 F800.000 
G1 X65.952 Y54.505 Z-1.000 F800.000 
G1 X66.600 Y56.214 Z-1.000 F800.000 
G1 X70.700 Y60.314 Z-1.000 F800.000 
G1 X71.083 Y61.757 Z-1.000 F800.000 
G1 X67.249 Y57.923 Z-1.000 F800.000 
G1 X67.897 Y59.632 Z-1.000 F800.000 
G1 X71.466 Y63.201 Z-1.000 F800.000 
G1 X71.848 Y64.644 Z-1.000 F800.000 
G1 X68.522 Y61.317 Z-1.000 F800.000 
G2 X69.130 Y62.987 Z-1.000 I402.905 J-146.005 F800.000 
G1 X72.231 Y66.087 Z-1.000 F800.000 
G1 X72.614 Y67.531 Z-1.000 F800.000 
G1 X69.754 Y64.671 Z-1.000 F800.000 
G2 X70.403 Y66.381 Z-1.000 I134.711 J-50.151 F800.000 
G1 X72.996 Y68.974 Z-1.000 F800.000 
G1 X73.379 Y70.417 Z-1.000 F800.000 
G1 X71.125 Y68.163 Z-1.000 F800.000 
G3 X71.851 Y69.950 Z-1.000 I-282.890 J116.003 F800.000 
G1 X73.770 Y71.869 Z-1.000 F800.000 
G3 X74.199 Y73.358 Z-1.000 I-139.878 J41.062 F800.000 
G1 X72.582 Y71.742 Z-1.000 F800.000 
G2 X73.332 Y73.552 Z-1.000 I122.949 J-49.868 F800.000 
G1 X74.619 Y74.839 Z-1.000 F800.000 
G2 X75.053 Y76.334 Z-1.000 I44.557 J-12.136 F800.000 
G1 X74.100 Y75.381 Z-1.000 F800.000 
G2 X74.893 Y77.235 Z-1.000 I247.305 J-104.668 F800.000 
G1 X75.516 Y77.857 Z-1.000 F800.000 
G2 X76.027 Y79.429 Z-1.000 I28.787 J-8.493 F800.000 
G1 X75.718 Y79.121 Z-1.000 F800.000 
G2 X76.645 Y81.143 Z-1.000 I96.232 J-42.837 F800.000 
G3 X71.037 Y67.948 Z-1.000 I291.895 J-131.839 F800.000 
G3 X68.224 Y60.494 Z-1.000 I216.748 J-86.051 F800.000 
G2 X65.260 Y52.681 Z-1.000 I-363.344 J133.357 F800.000 
G2 X59.637 Y38.478 Z-1.000 I-1576.202 J615.767 F800.000 
G2 X59.630 Y38.459 Z-1.000 I-0.695 J0.282 F800.000 
G2 X56.688 Y31.747 Z-1.000 I-311.714 J132.616 F800.000 
G2 X55.435 Y29.050 Z-1.000 I-501.490 J231.210 F800.000 
G1 X55.467 Y28.698 Z-1.000 F800.000 
G1 X56.112 Y27.580 Z-1.000 F800.000 
G1 X56.430 Y27.356 Z-1.000 F800.000 
G2 X57.408 Y27.451 Z-1.000 I1.262 J-7.936 F800.000 
G2 X57.676 Y27.395 Z-1.000 I-0.015 J-0.750 F800.000 
G2 X58.570 Y27.028 Z-1.000 I-4.236 J-11.588 F800.000 
G2 X58.717 Y26.932 Z-1.000 I-0.337 J-0.670 F800.000 
G1 X59.767 Y26.046 Z-1.000 F800.000 
G3 X66.197 Y44.313 Z-1.000 I-187.958 J76.430 F800.000 
G3 X70.511 Y59.602 Z-1.000 I-328.088 J100.831 F800.000 
G2 X73.691 Y71.593 Z-1.000 I2215.046 J-580.868 F800.000 
G2 X76.113 Y79.687 Z-1.000 I153.760 J-41.615 F800.000 
G3 X76.645 Y81.143 Z-1.000 I-583.704 J213.694 F800.000 
G1 X76.613 Y81.076 Z-1.000 F800.000 
G0 Z5.000 
G0 Z5.000 
G0 
G0 X68.383 Y19.016 
G0 X68.383 Y19.016 Z3.000 
G1 X68.383 Y19.016 Z-1.000 F400.000 
G3 X68.709 Y20.403 Z-1.000 I-78.524 J19.196 F800.000 
G1 X67.563 Y19.256 Z-1.000 F800.000 
G2 X66.989 Y19.742 Z-1.000 I11.499 J14.150 F800.000 
G1 X69.011 Y21.765 Z-1.000 F800.000 
G3 X69.309 Y23.123 Z-1.000 I-50.683 J11.833 F800.000 
G1 X66.636 Y20.450 Z-1.000 F800.000 
G3 X66.309 Y21.184 Z-1.000 I-3.264 J-1.012 F800.000 
G1 X69.586 Y24.462 Z-1.000 F800.000 
G1 X69.864 Y25.800 Z-1.000 F800.000 
G1 X65.767 Y21.703 Z-1.000 F800.000 
G3 X65.155 Y22.152 Z-1.000 I-2.210 J-2.370 F800.000 
G1 X70.141 Y27.138 Z-1.000 F800.000 
G1 X70.419 Y28.476 Z-1.000 F800.000 
G1 X64.471 Y22.528 Z-1.000 F800.000 
G3 X63.616 Y22.734 Z-1.000 I-0.707 J-1.060 F800.000 
G1 X70.674 Y29.791 Z-1.000 F800.000 
G1 X70.927 Y31.106 Z-1.000 F800.000 
G1 X62.387 Y22.565 Z-1.000 F800.000 
G2 X61.978 Y22.562 Z-1.000 I-0.206 J0.220 F800.000 
G2 X61.585 Y22.824 Z-1.000 I0.679 J1.442 F800.000 
G1 X71.181 Y32.420 Z-1.000 F800.000 
G1 X71.435 Y33.735 Z-1.000 F800.000 
G1 X60.996 Y23.296 Z-1.000 F800.000 
G1 X60.924 Y23.368 Z-1.000 F800.000 
G1 X61.555 Y24.915 Z-1.000 F800.000 
G1 X71.683 Y35.043 Z-1.000 F800.000 
G1 X71.885 Y36.306 Z-1.000 F800.000 
G1 X62.284 Y26.705 Z-1.000 F800.000 
G1 X63.013 Y28.495 Z-1.000 F800.000 
G1 X72.087 Y37.568 Z-1.000 F800.000 
G1 X72.288 Y38.831 Z-1.000 F800.000 
G1 X63.742 Y30.285 Z-1.000 F800.000 
G3 X64.418 Y32.021 Z-1.000 I-11.604 J5.512 F800.000 
G1 X72.490 Y40.093 Z-1.000 F800.000 
G1 X72.692 Y41.356 Z-1.000 F800.000 
G1 X64.924 Y33.588 Z-1.000 F800.000 
G1 X65.431 Y35.155 Z-1.000 F800.000 
G1 X72.894 Y42.618 Z-1.000 F800.000 
G1 X73.096 Y43.881 Z-1.000 F800.000 
G1 X65.944 Y36.729 Z-1.000 F800.000 
G3 X66.458 Y38.304 Z-1.000 I-1533.194 J501.385 F800.000 
G1 X73.298 Y45.143 Z-1.000 F800.000 
G1 X73.500 Y46.406 Z-1.000 F800.000 
G1 X66.972 Y39.878 Z-1.000 F800.000 
G3 X67.470 Y41.437 Z-1.000 I-100.009 J32.844 F800.000 
G1 X73.702 Y47.669 Z-1.000 F800.000 
G3 X73.895 Y48.922 Z-1.000 I-67.820 J11.084 F800.000 
G1 X67.964 Y42.992 Z-1.000 F800.000 
G1 X68.457 Y44.546 Z-1.000 F800.000 
G1 X74.082 Y50.171 Z-1.000 F800.000 
G1 X74.270 Y51.419 Z-1.000 F800.000 
G1 X68.951 Y46.100 Z-1.000 F800.000 
G3 X69.409 Y47.619 Z-1.000 I-42.143 J13.548 F800.000 
G1 X74.458 Y52.668 Z-1.000 F800.000 
G3 X74.646 Y53.916 Z-1.000 I-188.142 J28.931 F800.000 
G1 X69.859 Y49.129 Z-1.000 F800.000 
G3 X70.302 Y50.633 Z-1.000 I-33.739 J10.757 F800.000 
G1 X74.829 Y55.160 Z-1.000 F800.000 
G1 X75.012 Y56.403 Z-1.000 F800.000 
G1 X70.702 Y52.093 Z-1.000 F800.000 
G1 X71.101 Y53.553 Z-1.000 F800.000 
G1 X75.194 Y57.647 Z-1.000 F800.000 
G1 X75.377 Y58.890 Z-1.000 F800.000 
G1 X71.496 Y55.009 Z-1.000 F800.000 
G1 X71.880 Y56.454 Z-1.000 F800.000 
G1 X75.537 Y60.111 Z-1.000 F800.000 
G1 X75.696 Y61.330 Z-1.000 F800.000 
G1 X72.264 Y57.898 Z-1.000 F800.000 
G1 X72.648 Y59.343 Z-1.000 F800.000 
G1 X75.867 Y62.562 Z-1.000 F800.000 
G1 X76.056 Y63.811 Z-1.000 F800.000 
G1 X73.031 Y60.787 Z-1.000 F800.000 
G1 X73.415 Y62.232 Z-1.000 F800.000 
G1 X76.242 Y65.059 Z-1.000 F800.000 
G1 X76.420 Y66.297 Z-1.000 F800.000 
G1 X73.799 Y63.676 Z-1.000 F800.000 
G1 X74.183 Y65.120 Z-1.000 F800.000 
G1 X76.597 Y67.535 Z-1.000 F800.000 
G2 X76.810 Y68.808 Z-1.000 I30.225 J-4.396 F800.000 
G1 X74.567 Y66.565 Z-1.000 F800.000 
G1 X74.951 Y68.009 Z-1.000 F800.000 
G1 X77.032 Y70.091 Z-1.000 F800.000 
G3 X77.254 Y71.374 Z-1.000 I-45.187 J8.485 F800.000 
G1 X75.334 Y69.454 Z-1.000 F800.000 
G1 X75.718 Y70.898 Z-1.000 F800.000 
G1 X77.467 Y72.647 Z-1.000 F800.000 
G1 X77.686 Y73.927 Z-1.000 F800.000 
G1 X76.102 Y72.343 Z-1.000 F800.000 
G2 X76.525 Y73.827 Z-1.000 I18.740 J-4.542 F800.000 
G1 X77.906 Y75.207 Z-1.000 F800.000 
G2 X78.127 Y76.489 Z-1.000 I504.689 J-86.363 F800.000 
G1 X77.000 Y75.362 Z-1.000 F800.000 
G1 X77.474 Y76.897 Z-1.000 F800.000 
G1 X78.349 Y77.772 Z-1.000 F800.000 
G2 X78.574 Y79.057 Z-1.000 I274.397 J-47.273 F800.000 
G1 X77.948 Y78.432 Z-1.000 F800.000 
G2 X78.557 Y80.101 Z-1.000 I12.362 J-3.560 F800.000 
G1 X78.841 Y80.386 Z-1.000 F800.000 
G3 X79.116 Y81.548 Z-1.000 I-76.870 J18.768 F800.000 
G1 X78.095 Y78.907 Z-1.000 F800.000 
G1 X76.319 Y73.161 Z-1.000 F800.000 
G2 X71.394 Y54.625 Z-1.000 I-2533.950 J663.390 F800.000 
G2 X69.047 Y46.403 Z-1.000 I-184.775 J48.298 F800.000 
G2 X64.284 Y31.613 Z-1.000 I-1720.688 J546.030 F800.000 
G1 X60.924 Y23.368 Z-1.000 F800.000 
G3 X61.978 Y22.562 Z-1.000 I7.025 J8.096 F800.000 
G1 X62.188 Y22.484 Z-1.000 F800.000 
G2 X62.864 Y22.742 Z-1.000 I1.185 J-2.087 F800.000 
G2 X64.086 Y22.702 Z-1.000 I0.446 J-4.960 F800.000 
G2 X66.380 Y21.082 Z-1.000 I-1.946 J-5.192 F800.000 
G3 X67.000 Y19.721 Z-1.000 I22.569 J9.461 F800.000 
G3 X67.838 Y19.093 Z-1.000 I5.334 J6.246 F800.000 
G3 X68.392 Y19.034 Z-1.000 I0.385 J0.966 F800.000 
G3 X71.659 Y34.896 Z-1.000 I-366.358 J83.739 F800.000 
G3 X75.384 Y58.939 Z-1.000 I-1230.744 J203.000 F800.000 
G2 X76.218 Y64.887 Z-1.000 I148.689 J-17.802 F800.000 
G2 X77.193 Y70.998 Z-1.000 I124.268 J-16.693 F800.000 
G2 X78.819 Y80.297 Z-1.000 I424.535 J-69.464 F800.000 
G3 X79.116 Y81.548 Z-1.000 I-70.079 J17.275 F800.000 
G1 X78.557 Y80.101 Z-1.000 F800.000 
G0 Z5.000 
G0 Z5.000 
G0 
G0 X79.320 Y17.491 
G0 X79.320 Y17.491 Z3.000 
G1 X79.320 Y17.491 Z-1.000 F400.000 
G1 X79.421 Y18.652 Z-1.000 F800.000 
G1 X78.527 Y17.758 Z-1.000 F800.000 
G3 X77.565 Y17.857 Z-1.000 I-0.765 J-2.708 F800.000 
G1 X79.522 Y19.814 Z-1.000 F800.000 
G1 X79.622 Y20.975 Z-1.000 F800.000 
G1 X75.542 Y16.894 Z-1.000 F800.000 
G3 X75.358 Y16.745 Z-1.000 I0.427 J-0.709 F800.000 
G2 X74.371 Y16.784 Z-1.000 I-0.184 J7.709 F800.000 
G1 X79.723 Y22.137 Z-1.000 F800.000 
G1 X79.824 Y23.298 Z-1.000 F800.000 
G1 X73.686 Y17.160 Z-1.000 F800.000 
G3 X73.387 Y17.922 Z-1.000 I-5.994 J-1.905 F800.000 
G1 X79.925 Y24.460 Z-1.000 F800.000 
G1 X80.026 Y25.621 Z-1.000 F800.000 
G1 X72.855 Y18.450 Z-1.000 F800.000 
G3 X72.244 Y18.901 Z-1.000 I-3.027 J-3.467 F800.000 
G1 X80.127 Y26.783 Z-1.000 F800.000 
G1 X80.227 Y27.944 Z-1.000 F800.000 
G1 X71.551 Y19.268 Z-1.000 F800.000 
G3 X70.768 Y19.546 Z-1.000 I-1.702 J-3.554 F800.000 
G1 X80.328 Y29.106 Z-1.000 F800.000 
G1 X80.429 Y30.267 Z-1.000 F800.000 
G1 X71.027 Y20.865 Z-1.000 F800.000 
G1 X71.319 Y22.217 Z-1.000 F800.000 
G1 X80.530 Y31.429 Z-1.000 F800.000 
G1 X80.631 Y32.590 Z-1.000 F800.000 
G1 X71.610 Y23.569 Z-1.000 F800.000 
G1 X71.901 Y24.921 Z-1.000 F800.000 
G1 X80.731 Y33.751 Z-1.000 F800.000 
G3 X80.808 Y34.889 Z-1.000 I-14.490 J1.545 F800.000 
G1 X72.192 Y26.273 Z-1.000 F800.000 
G1 X72.484 Y27.625 Z-1.000 F800.000 
G1 X80.861 Y36.002 Z-1.000 F800.000 
G1 X80.914 Y37.116 Z-1.000 F800.000 
G1 X72.756 Y28.958 Z-1.000 F800.000 
G1 X72.977 Y30.240 Z-1.000 F800.000 
G1 X80.967 Y38.229 Z-1.000 F800.000 
G1 X81.020 Y39.343 Z-1.000 F800.000 
G1 X73.198 Y31.521 Z-1.000 F800.000 
G1 X73.419 Y32.803 Z-1.000 F800.000 
G1 X81.072 Y40.456 Z-1.000 F800.000 
G1 X81.125 Y41.570 Z-1.000 F800.000 
G1 X73.640 Y34.085 Z-1.000 F800.000 
G1 X73.861 Y35.366 Z-1.000 F800.000 
G1 X81.178 Y42.684 Z-1.000 F800.000 
G1 X81.231 Y43.797 Z-1.000 F800.000 
G1 X74.082 Y36.648 Z-1.000 F800.000 
G1 X74.303 Y37.929 Z-1.000 F800.000 
G1 X81.284 Y44.911 Z-1.000 F800.000 
G1 X81.337 Y46.024 Z-1.000 F800.000 
G1 X74.524 Y39.211 Z-1.000 F800.000 
G1 X74.745 Y40.493 Z-1.000 F800.000 
G1 X81.390 Y47.138 Z-1.000 F800.000 
G1 X81.443 Y48.251 Z-1.000 F800.000 
G1 X74.966 Y41.774 Z-1.000 F800.000 
G1 X75.187 Y43.056 Z-1.000 F800.000 
G1 X81.474 Y49.343 Z-1.000 F800.000 
G1 X81.504 Y50.434 Z-1.000 F800.000 
G1 X75.401 Y44.331 Z-1.000 F800.000 
G1 X75.589 Y45.580 Z-1.000 F800.000 
G1 X81.534 Y51.525 Z-1.000 F800.000 
G1 X81.564 Y52.616 Z-1.000 F800.000 
G1 X75.778 Y46.829 Z-1.000 F800.000 
G1 X75.967 Y48.079 Z-1.000 F800.000 
G1 X81.595 Y53.707 Z-1.000 F800.000 
G1 X81.625 Y54.797 Z-1.000 F800.000 
G1 X76.156 Y49.328 Z-1.000 F800.000 
G1 X76.344 Y50.578 Z-1.000 F800.000 
G1 X81.655 Y55.888 Z-1.000 F800.000 
G1 X81.686 Y56.979 Z-1.000 F800.000 
G1 X76.533 Y51.827 Z-1.000 F800.000 
G1 X76.722 Y53.076 Z-1.000 F800.000 
G1 X81.716 Y58.070 Z-1.000 F800.000 
G3 X81.738 Y59.153 Z-1.000 I-48.948 J1.554 F800.000 
G1 X76.911 Y54.326 Z-1.000 F800.000 
G1 X77.099 Y55.575 Z-1.000 F800.000 
G1 X81.756 Y60.232 Z-1.000 F800.000 
G1 X81.774 Y61.311 Z-1.000 F800.000 
G1 X77.288 Y56.825 Z-1.000 F800.000 
G1 X77.477 Y58.074 Z-1.000 F800.000 
G1 X81.792 Y62.389 Z-1.000 F800.000 
G1 X81.810 Y63.468 Z-1.000 F800.000 
G1 X77.666 Y59.323 Z-1.000 F800.000 
G3 X77.854 Y60.573 Z-1.000 I-154.091 J23.881 F800.000 
G1 X81.828 Y64.547 Z-1.000 F800.000 
G1 X81.846 Y65.625 Z-1.000 F800.000 
G1 X78.037 Y61.816 Z-1.000 F800.000 
G1 X78.219 Y63.059 Z-1.000 F800.000 
G1 X81.864 Y66.704 Z-1.000 F800.000 
G1 X81.882 Y67.783 Z-1.000 F800.000 
G1 X78.402 Y64.302 Z-1.000 F800.000 
G1 X78.585 Y65.546 Z-1.000 F800.000 
G1 X81.900 Y68.861 Z-1.000 F800.000 
G3 X81.916 Y69.938 Z-1.000 I-22.074 J0.858 F800.000 
G1 X78.767 Y66.789 Z-1.000 F800.000 
G1 X78.950 Y68.032 Z-1.000 F800.000 
G1 X81.908 Y70.990 Z-1.000 F800.000 
G1 X81.900 Y72.043 Z-1.000 F800.000 
G1 X79.133 Y69.276 Z-1.000 F800.000 
G2 X79.330 Y70.534 Z-1.000 I30.080 J-4.072 F800.000 
G1 X81.892 Y73.095 Z-1.000 F800.000 
G1 X81.883 Y74.148 Z-1.000 F800.000 
G1 X79.545 Y71.809 Z-1.000 F800.000 
G1 X79.759 Y73.084 Z-1.000 F800.000 
G1 X81.875 Y75.201 Z-1.000 F800.000 
G1 X81.867 Y76.253 Z-1.000 F800.000 
G1 X79.974 Y74.360 Z-1.000 F800.000 
G1 X80.189 Y75.635 Z-1.000 F800.000 
G1 X81.861 Y77.308 Z-1.000 F800.000 
G1 X81.865 Y78.372 Z-1.000 F800.000 
G1 X80.426 Y76.933 Z-1.000 F800.000 
G3 X80.664 Y78.232 Z-1.000 I-136.753 J25.764 F800.000 
G1 X81.868 Y79.436 Z-1.000 F800.000 
G1 X81.872 Y80.500 Z-1.000 F800.000 
G1 X80.918 Y79.547 Z-1.000 F800.000 
G1 X81.182 Y80.871 Z-1.000 F800.000 
G1 X81.876 Y81.565 Z-1.000 F800.000 
G1 X81.879 Y82.629 Z-1.000 F800.000 
G1 X81.882 Y83.663 Z-1.000 F800.000 
G3 X81.499 Y82.249 Z-1.000 I20.751 J-6.385 F800.000 
G1 X81.879 Y82.629 Z-1.000 F800.000 
G1 X81.882 Y83.663 Z-1.000 F800.000 
G3 X80.471 Y77.176 Z-1.000 I56.082 J-15.597 F800.000 
G3 X79.232 Y69.955 Z-1.000 I292.869 J-53.970 F800.000 
G2 X75.359 Y44.059 Z-1.000 I-3173.308 J461.347 F800.000 
G2 X72.698 Y28.623 Z-1.000 I-1488.162 J248.608 F800.000 
G2 X72.694 Y28.600 Z-1.000 I-0.738 J0.135 F800.000 
G1 X70.744 Y19.551 Z-1.000 F800.000 
G2 X73.318 Y18.043 Z-1.000 I-1.486 J-5.487 F800.000 
G2 X73.718 Y17.082 Z-1.000 I-3.529 J-2.033 F800.000 
G3 X74.737 Y16.757 Z-1.000 I0.924 J1.140 F800.000 
G3 X75.366 Y16.753 Z-1.000 I0.330 J2.573 F800.000 
G2 X75.720 Y16.977 Z-1.000 I0.616 J-0.584 F800.000 
G2 X76.552 Y17.570 Z-1.000 I3.913 J-4.600 F800.000 
G2 X78.736 Y17.708 Z-1.000 I1.256 J-2.527 F800.000 
G2 X79.320 Y17.491 Z-1.000 I-0.327 J-1.772 F800.000 
G1 X80.781 Y34.323 Z-1.000 F800.000 
G1 X81.444 Y48.278 Z-1.000 F800.000 
G3 X81.917 Y69.840 Z-1.000 I-974.462 J32.144 F800.000 
G2 X81.879 Y82.629 Z-1.000 I581.520 J8.100 F800.000 
G0 Z5.000 
G0 Z5.000 
G0 
G0 X93.610 Y18.581 
G0 X93.610 Y18.581 Z3.000 
G1 X93.610 Y18.581 Z-1.000 F400.000 
G1 X93.576 Y19.608 Z-1.000 F800.000 
G1 X92.638 Y18.670 Z-1.000 F800.000 
G3 X91.110 Y18.203 Z-1.000 I0.092 J-3.031 F800.000 
G1 X93.543 Y20.635 Z-1.000 F800.000 
G0 Z5.000 
G0 X90.136 Y17.229 Z5.000 
G0 X90.136 Y17.229 Z3.000 
G1 X90.136 Y17.229 Z-1.000 F400.000 
G3 X89.860 Y16.737 Z-1.000 I5.545 J-3.429 F800.000 
G2 X89.376 Y16.469 Z-1.000 I-0.793 J0.862 F800.000 
G1 X90.136 Y17.229 Z-1.000 F800.000 
G2 X91.110 Y18.203 Z-1.000 I2.829 J-1.856 F800.000 
G1 X93.543 Y20.635 Z-1.000 F800.000 
G1 X93.509 Y21.663 Z-1.000 F800.000 
G1 X88.320 Y16.474 Z-1.000 F800.000 
G2 X87.598 Y16.812 Z-1.000 I0.204 J1.377 F800.000 
G1 X93.475 Y22.690 Z-1.000 F800.000 
G1 X93.442 Y23.717 Z-1.000 F800.000 
G1 X86.950 Y17.225 Z-1.000 F800.000 
G3 X86.176 Y17.511 Z-1.000 I-1.444 J-2.711 F800.000 
G1 X93.408 Y24.744 Z-1.000 F800.000 
G1 X93.375 Y25.771 Z-1.000 F800.000 
G1 X85.226 Y17.622 Z-1.000 F800.000 
G3 X83.799 Y17.256 Z-1.000 I-0.093 J-2.599 F800.000 
G1 X93.327 Y26.783 Z-1.000 F800.000 
G1 X93.241 Y27.758 Z-1.000 F800.000 
G1 X81.577 Y16.094 Z-1.000 F800.000 
G1 X81.485 Y16.103 Z-1.000 F800.000 
G1 X81.562 Y17.140 Z-1.000 F800.000 
G1 X93.155 Y28.734 Z-1.000 F800.000 
G1 X93.070 Y29.709 Z-1.000 F800.000 
G1 X81.647 Y18.286 Z-1.000 F800.000 
G1 X81.732 Y19.432 Z-1.000 F800.000 
G1 X92.984 Y30.684 Z-1.000 F800.000 
G1 X92.899 Y31.659 Z-1.000 F800.000 
G1 X81.817 Y20.578 Z-1.000 F800.000 
G1 X81.903 Y21.723 Z-1.000 F800.000 
G1 X92.813 Y32.634 Z-1.000 F800.000 
G1 X92.727 Y33.609 Z-1.000 F800.000 
G1 X81.988 Y22.869 Z-1.000 F800.000 
G1 X82.073 Y24.015 Z-1.000 F800.000 
G1 X92.642 Y34.584 Z-1.000 F800.000 
G1 X92.556 Y35.559 Z-1.000 F800.000 
G1 X82.158 Y25.161 Z-1.000 F800.000 
G1 X82.244 Y26.307 Z-1.000 F800.000 
G1 X92.471 Y36.534 Z-1.000 F800.000 
G1 X92.385 Y37.509 Z-1.000 F800.000 
G1 X82.329 Y27.453 Z-1.000 F800.000 
G1 X82.414 Y28.599 Z-1.000 F800.000 
G1 X92.283 Y38.467 Z-1.000 F800.000 
G1 X92.165 Y39.410 Z-1.000 F800.000 
G1 X82.499 Y29.745 Z-1.000 F800.000 
G1 X82.585 Y30.891 Z-1.000 F800.000 
G1 X92.047 Y40.353 Z-1.000 F800.000 
G1 X91.929 Y41.295 Z-1.000 F800.000 
G1 X82.670 Y32.037 Z-1.000 F800.000 
G1 X82.755 Y33.183 Z-1.000 F800.000 
G1 X91.811 Y42.238 Z-1.000 F800.000 
G1 X91.693 Y43.181 Z-1.000 F800.000 
G1 X82.840 Y34.328 Z-1.000 F800.000 
G1 X82.926 Y35.474 Z-1.000 F800.000 
G1 X91.575 Y44.123 Z-1.000 F800.000 
G1 X91.457 Y45.066 Z-1.000 F800.000 
G1 X83.011 Y36.620 Z-1.000 F800.000 
G1 X83.096 Y37.766 Z-1.000 F800.000 
G1 X91.338 Y46.009 Z-1.000 F800.000 
G1 X91.220 Y46.951 Z-1.000 F800.000 
G1 X83.179 Y38.910 Z-1.000 F800.000 
G1 X83.219 Y40.010 Z-1.000 F800.000 
G1 X91.102 Y47.894 Z-1.000 F800.000 
G1 X90.984 Y48.836 Z-1.000 F800.000 
G1 X83.258 Y41.110 Z-1.000 F800.000 
G1 X83.298 Y42.210 Z-1.000 F800.000 
G1 X90.866 Y49.779 Z-1.000 F800.000 
G1 X90.748 Y50.722 Z-1.000 F800.000 
G1 X83.337 Y43.310 Z-1.000 F800.000 
G1 X83.376 Y44.410 Z-1.000 F800.000 
G1 X90.630 Y51.664 Z-1.000 F800.000 
G1 X90.512 Y52.607 Z-1.000 F800.000 
G1 X83.416 Y45.510 Z-1.000 F800.000 
G1 X83.455 Y46.610 Z-1.000 F800.000 
G1 X90.394 Y53.550 Z-1.000 F800.000 
G1 X90.276 Y54.492 Z-1.000 F800.000 
G1 X83.494 Y47.710 Z-1.000 F800.000 
G1 X83.534 Y48.810 Z-1.000 F800.000 
G1 X90.139 Y55.415 Z-1.000 F800.000 
G1 X89.983 Y56.320 Z-1.000 F800.000 
G1 X83.573 Y49.910 Z-1.000 F800.000 
G1 X83.612 Y51.010 Z-1.000 F800.000 
G1 X89.827 Y57.225 Z-1.000 F800.000 
G1 X89.671 Y58.129 Z-1.000 F800.000 
G1 X83.652 Y52.110 Z-1.000 F800.000 
G1 X83.691 Y53.210 Z-1.000 F800.000 
G1 X89.514 Y59.034 Z-1.000 F800.000 
G1 X89.358 Y59.938 Z-1.000 F800.000 
G1 X83.731 Y54.310 Z-1.000 F800.000 
G1 X83.770 Y55.410 Z-1.000 F800.000 
G1 X89.202 Y60.843 Z-1.000 F800.000 
G1 X89.046 Y61.747 Z-1.000 F800.000 
G1 X83.809 Y56.511 Z-1.000 F800.000 
G1 X83.849 Y57.611 Z-1.000 F800.000 
G1 X88.890 Y62.652 Z-1.000 F800.000 
G1 X88.734 Y63.557 Z-1.000 F800.000 
G1 X83.888 Y58.711 Z-1.000 F800.000 
G1 X83.927 Y59.811 Z-1.000 F800.000 
G1 X88.578 Y64.461 Z-1.000 F800.000 
G1 X88.422 Y65.366 Z-1.000 F800.000 
G1 X83.967 Y60.911 Z-1.000 F800.000 
G3 X84.001 Y62.005 Z-1.000 I-16.942 J1.075 F800.000 
G1 X88.266 Y66.270 Z-1.000 F800.000 
G1 X88.110 Y67.175 Z-1.000 F800.000 
G1 X84.004 Y63.069 Z-1.000 F800.000 
G1 X84.007 Y64.132 Z-1.000 F800.000 
G1 X87.954 Y68.079 Z-1.000 F800.000 
G3 X87.791 Y68.977 Z-1.000 I-9.974 J-1.347 F800.000 
G1 X84.009 Y65.196 Z-1.000 F800.000 
G1 X84.012 Y66.260 Z-1.000 F800.000 
G1 X87.600 Y69.847 Z-1.000 F800.000 
G1 X87.409 Y70.716 Z-1.000 F800.000 
G1 X84.015 Y67.323 Z-1.000 F800.000 
G1 X84.018 Y68.387 Z-1.000 F800.000 
G1 X87.217 Y71.586 Z-1.000 F800.000 
G1 X87.024 Y72.454 Z-1.000 F800.000 
G1 X84.021 Y69.450 Z-1.000 F800.000 
G1 X84.024 Y70.514 Z-1.000 F800.000 
G1 X86.831 Y73.321 Z-1.000 F800.000 
G1 X86.638 Y74.189 Z-1.000 F800.000 
G1 X84.027 Y71.577 Z-1.000 F800.000 
G1 X84.030 Y72.641 Z-1.000 F800.000 
G1 X86.438 Y75.049 Z-1.000 F800.000 
G1 X86.236 Y75.907 Z-1.000 F800.000 
G1 X84.033 Y73.705 Z-1.000 F800.000 
G1 X84.036 Y74.768 Z-1.000 F800.000 
G1 X86.033 Y76.766 Z-1.000 F800.000 
G1 X85.831 Y77.624 Z-1.000 F800.000 
G1 X84.039 Y75.832 Z-1.000 F800.000 
G1 X84.041 Y76.895 Z-1.000 F800.000 
G1 X85.628 Y78.482 Z-1.000 F800.000 
G1 X85.426 Y79.340 Z-1.000 F800.000 
G1 X84.044 Y77.959 Z-1.000 F800.000 
G1 X84.047 Y79.022 Z-1.000 F800.000 
G1 X85.209 Y80.184 Z-1.000 F800.000 
G1 X84.991 Y81.026 Z-1.000 F800.000 
G1 X84.050 Y80.086 Z-1.000 F800.000 
G3 X84.047 Y81.143 Z-1.000 I-65.091 J0.315 F800.000 
G1 X84.772 Y81.868 Z-1.000 F800.000 
G3 X84.551 Y82.708 Z-1.000 I-61.247 J-15.643 F800.000 
G1 X84.041 Y82.198 Z-1.000 F800.000 
G1 X84.035 Y83.253 Z-1.000 F800.000 
G1 X84.327 Y83.545 Z-1.000 F800.000 
G3 X84.098 Y84.377 Z-1.000 I-12.054 J-2.872 F800.000 
G1 X84.028 Y84.608 Z-1.000 F800.000 
G1 X84.030 Y84.308 Z-1.000 F800.000 
G1 X84.098 Y84.377 Z-1.000 F800.000 
G1 X84.028 Y84.608 Z-1.000 F800.000 
G2 X84.051 Y80.359 Z-1.000 I-346.227 J-3.998 F800.000 
G2 X84.000 Y61.856 Z-1.000 I-2240.950 J-3.122 F800.000 
G2 X84.000 Y61.838 Z-1.000 I-0.750 J0.008 F800.000 
G1 X83.178 Y38.878 Z-1.000 F800.000 
G2 X83.177 Y38.849 Z-1.000 I-0.750 J0.027 F800.000 
G1 X81.485 Y16.103 Z-1.000 F800.000 
G3 X82.945 Y16.558 Z-1.000 I0.374 J1.372 F800.000 
G2 X85.360 Y17.620 Z-1.000 I2.284 J-1.919 F800.000 
G2 X87.749 Y16.695 Z-1.000 I-0.069 J-3.727 F800.000 
G3 X88.892 Y16.379 Z-1.000 I1.226 J2.214 F800.000 
G3 X89.880 Y16.772 Z-1.000 I0.013 J1.403 F800.000 
G2 X93.368 Y18.610 Z-1.000 I2.880 J-1.238 F800.000 
G2 X93.610 Y18.581 Z-1.000 I-0.439 J-4.750 F800.000 
G1 X93.351 Y26.510 Z-1.000 F800.000 
G1 X92.344 Y37.980 Z-1.000 F800.000 
G1 X90.219 Y54.954 Z-1.000 F800.000 
G1 X87.828 Y68.806 Z-1.000 F800.000 
G3 X84.638 Y82.383 Z-1.000 I-305.417 J-64.602 F800.000 
G3 X84.098 Y84.377 Z-1.000 I-28.893 J-6.750 F800.000 
G0 Z5.000 
G0 Z5.000 
G0 
G0 X103.616 Y20.929 
G0 X103.616 Y20.929 Z3.000 
G1 X103.616 Y20.929 Z-1.000 F400.000 
G3 X103.732 Y21.217 Z-1.000 I-0.459 J0.354 F800.000 
G2 X103.973 Y22.347 Z-1.000 I3.217 J-0.094 F800.000 
G1 X101.939 Y20.313 Z-1.000 F800.000 
G0 Z5.000 
G0 X105.340 Y23.714 Z5.000 
G0 X105.340 Y23.714 Z3.000 
G1 X105.340 Y23.714 Z-1.000 F400.000 
G2 X106.648 Y24.098 Z-1.000 I1.910 J-4.088 F800.000 
G1 X106.504 Y24.879 Z-1.000 F800.000 
G1 X105.340 Y23.714 Z-1.000 F800.000 
G3 X103.973 Y22.347 Z-1.000 I0.971 J-2.338 F800.000 
G1 X101.939 Y20.313 Z-1.000 F800.000 
G3 X101.071 Y20.506 Z-1.000 I-6.445 J-26.988 F800.000 
G1 X106.339 Y25.774 Z-1.000 F800.000 
G1 X106.174 Y26.670 Z-1.000 F800.000 
G1 X100.169 Y20.665 Z-1.000 F800.000 
G3 X98.843 Y20.400 Z-1.000 I-0.090 J-2.996 F800.000 
G1 X106.008 Y27.565 Z-1.000 F800.000 
G0 Z5.000 
G0 X97.137 Y18.694 Z5.000 
G0 X97.137 Y18.694 Z3.000 
G1 X97.137 Y18.694 Z-1.000 F400.000 
G3 X97.036 Y18.382 Z-1.000 I1.244 J-0.574 F800.000 
G2 X96.410 Y17.967 Z-1.000 I-0.892 J0.667 F800.000 
G1 X97.137 Y18.694 Z-1.000 F800.000 
G2 X98.120 Y20.015 Z-1.000 I2.982 J-1.192 F800.000 
G2 X98.843 Y20.400 Z-1.000 I3.049 J-4.858 F800.000 
G1 X106.008 Y27.565 Z-1.000 F800.000 
G1 X105.843 Y28.460 Z-1.000 F800.000 
G1 X95.819 Y18.436 Z-1.000 F800.000 
G1 X95.776 Y19.454 Z-1.000 F800.000 
G1 X105.678 Y29.356 Z-1.000 F800.000 
G1 X105.512 Y30.251 Z-1.000 F800.000 
G1 X95.734 Y20.472 Z-1.000 F800.000 
G1 X95.691 Y21.490 Z-1.000 F800.000 
G1 X105.347 Y31.146 Z-1.000 F800.000 
G1 X105.182 Y32.042 Z-1.000 F800.000 
G1 X95.649 Y22.509 Z-1.000 F800.000 
G1 X95.606 Y23.527 Z-1.000 F800.000 
G1 X105.016 Y32.937 Z-1.000 F800.000 
G3 X104.836 Y33.817 Z-1.000 I-9.046 J-1.399 F800.000 
G1 X95.564 Y24.545 Z-1.000 F800.000 
G1 X95.521 Y25.563 Z-1.000 F800.000 
G1 X104.633 Y34.675 Z-1.000 F800.000 
G1 X104.431 Y35.533 Z-1.000 F800.000 
G1 X95.479 Y26.581 Z-1.000 F800.000 
G3 X95.435 Y27.598 Z-1.000 I-13.893 J-0.095 F800.000 
G1 X104.228 Y36.392 Z-1.000 F800.000 
G1 X104.026 Y37.250 Z-1.000 F800.000 
G1 X95.354 Y28.578 Z-1.000 F800.000 
G1 X95.274 Y29.558 Z-1.000 F800.000 
G1 X103.824 Y38.108 Z-1.000 F800.000 
G1 X103.621 Y38.966 Z-1.000 F800.000 
G1 X95.193 Y30.538 Z-1.000 F800.000 
G1 X95.113 Y31.519 Z-1.000 F800.000 
G1 X103.419 Y39.824 Z-1.000 F800.000 
G1 X103.216 Y40.683 Z-1.000 F800.000 
G1 X95.032 Y32.498 Z-1.000 F800.000 
G1 X94.945 Y33.472 Z-1.000 F800.000 
G1 X103.014 Y41.541 Z-1.000 F800.000 
G1 X102.811 Y42.399 Z-1.000 F800.000 
G1 X94.859 Y34.446 Z-1.000 F800.000 
G2 X94.772 Y35.421 Z-1.000 I319.345 J28.824 F800.000 
G1 X102.601 Y43.250 Z-1.000 F800.000 
G1 X102.379 Y44.088 Z-1.000 F800.000 
G1 X94.687 Y36.396 Z-1.000 F800.000 
G2 X94.602 Y37.372 Z-1.000 I149.817 J13.532 F800.000 
G1 X102.156 Y44.926 Z-1.000 F800.000 
G1 X101.934 Y45.764 Z-1.000 F800.000 
G1 X94.519 Y38.350 Z-1.000 F800.000 
G3 X94.407 Y39.298 Z-1.000 I-13.485 J-1.115 F800.000 
G1 X101.711 Y46.602 Z-1.000 F800.000 
G1 X101.489 Y47.440 Z-1.000 F800.000 
G1 X94.292 Y40.244 Z-1.000 F800.000 
G1 X94.177 Y41.190 Z-1.000 F800.000 
G1 X101.266 Y48.278 Z-1.000 F800.000 
G1 X101.043 Y49.116 Z-1.000 F800.000 
G1 X94.062 Y42.135 Z-1.000 F800.000 
G1 X93.947 Y43.081 Z-1.000 F800.000 
G1 X100.821 Y49.954 Z-1.000 F800.000 
G1 X100.598 Y50.793 Z-1.000 F800.000 
G1 X93.832 Y44.026 Z-1.000 F800.000 
G1 X93.717 Y44.972 Z-1.000 F800.000 
G1 X100.376 Y51.631 Z-1.000 F800.000 
G1 X100.153 Y52.469 Z-1.000 F800.000 
G1 X93.602 Y45.918 Z-1.000 F800.000 
G1 X93.487 Y46.863 Z-1.000 F800.000 
G1 X99.931 Y53.307 Z-1.000 F800.000 
G2 X99.712 Y54.149 Z-1.000 I71.005 J18.897 F800.000 
G1 X93.372 Y47.809 Z-1.000 F800.000 
G1 X93.257 Y48.755 Z-1.000 F800.000 
G1 X99.493 Y54.991 Z-1.000 F800.000 
G1 X99.275 Y55.833 Z-1.000 F800.000 
G1 X93.142 Y49.700 Z-1.000 F800.000 
G1 X93.027 Y50.646 Z-1.000 F800.000 
G1 X99.057 Y56.676 Z-1.000 F800.000 
G1 X98.838 Y57.518 Z-1.000 F800.000 
G1 X92.912 Y51.592 Z-1.000 F800.000 
G3 X92.792 Y52.533 Z-1.000 I-12.422 J-1.100 F800.000 
G1 X98.620 Y58.360 Z-1.000 F800.000 
G3 X98.402 Y59.203 Z-1.000 I-2750.855 J-712.977 F800.000 
G1 X92.645 Y53.446 Z-1.000 F800.000 
G1 X92.497 Y54.359 Z-1.000 F800.000 
G1 X98.183 Y60.045 Z-1.000 F800.000 
G1 X97.965 Y60.887 Z-1.000 F800.000 
G1 X92.349 Y55.271 Z-1.000 F800.000 
G1 X92.202 Y56.184 Z-1.000 F800.000 
G1 X97.746 Y61.729 Z-1.000 F800.000 
G1 X97.528 Y62.571 Z-1.000 F800.000 
G1 X92.054 Y57.097 Z-1.000 F800.000 
G1 X91.906 Y58.010 Z-1.000 F800.000 
G1 X97.300 Y63.404 Z-1.000 F800.000 
G1 X97.052 Y64.217 Z-1.000 F800.000 
G1 X91.758 Y58.923 Z-1.000 F800.000 
G1 X91.611 Y59.836 Z-1.000 F800.000 
G1 X96.804 Y65.030 Z-1.000 F800.000 
G1 X96.557 Y65.843 Z-1.000 F800.000 
G1 X91.463 Y60.749 Z-1.000 F800.000 
G1 X91.315 Y61.662 Z-1.000 F800.000 
G1 X96.309 Y66.656 Z-1.000 F800.000 
G1 X96.061 Y67.468 Z-1.000 F800.000 
G1 X91.168 Y62.575 Z-1.000 F800.000 
G1 X91.020 Y63.488 Z-1.000 F800.000 
G1 X95.801 Y68.270 Z-1.000 F800.000 
G1 X95.518 Y69.047 Z-1.000 F800.000 
G1 X90.861 Y64.390 Z-1.000 F800.000 
G1 X90.683 Y65.273 Z-1.000 F800.000 
G1 X95.234 Y69.824 Z-1.000 F800.000 
G1 X94.950 Y70.600 Z-1.000 F800.000 
G1 X90.505 Y66.155 Z-1.000 F800.000 
G1 X90.327 Y67.038 Z-1.000 F800.000 
G1 X94.667 Y71.377 Z-1.000 F800.000 
G1 X94.383 Y72.154 Z-1.000 F800.000 
G1 X90.149 Y67.921 Z-1.000 F800.000 
G1 X89.972 Y68.804 Z-1.000 F800.000 
G1 X94.074 Y72.906 Z-1.000 F800.000 
G1 X93.758 Y73.650 Z-1.000 F800.000 
G1 X89.794 Y69.687 Z-1.000 F800.000 
G1 X89.616 Y70.569 Z-1.000 F800.000 
G1 X93.441 Y74.394 Z-1.000 F800.000 
G1 X93.124 Y75.139 Z-1.000 F800.000 
G1 X89.438 Y71.452 Z-1.000 F800.000 
G1 X89.260 Y72.335 Z-1.000 F800.000 
G1 X92.808 Y75.883 Z-1.000 F800.000 
G1 X92.491 Y76.627 Z-1.000 F800.000 
G1 X89.082 Y73.218 Z-1.000 F800.000 
G3 X88.897 Y74.093 Z-1.000 I-18.123 J-3.376 F800.000 
G1 X90.422 Y75.618 Z-1.000 F800.000 
G2 X89.997 Y76.254 Z-1.000 I0.790 J0.988 F800.000 
G1 X88.701 Y74.958 Z-1.000 F800.000 
G1 X88.504 Y75.822 Z-1.000 F800.000 
G1 X89.676 Y76.993 Z-1.000 F800.000 
G2 X89.369 Y77.747 Z-1.000 I76.950 J31.823 F800.000 
G1 X88.308 Y76.686 Z-1.000 F800.000 
G1 X88.112 Y77.551 Z-1.000 F800.000 
G1 X89.061 Y78.500 Z-1.000 F800.000 
G1 X88.748 Y79.247 Z-1.000 F800.000 
G1 X87.915 Y78.415 Z-1.000 F800.000 
G1 X87.719 Y79.279 Z-1.000 F800.000 
G1 X88.435 Y79.995 Z-1.000 F800.000 
G1 X88.122 Y80.743 Z-1.000 F800.000 
G1 X87.523 Y80.144 Z-1.000 F800.000 
G1 X87.326 Y81.008 Z-1.000 F800.000 
G1 X87.810 Y81.491 Z-1.000 F800.000 
G3 X87.472 Y82.214 Z-1.000 I-4.663 J-1.734 F800.000 
G1 X87.127 Y81.869 Z-1.000 F800.000 
G1 X86.905 Y82.708 Z-1.000 F800.000 
G1 X87.111 Y82.914 Z-1.000 F800.000 
G1 X86.750 Y83.614 Z-1.000 F800.000 
G1 X86.683 Y83.546 Z-1.000 F800.000 
G1 X86.575 Y83.952 Z-1.000 F800.000 
G1 X86.750 Y83.614 Z-1.000 F800.000 
G0 Z5.000 
G0 X91.515 Y76.711 Z5.000 
G0 X91.515 Y76.711 Z3.000 
G1 X91.515 Y76.711 Z-1.000 F400.000 
G1 X92.175 Y77.371 Z-1.000 F800.000 
G3 X91.839 Y78.096 Z-1.000 I-4.299 J-1.553 F800.000 
G1 X91.324 Y77.580 Z-1.000 F800.000 
G1 X91.076 Y78.394 Z-1.000 F800.000 
G1 X91.470 Y78.787 Z-1.000 F800.000 
G1 X91.101 Y79.479 Z-1.000 F800.000 
G1 X90.788 Y79.166 Z-1.000 F800.000 
G1 X90.496 Y79.934 Z-1.000 F800.000 
G1 X90.732 Y80.171 Z-1.000 F800.000 
G1 X90.364 Y80.863 Z-1.000 F800.000 
G1 X90.204 Y80.703 Z-1.000 F800.000 
G1 X89.912 Y81.472 Z-1.000 F800.000 
G1 X89.995 Y81.555 Z-1.000 F800.000 
G3 X89.639 Y82.128 Z-1.000 I-2.519 J-1.164 F800.000 
G2 X89.912 Y81.472 Z-1.000 I-6.620 J-3.130 F800.000 
G2 X91.056 Y78.457 Z-1.000 I-59.092 J-24.161 F800.000 
G2 X91.563 Y76.336 Z-1.000 I-7.940 J-3.016 F800.000 
G2 X90.131 Y75.950 Z-1.000 I-0.745 J-0.085 F800.000 
G2 X87.655 Y81.860 Z-1.000 I263.148 J113.687 F800.000 
G1 X86.575 Y83.952 Z-1.000 F800.000 
G2 X87.159 Y81.746 Z-1.000 I-41.404 J-12.128 F800.000 
G2 X88.975 Y73.750 Z-1.000 I-434.271 J-102.841 F800.000 
G2 X90.926 Y64.069 Z-1.000 I-788.408 J-163.882 F800.000 
G2 X90.929 Y64.047 Z-1.000 I-0.737 J-0.141 F800.000 
G2 X92.812 Y52.414 Z-1.000 I-1181.210 J-197.083 F800.000 
G2 X92.815 Y52.392 Z-1.000 I-0.742 J-0.112 F800.000 
G2 X94.512 Y38.441 Z-1.000 I-1509.198 J-190.656 F800.000 
G2 X95.439 Y27.537 Z-1.000 I-1386.057 J-123.376 F800.000 
G1 X95.845 Y17.808 Z-1.000 F800.000 
G3 X96.946 Y18.264 Z-1.000 I-0.208 J2.060 F800.000 
G3 X97.091 Y18.581 Z-1.000 I-1.135 J0.712 F800.000 
G2 X98.120 Y20.015 Z-1.000 I3.069 J-1.116 F800.000 
G2 X100.237 Y20.657 Z-1.000 I1.979 J-2.715 F800.000 
G2 X102.373 Y20.219 Z-1.000 I-6.851 J-38.849 F800.000 
G3 X103.652 Y20.977 Z-1.000 I-1.441 J3.889 F800.000 
G3 X103.732 Y21.217 Z-1.000 I-0.644 J0.350 F800.000 
G2 X105.274 Y23.690 Z-1.000 I2.665 J0.056 F800.000 
G2 X106.648 Y24.098 Z-1.000 I2.002 J-4.221 F800.000 
G1 X104.920 Y33.461 Z-1.000 F800.000 
G1 X102.682 Y42.945 Z-1.000 F800.000 
G2 X97.380 Y63.141 Z-1.000 I1711.743 J460.196 F800.000 
G1 X95.894 Y68.015 Z-1.000 F800.000 
G1 X94.316 Y72.339 Z-1.000 F800.000 
G1 X91.976 Y77.838 Z-1.000 F800.000 
G1 X89.846 Y81.833 Z-1.000 F800.000 
G1 X89.639 Y82.128 Z-1.000 F800.000 
G2 X89.912 Y81.472 Z-1.000 I-6.620 J-3.130 F800.000 
G0 Z5.000 
G0 Z5.000 
G0 
G0 X108.878 Y24.510 
G0 X108.878 Y24.510 Z3.000 
G1 X108.878 Y24.510 Z-1.000 F400.000 
G3 X109.516 Y25.301 Z-1.000 I-2.261 J2.473 F800.000 
G3 X109.947 Y26.639 Z-1.000 I-6.104 J2.706 F800.000 
G1 X108.594 Y25.286 Z-1.000 F800.000 
G1 X108.426 Y26.179 Z-1.000 F800.000 
G1 X111.095 Y28.848 Z-1.000 F800.000 
G2 X111.836 Y29.589 Z-1.000 I1.955 J-1.214 F800.000 
G1 X113.924 Y31.677 Z-1.000 F800.000 
G3 X113.926 Y32.060 Z-1.000 I-6.382 J0.231 F800.000 
G1 X113.774 Y32.587 Z-1.000 F800.000 
G1 X108.258 Y27.072 Z-1.000 F800.000 
G1 X108.090 Y27.964 Z-1.000 F800.000 
G1 X113.535 Y33.409 Z-1.000 F800.000 
G1 X113.297 Y34.232 Z-1.000 F800.000 
G1 X107.922 Y28.857 Z-1.000 F800.000 
G1 X107.754 Y29.750 Z-1.000 F800.000 
G1 X113.058 Y35.054 Z-1.000 F800.000 
G1 X112.820 Y35.876 Z-1.000 F800.000 
G1 X107.586 Y30.642 Z-1.000 F800.000 
G1 X107.418 Y31.535 Z-1.000 F800.000 
G1 X112.582 Y36.698 Z-1.000 F800.000 
G3 X112.317 Y37.495 Z-1.000 I-8.357 J-2.331 F800.000 
G1 X107.258 Y32.435 Z-1.000 F800.000 
G1 X107.114 Y33.352 Z-1.000 F800.000 
G1 X112.046 Y38.284 Z-1.000 F800.000 
G1 X111.776 Y39.074 Z-1.000 F800.000 
G1 X106.955 Y34.254 Z-1.000 F800.000 
G3 X106.780 Y35.139 Z-1.000 I-15.929 J-2.703 F800.000 
G1 X111.505 Y39.864 Z-1.000 F800.000 
G1 X111.234 Y40.654 Z-1.000 F800.000 
G1 X106.588 Y36.008 Z-1.000 F800.000 
G3 X106.395 Y36.876 Z-1.000 I-22.801 J-4.605 F800.000 
G1 X110.963 Y41.443 Z-1.000 F800.000 
G3 X110.688 Y42.229 Z-1.000 I-27.461 J-9.175 F800.000 
G1 X106.189 Y37.730 Z-1.000 F800.000 
G3 X105.976 Y38.578 Z-1.000 I-53.788 J-13.046 F800.000 
G1 X110.407 Y43.009 Z-1.000 F800.000 
G3 X110.122 Y43.785 Z-1.000 I-31.253 J-11.052 F800.000 
G1 X105.762 Y39.425 Z-1.000 F800.000 
G2 X105.547 Y40.270 Z-1.000 I322.066 J82.476 F800.000 
G1 X109.834 Y44.557 Z-1.000 F800.000 
G1 X109.545 Y45.329 Z-1.000 F800.000 
G1 X105.334 Y41.118 Z-1.000 F800.000 
G1 X105.125 Y41.970 Z-1.000 F800.000 
G1 X109.257 Y46.101 Z-1.000 F800.000 
G3 X108.968 Y46.873 Z-1.000 I-9.995 J-3.302 F800.000 
G1 X104.925 Y42.831 Z-1.000 F800.000 
G1 X104.731 Y43.697 Z-1.000 F800.000 
G1 X108.655 Y47.621 Z-1.000 F800.000 
G1 X108.342 Y48.368 Z-1.000 F800.000 
G1 X104.536 Y44.563 Z-1.000 F800.000 
G3 X104.329 Y45.416 Z-1.000 I-24.860 J-5.593 F800.000 
G1 X108.029 Y49.116 Z-1.000 F800.000 
G1 X107.716 Y49.864 Z-1.000 F800.000 
G1 X104.108 Y46.256 Z-1.000 F800.000 
G1 X103.887 Y47.095 Z-1.000 F800.000 
G1 X107.403 Y50.611 Z-1.000 F800.000 
G1 X107.090 Y51.359 Z-1.000 F800.000 
G1 X103.666 Y47.935 Z-1.000 F800.000 
G1 X103.444 Y48.774 Z-1.000 F800.000 
G1 X106.777 Y52.107 Z-1.000 F800.000 
G1 X106.464 Y52.854 Z-1.000 F800.000 
G1 X103.215 Y49.605 Z-1.000 F800.000 
G1 X102.984 Y50.435 Z-1.000 F800.000 
G1 X106.151 Y53.602 Z-1.000 F800.000 
G1 X105.838 Y54.349 Z-1.000 F800.000 
G1 X102.751 Y51.263 Z-1.000 F800.000 
G2 X102.519 Y52.091 Z-1.000 I573.353 J161.411 F800.000 
G1 X105.525 Y55.097 Z-1.000 F800.000 
G1 X105.212 Y55.845 Z-1.000 F800.000 
G1 X102.288 Y52.921 Z-1.000 F800.000 
G1 X102.061 Y53.755 Z-1.000 F800.000 
G1 X104.899 Y56.592 Z-1.000 F800.000 
G1 X104.585 Y57.340 Z-1.000 F800.000 
G1 X101.834 Y54.588 Z-1.000 F800.000 
G1 X101.607 Y55.422 Z-1.000 F800.000 
G1 X104.272 Y58.088 Z-1.000 F800.000 
G1 X103.959 Y58.835 Z-1.000 F800.000 
G1 X101.396 Y56.272 Z-1.000 F800.000 
G1 X101.187 Y57.124 Z-1.000 F800.000 
G1 X103.646 Y59.583 Z-1.000 F800.000 
G1 X103.333 Y60.330 Z-1.000 F800.000 
G1 X100.980 Y57.977 Z-1.000 F800.000 
G3 X100.773 Y58.831 Z-1.000 I-868.165 J-209.909 F800.000 
G1 X103.021 Y61.079 Z-1.000 F800.000 
G1 X102.709 Y61.828 Z-1.000 F800.000 
G1 X100.565 Y59.683 Z-1.000 F800.000 
G1 X100.354 Y60.533 Z-1.000 F800.000 
G1 X102.396 Y62.575 Z-1.000 F800.000 
G1 X102.082 Y63.322 Z-1.000 F800.000 
G1 X100.143 Y61.382 Z-1.000 F800.000 
G3 X99.925 Y62.225 Z-1.000 I-22.936 J-5.469 F800.000 
G1 X101.768 Y64.068 Z-1.000 F800.000 
G3 X101.451 Y64.812 Z-1.000 I-44.003 J-18.264 F800.000 
G1 X99.701 Y63.062 Z-1.000 F800.000 
G1 X99.476 Y63.898 Z-1.000 F800.000 
G1 X101.132 Y65.554 Z-1.000 F800.000 
G3 X100.806 Y66.289 Z-1.000 I-25.309 J-10.766 F800.000 
G1 X99.248 Y64.731 Z-1.000 F800.000 
G1 X99.002 Y65.545 Z-1.000 F800.000 
G1 X100.478 Y67.021 Z-1.000 F800.000 
G1 X100.149 Y67.753 Z-1.000 F800.000 
G1 X98.756 Y66.360 Z-1.000 F800.000 
G3 X98.506 Y67.170 Z-1.000 I-12.668 J-3.474 F800.000 
G1 X99.815 Y68.479 Z-1.000 F800.000 
G1 X99.469 Y69.194 Z-1.000 F800.000 
G1 X98.238 Y67.963 Z-1.000 F800.000 
G1 X97.969 Y68.755 Z-1.000 F800.000 
G1 X99.123 Y69.909 Z-1.000 F800.000 
G1 X98.777 Y70.623 Z-1.000 F800.000 
G1 X97.701 Y69.548 Z-1.000 F800.000 
G3 X97.427 Y70.334 Z-1.000 I-21.696 J-7.131 F800.000 
G1 X98.410 Y71.317 Z-1.000 F800.000 
G1 X98.034 Y72.002 Z-1.000 F800.000 
G1 X97.147 Y71.114 Z-1.000 F800.000 
G3 X96.857 Y71.885 Z-1.000 I-20.937 J-7.438 F800.000 
G1 X97.658 Y72.687 Z-1.000 F800.000 
G1 X97.283 Y73.372 Z-1.000 F800.000 
G1 X96.564 Y72.653 Z-1.000 F800.000 
G1 X96.272 Y73.422 Z-1.000 F800.000 
G1 X96.902 Y74.052 Z-1.000 F800.000 
G1 X96.511 Y74.721 Z-1.000 F800.000 
G1 X95.976 Y74.187 Z-1.000 F800.000 
G1 X95.671 Y74.942 Z-1.000 F800.000 
G1 X96.119 Y75.390 Z-1.000 F800.000 
G3 X95.724 Y76.056 Z-1.000 I-12.467 J-6.930 F800.000 
G1 X95.362 Y75.694 Z-1.000 F800.000 
G3 X95.044 Y76.436 Z-1.000 I-238.041 J-101.481 F800.000 
G1 X95.317 Y76.710 Z-1.000 F800.000 
G1 X94.910 Y77.363 Z-1.000 F800.000 
G1 X94.725 Y77.178 Z-1.000 F800.000 
G3 X94.403 Y77.916 Z-1.000 I-19.169 J-7.943 F800.000 
G1 X94.077 Y78.636 Z-1.000 F800.000 
G1 X94.494 Y78.008 Z-1.000 F800.000 
G1 X94.403 Y77.916 Z-1.000 F800.000 
G0 Z5.000 
G0 X113.164 Y30.429 Z5.000 
G0 X113.164 Y30.429 Z3.000 
G1 X113.164 Y30.429 Z-1.000 F400.000 
G3 X113.924 Y31.677 Z-1.000 I-0.477 J1.146 F800.000 
G2 X113.448 Y30.603 Z-1.000 I-1.251 J-0.088 F800.000 
G3 X111.620 Y29.443 Z-1.000 I17.228 J-29.174 F800.000 
G3 X110.238 Y27.590 Z-1.000 I6.529 J-6.313 F800.000 
G3 X110.167 Y27.442 Z-1.000 I0.637 J-0.397 F800.000 
G3 X109.742 Y25.883 Z-1.000 I21.124 J-6.600 F800.000 
G2 X109.516 Y25.301 Z-1.000 I-2.083 J0.474 F800.000 
G2 X108.761 Y24.401 Z-1.000 I-4.904 J3.347 F800.000 
G1 X107.306 Y32.130 Z-1.000 F800.000 
G3 X106.832 Y34.900 Z-1.000 I-43.361 J-5.996 F800.000 
G3 X105.049 Y42.280 Z-1.000 I-166.809 J-36.398 F800.000 
G3 X102.953 Y50.545 Z-1.000 I-114.977 J-24.755 F800.000 
G2 X100.843 Y58.543 Z-1.000 I210.819 J59.900 F800.000 
G3 X94.077 Y78.636 Z-1.000 I-101.542 J-23.009 F800.000 
G2 X97.016 Y73.858 Z-1.000 I-52.267 J-35.441 F800.000 
G2 X101.026 Y65.798 Z-1.000 I-59.975 J-34.872 F800.000 
G2 X108.975 Y46.857 Z-1.000 I-3331.367 J-1409.095 F800.000 
G2 X112.533 Y36.868 Z-1.000 I-209.568 J-80.268 F800.000 
G1 X113.926 Y32.060 Z-1.000 F800.000 
G2 X113.924 Y31.677 Z-1.000 I-6.384 J-0.152 F800.000 
G1 X111.836 Y29.589 Z-1.000 F800.000 
G2 X113.164 Y30.429 Z-1.000 I11.064 J-16.021 F800.000 
G0 Z5.000 
G0 Z5.000 
G0 
G0 X115.082 Y36.104 
G0 X115.082 Y36.104 Z3.000 
G1 X115.082 Y36.104 Z-1.000 F400.000 
G2 X115.627 Y37.112 Z-1.000 I5.012 J-2.056 F800.000 
G3 X115.858 Y37.463 Z-1.000 I-1.696 J1.367 F800.000 
G3 X115.961 Y38.043 Z-1.000 I-2.460 J0.736 F800.000 
G1 X114.830 Y36.912 Z-1.000 F800.000 
G3 X114.568 Y37.711 Z-1.000 I-24.526 J-7.616 F800.000 
G1 X115.845 Y38.988 Z-1.000 F800.000 
G3 X115.728 Y39.932 Z-1.000 I-234.021 J-28.587 F800.000 
G1 X114.304 Y38.508 Z-1.000 F800.000 
G3 X114.040 Y39.305 Z-1.000 I-69.878 J-22.735 F800.000 
G1 X115.617 Y40.882 Z-1.000 F800.000 
G2 X115.557 Y41.882 Z-1.000 I7.464 J0.950 F800.000 
G1 X113.773 Y40.098 Z-1.000 F800.000 
G2 X113.524 Y40.910 Z-1.000 I13.612 J4.620 F800.000 
G1 X115.681 Y43.067 Z-1.000 F800.000 
G2 X115.886 Y44.273 Z-1.000 I9.573 J-1.004 F800.000 
G2 X115.911 Y44.357 Z-1.000 I2.640 J-0.738 F800.000 
G1 X113.270 Y41.716 Z-1.000 F800.000 
G1 X112.995 Y42.503 Z-1.000 F800.000 
G1 X115.986 Y45.493 Z-1.000 F800.000 
G1 X115.912 Y45.770 Z-1.000 F800.000 
G1 X115.606 Y46.174 Z-1.000 F800.000 
G1 X112.714 Y43.282 Z-1.000 F800.000 
G2 X112.431 Y44.060 Z-1.000 I101.599 J37.421 F800.000 
G1 X115.206 Y46.835 Z-1.000 F800.000 
G1 X114.823 Y47.512 Z-1.000 F800.000 
G1 X112.147 Y44.836 Z-1.000 F800.000 
G1 X111.845 Y45.595 Z-1.000 F800.000 
G1 X114.466 Y48.216 Z-1.000 F800.000 
G1 X114.111 Y48.921 Z-1.000 F800.000 
G1 X111.543 Y46.353 Z-1.000 F800.000 
G1 X111.241 Y47.112 Z-1.000 F800.000 
G1 X113.755 Y49.626 Z-1.000 F800.000 
G1 X113.399 Y50.331 Z-1.000 F800.000 
G1 X110.936 Y47.868 Z-1.000 F800.000 
G1 X110.625 Y48.617 Z-1.000 F800.000 
G1 X113.043 Y51.035 Z-1.000 F800.000 
G2 X112.687 Y51.740 Z-1.000 I114.910 J58.427 F800.000 
G1 X110.313 Y49.366 Z-1.000 F800.000 
G1 X110.002 Y50.115 Z-1.000 F800.000 
G1 X112.333 Y52.447 Z-1.000 F800.000 
G3 X111.951 Y53.126 Z-1.000 I-7.182 J-3.595 F800.000 
G1 X109.688 Y50.862 Z-1.000 F800.000 
G3 X109.373 Y51.608 Z-1.000 I-423.025 J-178.401 F800.000 
G1 X111.570 Y53.805 Z-1.000 F800.000 
G1 X111.194 Y54.490 Z-1.000 F800.000 
G1 X109.057 Y52.353 Z-1.000 F800.000 
G2 X108.742 Y53.098 Z-1.000 I42.236 J18.304 F800.000 
G1 X110.804 Y55.160 Z-1.000 F800.000 
G2 X110.403 Y55.820 Z-1.000 I40.875 J25.235 F800.000 
G1 X108.431 Y53.848 Z-1.000 F800.000 
G1 X108.121 Y54.599 Z-1.000 F800.000 
G1 X109.994 Y56.471 Z-1.000 F800.000 
G1 X109.568 Y57.106 Z-1.000 F800.000 
G1 X107.811 Y55.349 Z-1.000 F800.000 
G1 X107.501 Y56.100 Z-1.000 F800.000 
G1 X109.142 Y57.741 Z-1.000 F800.000 
G2 X108.717 Y58.377 Z-1.000 I23.723 J16.356 F800.000 
G1 X107.190 Y56.850 Z-1.000 F800.000 
G1 X106.880 Y57.600 Z-1.000 F800.000 
G1 X108.311 Y59.031 Z-1.000 F800.000 
G1 X107.905 Y59.686 Z-1.000 F800.000 
G1 X106.570 Y58.351 Z-1.000 F800.000 
G1 X106.260 Y59.101 Z-1.000 F800.000 
G1 X107.500 Y60.341 Z-1.000 F800.000 
G2 X107.104 Y61.006 Z-1.000 I9.695 J6.221 F800.000 
G1 X105.949 Y59.852 Z-1.000 F800.000 
G2 X105.640 Y60.603 Z-1.000 I13.760 J6.113 F800.000 
G1 X106.717 Y61.680 Z-1.000 F800.000 
G1 X106.331 Y62.355 Z-1.000 F800.000 
G1 X105.347 Y61.370 Z-1.000 F800.000 
G3 X105.048 Y62.132 Z-1.000 I-12.349 J-4.406 F800.000 
G1 X105.946 Y63.030 Z-1.000 F800.000 
G1 X105.578 Y63.722 Z-1.000 F800.000 
G1 X104.734 Y62.879 Z-1.000 F800.000 
G3 X104.415 Y63.621 Z-1.000 I-27.271 J-11.295 F800.000 
G1 X105.209 Y64.415 Z-1.000 F800.000 
G1 X104.841 Y65.107 Z-1.000 F800.000 
G1 X104.092 Y64.359 Z-1.000 F800.000 
G2 X103.769 Y65.096 Z-1.000 I226.951 J99.862 F800.000 
G1 X104.463 Y65.790 Z-1.000 F800.000 
G1 X104.081 Y66.469 Z-1.000 F800.000 
G1 X103.453 Y65.840 Z-1.000 F800.000 
G3 X103.136 Y66.584 Z-1.000 I-125.042 J-52.720 F800.000 
G1 X103.695 Y67.143 Z-1.000 F800.000 
G1 X103.304 Y67.813 Z-1.000 F800.000 
G1 X102.818 Y67.327 Z-1.000 F800.000 
G3 X102.495 Y68.065 Z-1.000 I-10.793 J-4.288 F800.000 
G1 X102.909 Y68.478 Z-1.000 F800.000 
G1 X102.506 Y69.136 Z-1.000 F800.000 
G1 X102.156 Y68.786 Z-1.000 F800.000 
G3 X101.813 Y69.504 Z-1.000 I-25.900 J-11.897 F800.000 
G1 X102.103 Y69.793 Z-1.000 F800.000 
G3 X101.691 Y70.442 Z-1.000 I-12.618 J-7.546 F800.000 
G1 X101.465 Y70.216 Z-1.000 F800.000 
G2 X101.117 Y70.929 Z-1.000 I45.205 J22.513 F800.000 
G1 X101.273 Y71.085 Z-1.000 F800.000 
G3 X100.843 Y71.716 Z-1.000 I-11.194 J-7.175 F800.000 
G1 X100.492 Y72.224 Z-1.000 F800.000 
G1 X100.773 Y71.646 Z-1.000 F800.000 
G1 X100.843 Y71.716 Z-1.000 F800.000 
G1 X100.492 Y72.224 Z-1.000 F800.000 
G2 X104.290 Y63.910 Z-1.000 I-109.320 J-54.959 F800.000 
G2 X105.650 Y60.576 Z-1.000 I-44.201 J-19.982 F800.000 
G2 X111.016 Y47.676 Z-1.000 I-67710.034 J-28173.958 F800.000 
G2 X112.241 Y44.599 Z-1.000 I-75.782 J-31.942 F800.000 
G2 X113.749 Y40.169 Z-1.000 I-67.865 J-25.580 F800.000 
G2 X115.082 Y36.104 Z-1.000 I-108.888 J-37.944 F800.000 
G2 X115.627 Y37.112 Z-1.000 I5.012 J-2.056 F800.000 
G3 X115.858 Y37.463 Z-1.000 I-1.696 J1.367 F800.000 
G3 X115.895 Y38.583 Z-1.000 I-1.876 J0.623 F800.000 
G2 X115.557 Y41.894 Z-1.000 I28.225 J4.550 F800.000 
G2 X116.016 Y44.800 Z-1.000 I17.444 J-1.267 F800.000 
G3 X115.533 Y46.271 Z-1.000 I-1.645 J0.275 F800.000 
G2 X115.479 Y46.354 Z-1.000 I0.598 J0.452 F800.000 
G2 X114.805 Y47.546 Z-1.000 I16.414 J10.066 F800.000 
G3 X111.595 Y53.759 Z-1.000 I-112.893 J-54.392 F800.000 
G3 X108.706 Y58.393 Z-1.000 I-41.637 J-22.735 F800.000 
G2 X104.721 Y65.333 Z-1.000 I69.677 J44.632 F800.000 
G3 X100.843 Y71.716 Z-1.000 I-62.135 J-33.375 F800.000 
G0 Z5.000 
G0 Z5.000 
G0 
G0 X106.258 Y70.019 
G0 X106.258 Y70.019 Z3.000 
G1 X106.258 Y70.019 Z-1.000 F400.000 
G2 X106.468 Y69.790 Z-1.000 I-0.309 J-0.494 F800.000 
G2 X106.258 Y70.019 Z-1.000 I183.204 J167.999 F800.000 
G0 Z5.000 
G0 X106.468 Y69.790 Z5.000 
G0 X106.468 Y69.790 Z3.000 
G1 X106.468 Y69.790 Z-1.000 F400.000 
G2 X106.258 Y70.019 Z-1.000 I183.894 J168.631 F800.000 
G2 X106.468 Y69.790 Z-1.000 I-0.309 J-0.494 F800.000 
G0 Z5.000 
G0 Z5.000 
G0 
G0 X115.177 Y51.726 
G0 X115.177 Y51.726 Z3.000 
G1 X115.177 Y51.726 Z-1.000 F400.000 
G3 X115.149 Y51.977 Z-1.000 I-2.931 J-0.194 F800.000 
G2 X114.861 Y52.470 Z-1.000 I6.953 J4.398 F800.000 
G1 X114.824 Y52.433 Z-1.000 F800.000 
G3 X114.468 Y53.139 Z-1.000 I-23.617 J-11.451 F800.000 
G1 X114.523 Y53.193 Z-1.000 F800.000 
G2 X114.242 Y53.973 Z-1.000 I33.714 J12.577 F800.000 
G1 X114.106 Y53.837 Z-1.000 F800.000 
G3 X113.726 Y54.518 Z-1.000 I-7.762 J-3.886 F800.000 
G1 X114.001 Y54.792 Z-1.000 F800.000 
G3 X113.914 Y55.295 Z-1.000 I-8.277 J-1.167 F800.000 
G1 X113.907 Y55.759 Z-1.000 F800.000 
G1 X113.338 Y55.190 Z-1.000 F800.000 
G1 X112.949 Y55.862 Z-1.000 F800.000 
G1 X113.837 Y56.750 Z-1.000 F800.000 
G3 X113.673 Y57.646 Z-1.000 I-5.147 J-0.483 F800.000 
G1 X112.560 Y56.534 Z-1.000 F800.000 
G3 X112.168 Y57.203 Z-1.000 I-6.358 J-3.274 F800.000 
G1 X113.382 Y58.416 Z-1.000 F800.000 
G3 X112.985 Y59.079 Z-1.000 I-10.310 J-5.721 F800.000 
G1 X111.746 Y57.841 Z-1.000 F800.000 
G1 X111.324 Y58.480 Z-1.000 F800.000 
G1 X112.575 Y59.731 Z-1.000 F800.000 
G3 X112.100 Y60.316 Z-1.000 I-32.299 J-25.736 F800.000 
G1 X110.902 Y59.119 Z-1.000 F800.000 
G1 X110.480 Y59.757 Z-1.000 F800.000 
G1 X111.616 Y60.893 Z-1.000 F800.000 
G3 X111.122 Y61.460 Z-1.000 I-19.923 J-16.845 F800.000 
G1 X110.065 Y60.403 Z-1.000 F800.000 
G1 X109.667 Y61.065 Z-1.000 F800.000 
G1 X110.624 Y62.022 Z-1.000 F800.000 
G1 X110.114 Y62.572 Z-1.000 F800.000 
G1 X109.268 Y61.727 Z-1.000 F800.000 
G1 X108.869 Y62.389 Z-1.000 F800.000 
G1 X109.604 Y63.123 Z-1.000 F800.000 
G1 X109.093 Y63.674 Z-1.000 F800.000 
G1 X108.471 Y63.051 Z-1.000 F800.000 
G2 X108.078 Y63.718 Z-1.000 I3.927 J2.762 F800.000 
G1 X108.583 Y64.224 Z-1.000 F800.000 
G1 X108.073 Y64.775 Z-1.000 F800.000 
G1 X107.726 Y64.427 Z-1.000 F800.000 
G1 X107.374 Y65.136 Z-1.000 F800.000 
G1 X107.563 Y65.325 Z-1.000 F800.000 
G1 X107.053 Y65.876 Z-1.000 F800.000 
G1 X106.880 Y66.062 Z-1.000 F800.000 
G2 X108.119 Y63.635 Z-1.000 I-41.304 J-22.615 F800.000 
G3 X112.194 Y57.163 Z-1.000 I79.002 J45.230 F800.000 
G2 X112.218 Y57.126 Z-1.000 I-0.626 J-0.414 F800.000 
G2 X113.990 Y54.060 Z-1.000 I-65.673 J-40.023 F800.000 
G2 X115.177 Y51.726 Z-1.000 I-76.124 J-40.158 F800.000 
G3 X115.149 Y51.977 Z-1.000 I-2.931 J-0.194 F800.000 
G2 X114.061 Y54.536 Z-1.000 I7.839 J4.845 F800.000 
G2 X113.905 Y55.935 Z-1.000 I5.317 J1.303 F800.000 
G3 X113.481 Y58.216 Z-1.000 I-6.573 J-0.040 F800.000 
G2 X112.782 Y59.474 Z-1.000 I34.353 J19.927 F800.000 
G3 X110.642 Y62.003 Z-1.000 I-55.459 J-44.766 F800.000 
G1 X107.053 Y65.876 Z-1.000 F800.000 
G1 X106.880 Y66.062 Z-1.000 F800.000 
G1 X107.005 Y65.828 Z-1.000 F800.000 
G1 X107.053 Y65.876 Z-1.000 F800.000 
G0 Z5.000 
G0 Z5.000 
(finish operation: Pocket_Shape)
(begin operation: Pocket_Shape001)
(machine units: mm/min)
(Pocket_Shape001) 
G0 Z5.000 
G0 
G0 X217.568 Y16.767 
G0 X217.568 Y16.767 Z3.000 
G1 X217.568 Y16.767 Z-1.000 F400.000 
G2 X216.588 Y16.848 Z-1.000 I9.193 J117.628 F800.000 
G1 X216.119 Y16.379 Z-1.000 F800.000 
G0 Z5.000 
G0 X216.588 Y16.848 Z5.000 
G0 X216.588 Y16.848 Z3.000 
G1 X216.588 Y16.848 Z-1.000 F400.000 
G1 X216.119 Y16.379 Z-1.000 F800.000 
G2 X215.143 Y16.464 Z-1.000 I0.946 J16.531 F800.000 
G1 X215.621 Y16.941 Z-1.000 F800.000 
G2 X214.690 Y17.071 Z-1.000 I0.779 J9.040 F800.000 
G1 X214.195 Y16.576 Z-1.000 F800.000 
G3 X213.243 Y16.685 Z-1.000 I-5.927 J-47.288 F800.000 
G1 X213.883 Y17.325 Z-1.000 F800.000 
G2 X213.370 Y17.873 Z-1.000 I0.452 J0.936 F800.000 
G1 X212.269 Y16.772 Z-1.000 F800.000 
G3 X211.265 Y16.828 Z-1.000 I-1.009 J-8.946 F800.000 
G1 X212.968 Y18.531 Z-1.000 F800.000 
G3 X212.038 Y18.661 Z-1.000 I-0.808 J-2.383 F800.000 
G1 X210.404 Y17.027 Z-1.000 F800.000 
G2 X209.642 Y17.326 Z-1.000 I3.671 J10.480 F800.000 
G1 X210.951 Y18.635 Z-1.000 F800.000 
G2 X210.063 Y18.806 Z-1.000 I0.177 J3.311 F800.000 
G1 X208.902 Y17.647 Z-1.000 F800.000 
G2 X208.412 Y17.861 Z-1.000 I1.362 J3.802 F800.000 
G2 X208.421 Y18.227 Z-1.000 I2.145 J0.128 F800.000 
G1 X209.431 Y19.237 Z-1.000 F800.000 
G2 X209.258 Y19.576 Z-1.000 I0.526 J0.484 F800.000 
G1 X209.161 Y20.027 Z-1.000 F800.000 
G1 X208.397 Y19.264 Z-1.000 F800.000 
G3 X207.867 Y19.794 Z-1.000 I-0.684 J-0.154 F800.000 
G1 X208.973 Y20.899 Z-1.000 F800.000 
G2 X208.799 Y21.786 Z-1.000 I24.303 J5.219 F800.000 
G1 X208.128 Y21.116 Z-1.000 F800.000 
G3 X208.195 Y22.244 Z-1.000 I-3.912 J0.799 F800.000 
G1 X208.629 Y22.677 Z-1.000 F800.000 
G3 X208.459 Y23.568 Z-1.000 I-219.744 J-41.399 F800.000 
G1 X208.071 Y23.179 Z-1.000 F800.000 
G3 X207.910 Y24.080 Z-1.000 I-9.381 J-1.209 F800.000 
G1 X208.288 Y24.458 Z-1.000 F800.000 
G2 X208.125 Y25.355 Z-1.000 I14.440 J3.080 F800.000 
G1 X207.762 Y24.992 Z-1.000 F800.000 
G2 X207.632 Y25.923 Z-1.000 I21.078 J3.406 F800.000 
G1 X207.994 Y26.284 Z-1.000 F800.000 
G2 X207.883 Y27.234 Z-1.000 I11.286 J1.798 F800.000 
G1 X207.510 Y26.861 Z-1.000 F800.000 
G3 X207.389 Y27.801 Z-1.000 I-226.028 J-28.573 F800.000 
G1 X207.816 Y28.228 Z-1.000 F800.000 
G1 X207.792 Y29.264 Z-1.000 F800.000 
G1 X207.254 Y28.727 Z-1.000 F800.000 
G3 X207.072 Y29.605 Z-1.000 I-5.357 J-0.655 F800.000 
G1 X207.866 Y30.400 Z-1.000 F800.000 
G2 X208.177 Y31.179 Z-1.000 I2.080 J-0.379 F800.000 
G3 X208.171 Y31.765 Z-1.000 I-11.296 J0.171 F800.000 
G1 X206.835 Y30.429 Z-1.000 F800.000 
G2 X206.639 Y31.294 Z-1.000 I5.926 J1.793 F800.000 
G1 X208.028 Y32.683 Z-1.000 F800.000 
G2 X207.960 Y33.675 Z-1.000 I1.739 J0.618 F800.000 
G1 X206.564 Y32.280 Z-1.000 F800.000 
G2 X207.300 Y33.710 Z-1.000 I2.288 J-0.272 F800.000 
G3 X207.700 Y34.477 Z-1.000 I-2.186 J1.630 F800.000 
G1 X208.471 Y35.247 Z-1.000 F800.000 
G2 X209.230 Y36.361 Z-1.000 I4.893 J-2.517 F800.000 
G2 X209.733 Y36.561 Z-1.000 I0.596 J-0.767 F800.000 
G1 X209.810 Y36.586 Z-1.000 F800.000 
G1 X235.375 Y62.151 Z-1.000 F800.000 
G3 X235.522 Y63.359 Z-1.000 I-4.664 J1.183 F800.000 
G1 X208.068 Y35.905 Z-1.000 F800.000 
G3 X207.617 Y36.515 Z-1.000 I-0.706 J-0.050 F800.000 
G1 X235.558 Y64.455 Z-1.000 F800.000 
G1 X235.593 Y65.551 Z-1.000 F800.000 
G1 X206.790 Y36.749 Z-1.000 F800.000 
G3 X205.791 Y36.810 Z-1.000 I-0.644 J-2.314 F800.000 
G1 X235.628 Y66.647 Z-1.000 F800.000 
G0 Z5.000 
G0 X205.146 Y19.194 Z5.000 
G0 X205.146 Y19.194 Z3.000 
G1 X205.146 Y19.194 Z-1.000 F400.000 
G3 X205.015 Y18.640 Z-1.000 I11.871 J-3.091 F800.000 
G2 X204.656 Y18.704 Z-1.000 I0.171 J2.007 F800.000 
G1 X205.146 Y19.194 Z-1.000 F800.000 
G2 X205.275 Y19.657 Z-1.000 I14.786 J-3.881 F800.000 
G2 X204.886 Y19.995 Z-1.000 I0.889 J1.415 F800.000 
G1 X203.958 Y19.067 Z-1.000 F800.000 
G2 X203.770 Y19.250 Z-1.000 I0.495 J0.699 F800.000 
G1 X203.710 Y19.879 Z-1.000 F800.000 
G1 X204.462 Y20.631 Z-1.000 F800.000 
G2 X204.224 Y21.454 Z-1.000 I3.372 J1.421 F800.000 
G1 X203.684 Y20.914 Z-1.000 F800.000 
G3 X203.602 Y21.893 Z-1.000 I-3.378 J0.209 F800.000 
G1 X204.092 Y22.383 Z-1.000 F800.000 
G2 X204.009 Y23.360 Z-1.000 I9.254 J1.277 F800.000 
G1 X202.975 Y22.326 Z-1.000 F800.000 
G1 X202.925 Y22.322 Z-1.000 F800.000 
G3 X203.521 Y23.453 Z-1.000 I-13.487 J7.826 F800.000 
G3 X203.534 Y23.946 Z-1.000 I-1.845 J0.296 F800.000 
G1 X203.969 Y24.381 Z-1.000 F800.000 
G3 X203.938 Y25.411 Z-1.000 I-19.579 J-0.085 F800.000 
G1 X203.507 Y24.979 Z-1.000 F800.000 
G3 X203.482 Y26.015 Z-1.000 I-757.856 J-17.529 F800.000 
G1 X203.883 Y26.417 Z-1.000 F800.000 
G1 X203.782 Y27.376 Z-1.000 F800.000 
G1 X203.452 Y27.046 Z-1.000 F800.000 
G3 X203.415 Y28.070 Z-1.000 I-19.109 J-0.177 F800.000 
G1 X203.714 Y28.369 Z-1.000 F800.000 
G2 X203.675 Y29.390 Z-1.000 I15.926 J1.128 F800.000 
G1 X203.357 Y29.073 Z-1.000 F800.000 
G1 X203.300 Y30.076 Z-1.000 F800.000 
G1 X203.672 Y30.448 Z-1.000 F800.000 
G2 X203.733 Y31.570 Z-1.000 I12.303 J-0.113 F800.000 
G1 X203.211 Y31.048 Z-1.000 F800.000 
G3 X203.098 Y31.996 Z-1.000 I-13.740 J-1.155 F800.000 
G1 X203.995 Y32.892 Z-1.000 F800.000 
G2 X204.585 Y34.268 Z-1.000 I4.972 J-1.319 F800.000 
G3 X204.624 Y34.582 Z-1.000 I-0.607 J0.234 F800.000 
G1 X202.990 Y32.949 Z-1.000 F800.000 
G2 X202.957 Y33.976 Z-1.000 I7.012 J0.740 F800.000 
G1 X204.670 Y35.689 Z-1.000 F800.000 
G2 X205.685 Y36.780 Z-1.000 I2.541 J-1.346 F800.000 
G1 X205.791 Y36.810 Z-1.000 F800.000 
G1 X235.628 Y66.647 Z-1.000 F800.000 
G2 X235.668 Y67.747 Z-1.000 I7.213 J0.292 F800.000 
G1 X203.121 Y35.200 Z-1.000 F800.000 
G2 X203.513 Y35.824 Z-1.000 I2.727 J-1.279 F800.000 
G3 X204.102 Y36.286 Z-1.000 I-0.626 J1.404 F800.000 
G3 X204.004 Y37.144 Z-1.000 I-0.642 J0.362 F800.000 
G1 X236.161 Y69.301 Z-1.000 F800.000 
G2 X237.046 Y70.186 Z-1.000 I1.827 J-0.942 F800.000 
G1 X239.081 Y72.221 Z-1.000 F800.000 
G2 X238.585 Y72.785 Z-1.000 I3.971 J3.988 F800.000 
G1 X203.280 Y37.481 Z-1.000 F800.000 
G1 X202.473 Y37.734 Z-1.000 F800.000 
G1 X238.113 Y73.375 Z-1.000 F800.000 
G2 X237.916 Y74.238 Z-1.000 I0.619 J0.596 F800.000 
G1 X201.691 Y38.013 Z-1.000 F800.000 
G2 X200.918 Y38.301 Z-1.000 I17.387 J47.766 F800.000 
G1 X237.854 Y75.237 Z-1.000 F800.000 
G2 X237.952 Y75.962 Z-1.000 I3.601 J-0.115 F800.000 
G3 X237.995 Y76.439 Z-1.000 I-2.849 J0.501 F800.000 
G1 X200.145 Y38.589 Z-1.000 F800.000 
G1 X199.360 Y38.864 Z-1.000 F800.000 
G1 X237.872 Y77.376 Z-1.000 F800.000 
G3 X237.510 Y78.075 Z-1.000 I-1.225 J-0.190 F800.000 
G1 X198.578 Y39.143 Z-1.000 F800.000 
G3 X197.889 Y39.514 Z-1.000 I-53.350 J-98.195 F800.000 
G1 X237.049 Y78.674 Z-1.000 F800.000 
G3 X236.533 Y79.219 Z-1.000 I-4.813 J-4.033 F800.000 
G1 X197.201 Y39.887 Z-1.000 F800.000 
G2 X196.518 Y40.265 Z-1.000 I13.111 J24.449 F800.000 
G1 X236.017 Y79.763 Z-1.000 F800.000 
G3 X235.468 Y80.275 Z-1.000 I-3.821 J-3.549 F800.000 
G1 X195.846 Y40.653 Z-1.000 F800.000 
G3 X195.093 Y40.961 Z-1.000 I-1.062 J-1.525 F800.000 
G1 X234.835 Y80.703 Z-1.000 F800.000 
G2 X234.164 Y81.093 Z-1.000 I5.616 J10.412 F800.000 
G1 X194.276 Y41.204 Z-1.000 F800.000 
G2 X193.499 Y41.489 Z-1.000 I2.813 J8.875 F800.000 
G1 X233.498 Y81.487 Z-1.000 F800.000 
G3 X232.744 Y81.794 Z-1.000 I-2.178 J-4.266 F800.000 
G1 X192.740 Y41.790 Z-1.000 F800.000 
G2 X192.015 Y42.126 Z-1.000 I3.942 J9.471 F800.000 
G1 X231.943 Y82.054 Z-1.000 F800.000 
G3 X231.101 Y82.272 Z-1.000 I-2.485 J-7.875 F800.000 
G1 X191.305 Y42.477 Z-1.000 F800.000 
G2 X190.609 Y42.841 Z-1.000 I5.681 J11.703 F800.000 
G1 X219.016 Y71.247 Z-1.000 F800.000 
G3 X217.898 Y71.191 Z-1.000 I2.521 J-60.548 F800.000 
G1 X189.929 Y43.221 Z-1.000 F800.000 
G1 X189.303 Y43.656 Z-1.000 F800.000 
G1 X216.657 Y71.011 Z-1.000 F800.000 
G1 X216.536 Y70.991 Z-1.000 F800.000 
G1 X215.260 Y70.674 Z-1.000 F800.000 
G1 X188.677 Y44.091 Z-1.000 F800.000 
G3 X188.051 Y44.525 Z-1.000 I-1021.186 J-1470.811 F800.000 
G1 X213.849 Y70.324 Z-1.000 F800.000 
G3 X212.437 Y69.972 Z-1.000 I169.905 J-685.083 F800.000 
G1 X187.424 Y44.960 Z-1.000 F800.000 
G2 X186.802 Y45.398 Z-1.000 I31.624 J45.634 F800.000 
G1 X211.024 Y69.620 Z-1.000 F800.000 
G3 X209.601 Y69.258 Z-1.000 I9.075 J-38.620 F800.000 
G1 X186.181 Y45.838 Z-1.000 F800.000 
G1 X185.567 Y46.284 Z-1.000 F800.000 
G1 X208.150 Y68.867 Z-1.000 F800.000 
G1 X206.699 Y68.477 Z-1.000 F800.000 
G1 X184.959 Y46.737 Z-1.000 F800.000 
G1 X184.344 Y47.183 Z-1.000 F800.000 
G1 X205.245 Y68.083 Z-1.000 F800.000 
G3 X203.564 Y67.463 Z-1.000 I2.426 J-9.166 F800.000 
G1 X183.723 Y47.623 Z-1.000 F800.000 
G1 X183.084 Y48.044 Z-1.000 F800.000 
G1 X201.411 Y66.370 Z-1.000 F800.000 
G1 X198.718 Y64.738 Z-1.000 F800.000 
G1 X182.421 Y48.442 Z-1.000 F800.000 
G1 X181.705 Y48.786 Z-1.000 F800.000 
G1 X195.711 Y62.792 Z-1.000 F800.000 
G2 X193.572 Y61.714 Z-1.000 I-11.468 J20.090 F800.000 
G1 X180.977 Y49.119 Z-1.000 F800.000 
G1 X180.239 Y49.441 Z-1.000 F800.000 
G1 X191.011 Y60.213 Z-1.000 F800.000 
G2 X189.219 Y59.482 Z-1.000 I-6.238 J12.729 F800.000 
G1 X179.479 Y49.742 Z-1.000 F800.000 
G1 X178.686 Y50.010 Z-1.000 F800.000 
G1 X187.659 Y58.982 Z-1.000 F800.000 
G2 X186.222 Y58.606 Z-1.000 I-2.170 J5.355 F800.000 
G1 X177.862 Y50.246 Z-1.000 F800.000 
G3 X176.980 Y50.425 Z-1.000 I-1.854 J-6.890 F800.000 
G1 X184.919 Y58.364 Z-1.000 F800.000 
G3 X183.570 Y58.075 Z-1.000 I7.569 J-38.672 F800.000 
G1 X176.066 Y50.571 Z-1.000 F800.000 
G3 X175.130 Y50.697 Z-1.000 I-1.520 J-7.792 F800.000 
G1 X181.469 Y57.035 Z-1.000 F800.000 
G0 Z5.000 
G0 X221.154 Y40.505 Z5.000 
G0 X221.154 Y40.505 Z3.000 
G1 X221.154 Y40.505 Z-1.000 F400.000 
G3 X223.403 Y42.235 Z-1.000 I-38.959 J52.980 F800.000 
G1 X227.723 Y46.095 Z-1.000 F800.000 
G3 X228.894 Y47.479 Z-1.000 I-15.422 J14.238 F800.000 
G3 X231.015 Y50.366 Z-1.000 I-18.769 J16.009 F800.000 
G1 X221.154 Y40.505 Z-1.000 F800.000 
G2 X218.542 Y38.955 Z-1.000 I-10.070 J13.984 F800.000 
G1 X232.416 Y52.828 Z-1.000 F800.000 
G3 X233.189 Y54.465 Z-1.000 I-8.185 J4.866 F800.000 
G2 X233.393 Y54.866 Z-1.000 I3.724 J-1.644 F800.000 
G1 X216.554 Y38.027 Z-1.000 F800.000 
G2 X214.754 Y37.287 Z-1.000 I-3.961 J7.084 F800.000 
G1 X234.052 Y56.586 Z-1.000 F800.000 
G3 X234.462 Y58.056 Z-1.000 I-30.723 J9.354 F800.000 
G1 X213.369 Y36.964 Z-1.000 F800.000 
G2 X212.104 Y36.759 Z-1.000 I-3.593 J18.200 F800.000 
G1 X234.839 Y59.494 Z-1.000 F800.000 
G3 X235.161 Y60.876 Z-1.000 I-15.366 J4.301 F800.000 
G1 X210.955 Y36.671 Z-1.000 F800.000 
G3 X209.810 Y36.586 Z-1.000 I-0.378 J-2.683 F800.000 
G1 X235.375 Y62.151 Z-1.000 F800.000 
G0 Z5.000 
G0 X246.020 Y66.432 Z5.000 
G0 X246.020 Y66.432 Z3.000 
G1 X246.020 Y66.432 Z-1.000 F400.000 
G1 X246.450 Y65.976 Z-1.000 F800.000 
G1 X245.938 Y66.350 Z-1.000 F800.000 
G1 X246.020 Y66.432 Z-1.000 F800.000 
G3 X245.494 Y66.967 Z-1.000 I-4.521 J-3.911 F800.000 
G1 X245.299 Y66.772 Z-1.000 F800.000 
G1 X244.633 Y67.166 Z-1.000 F800.000 
G1 X244.946 Y67.479 Z-1.000 F800.000 
G3 X244.373 Y67.967 Z-1.000 I-4.231 J-4.385 F800.000 
G1 X243.971 Y67.565 Z-1.000 F800.000 
G2 X243.315 Y67.970 Z-1.000 I10.695 J18.083 F800.000 
G1 X243.792 Y68.446 Z-1.000 F800.000 
G3 X243.186 Y68.901 Z-1.000 I-5.045 J-6.086 F800.000 
G1 X242.666 Y68.381 Z-1.000 F800.000 
G3 X242.015 Y68.791 Z-1.000 I-3.998 J-5.640 F800.000 
G1 X242.575 Y69.351 Z-1.000 F800.000 
G2 X241.961 Y69.798 Z-1.000 I19.427 J27.306 F800.000 
G1 X241.330 Y69.167 Z-1.000 F800.000 
G3 X240.642 Y69.539 Z-1.000 I-18.594 J-33.547 F800.000 
G1 X241.356 Y70.253 Z-1.000 F800.000 
G1 X240.767 Y70.725 Z-1.000 F800.000 
G1 X239.931 Y69.889 Z-1.000 F800.000 
G3 X239.206 Y70.225 Z-1.000 I-2.955 J-5.431 F800.000 
G1 X240.179 Y71.198 Z-1.000 F800.000 
G2 X239.611 Y71.691 Z-1.000 I3.105 J4.146 F800.000 
G1 X238.430 Y70.509 Z-1.000 F800.000 
G3 X237.477 Y70.373 Z-1.000 I-0.365 J-0.845 F800.000 
G3 X237.046 Y70.186 Z-1.000 I1.466 J-3.966 F800.000 
G1 X239.081 Y72.221 Z-1.000 F800.000 
G0 Z5.000 
G0 X220.146 Y72.377 Z5.000 
G0 X220.146 Y72.377 Z3.000 
G1 X220.146 Y72.377 Z-1.000 F400.000 
G1 X230.128 Y82.360 Z-1.000 F800.000 
G3 X228.882 Y82.174 Z-1.000 I0.427 J-7.143 F800.000 
G3 X228.214 Y81.925 Z-1.000 I0.495 J-2.346 F800.000 
G3 X227.325 Y81.163 Z-1.000 I3.888 J-5.439 F800.000 
G2 X226.421 Y80.488 Z-1.000 I-5.543 J6.472 F800.000 
G2 X225.065 Y79.232 Z-1.000 I-27.769 J28.642 F800.000 
G3 X223.626 Y77.579 Z-1.000 I10.377 J-10.483 F800.000 
G1 X222.605 Y75.897 Z-1.000 F800.000 
G1 X228.882 Y82.174 Z-1.000 F800.000 
G0 Z5.000 
G0 X175.128 Y50.697 Z5.000 
G0 X175.128 Y50.697 Z3.000 
G1 X175.128 Y50.697 Z-1.000 F400.000 
G1 X175.130 Y50.697 Z-1.000 F800.000 
G1 X181.469 Y57.035 Z-1.000 F800.000 
G2 X180.103 Y56.730 Z-1.000 I-18.388 J79.006 F800.000 
G1 X174.593 Y51.221 Z-1.000 F800.000 
G3 X173.790 Y51.478 Z-1.000 I-0.905 J-1.441 F800.000 
G1 X178.739 Y56.427 Z-1.000 F800.000 
G3 X177.308 Y56.056 Z-1.000 I3.424 J-16.176 F800.000 
G1 X172.918 Y51.667 Z-1.000 F800.000 
G3 X172.052 Y51.861 Z-1.000 I-148.893 J-663.913 F800.000 
G1 X175.824 Y55.633 Z-1.000 F800.000 
G3 X175.252 Y55.458 Z-1.000 I2.142 J-8.012 F800.000 
G2 X174.581 Y54.665 Z-1.000 I-0.734 J-0.059 F800.000 
G3 X173.705 Y54.574 Z-1.000 I1.607 J-19.768 F800.000 
G1 X171.848 Y52.718 Z-1.000 F800.000 
G3 X171.097 Y53.027 Z-1.000 I-1.075 J-1.544 F800.000 
G1 X172.386 Y54.317 Z-1.000 F800.000 
G2 X171.053 Y54.044 Z-1.000 I-138.055 J671.179 F800.000 
G1 X170.302 Y53.293 Z-1.000 F800.000 
G3 X169.491 Y53.543 Z-1.000 I-4.260 J-12.387 F800.000 
G1 X169.700 Y53.752 Z-1.000 F800.000 
G3 X169.223 Y53.624 Z-1.000 I0.862 J-4.161 F800.000 
G2 X171.600 Y52.864 Z-1.000 I-19.470 J-64.975 F800.000 
G2 X172.051 Y51.861 Z-1.000 I-0.221 J-0.702 F800.000 
G3 X174.297 Y51.369 Z-1.000 I55.354 J247.273 F800.000 
G2 X174.878 Y50.743 Z-1.000 I-0.154 J-0.726 F800.000 
G2 X177.958 Y50.223 Z-1.000 I-4.901 J-38.439 F800.000 
G2 X182.688 Y48.306 Z-1.000 I-6.282 J-22.285 F800.000 
G2 X186.330 Y45.729 Z-1.000 I-43.879 J-65.898 F800.000 
G3 X189.987 Y43.181 Z-1.000 I417.516 J595.184 F800.000 
G3 X195.521 Y40.832 Z-1.000 I11.347 J19.040 F800.000 
G2 X196.292 Y40.392 Z-1.000 I-2.132 J-4.632 F800.000 
G3 X198.601 Y39.131 Z-1.000 I152.394 J276.254 F800.000 
G2 X202.375 Y37.765 Z-1.000 I-35.784 J-104.772 F800.000 
G3 X203.647 Y37.370 Z-1.000 I6.872 J19.904 F800.000 
G2 X203.622 Y35.898 Z-1.000 I-0.219 J-0.733 F800.000 
G3 X203.153 Y35.267 Z-1.000 I1.104 J-1.311 F800.000 
G2 X203.010 Y34.998 Z-1.000 I-2.223 J1.014 F800.000 
G3 X203.171 Y31.447 Z-1.000 I13.562 J-1.162 F800.000 
G2 X203.542 Y23.650 Z-1.000 I-88.328 J-8.102 F800.000 
G2 X203.449 Y23.268 Z-1.000 I-0.750 J-0.020 F800.000 
G2 X202.925 Y22.322 Z-1.000 I-26.796 J14.218 F800.000 
G2 X203.680 Y21.592 Z-1.000 I0.017 J-0.738 F800.000 
G3 X203.770 Y19.250 Z-1.000 I29.671 J-0.029 F800.000 
G3 X205.015 Y18.640 Z-1.000 I1.359 J1.200 F800.000 
G2 X205.275 Y19.657 Z-1.000 I12.538 J-2.663 F800.000 
G2 X204.254 Y21.271 Z-1.000 I1.486 J2.069 F800.000 
G2 X203.949 Y25.203 Z-1.000 I21.307 J3.636 F800.000 
G3 X203.772 Y27.473 Z-1.000 I-64.916 J-3.910 F800.000 
G2 X203.766 Y31.822 Z-1.000 I20.465 J2.201 F800.000 
G2 X203.919 Y32.396 Z-1.000 I2.097 J-0.251 F800.000 
G2 X204.465 Y34.015 Z-1.000 I3.537 J-0.291 F800.000 
G3 X204.616 Y34.762 Z-1.000 I-1.095 J0.610 F800.000 
G2 X204.591 Y35.370 Z-1.000 I31.917 J1.628 F800.000 
G2 X205.241 Y36.435 Z-1.000 I1.855 J-0.402 F800.000 
G2 X205.973 Y36.832 Z-1.000 I0.778 J-0.560 F800.000 
G2 X207.728 Y36.466 Z-1.000 I-0.076 J-4.758 F800.000 
G2 X208.052 Y35.655 Z-1.000 I-0.404 J-0.632 F800.000 
G2 X207.300 Y33.710 Z-1.000 I-4.704 J0.702 F800.000 
G2 X206.973 Y33.340 Z-1.000 I-4.316 J3.488 F800.000 
G3 X206.525 Y32.039 Z-1.000 I2.241 J-1.498 F800.000 
G3 X207.103 Y29.494 Z-1.000 I14.012 J1.844 F800.000 
G2 X207.737 Y25.150 Z-1.000 I-56.066 J-10.397 F800.000 
G2 X208.041 Y23.392 Z-1.000 I-66.262 J-12.363 F800.000 
G2 X208.133 Y21.140 Z-1.000 I-5.933 J-1.371 F800.000 
G2 X207.767 Y19.812 Z-1.000 I-19.474 J4.650 F800.000 
G2 X208.428 Y19.115 Z-1.000 I-0.076 J-0.734 F800.000 
G2 X208.416 Y17.859 Z-1.000 I-22.277 J-0.410 F800.000 
G3 X210.899 Y16.833 Z-1.000 I15.145 J33.166 F800.000 
G2 X215.155 Y16.462 Z-1.000 I-0.857 J-34.400 F800.000 
G3 X217.104 Y16.321 Z-1.000 I2.139 J15.966 F800.000 
G2 X217.568 Y16.767 Z-1.000 I0.680 J-0.243 F800.000 
G2 X214.481 Y17.114 Z-1.000 I1.499 J27.248 F800.000 
G2 X213.373 Y17.864 Z-1.000 I0.140 J1.400 F800.000 
G2 X213.279 Y18.398 Z-1.000 I2.612 J0.734 F800.000 
G3 X211.654 Y18.655 Z-1.000 I-1.267 J-2.748 F800.000 
G2 X209.704 Y18.988 Z-1.000 I-0.472 J3.120 F800.000 
G2 X209.258 Y19.576 Z-1.000 I0.516 J0.854 F800.000 
G2 X208.043 Y25.867 Z-1.000 I175.539 J37.152 F800.000 
G2 X207.811 Y30.017 Z-1.000 I21.689 J3.294 F800.000 
G2 X208.177 Y31.179 Z-1.000 I2.361 J-0.105 F800.000 
G3 X208.074 Y32.527 Z-1.000 I-4.928 J0.300 F800.000 
G2 X208.020 Y34.054 Z-1.000 I2.401 J0.848 F800.000 
G2 X209.230 Y36.361 Z-1.000 I5.363 J-1.341 F800.000 
G2 X209.733 Y36.561 Z-1.000 I0.596 J-0.767 F800.000 
G2 X211.226 Y36.647 Z-1.000 I0.916 J-2.888 F800.000 
G3 X215.701 Y37.613 Z-1.000 I-1.487 J17.741 F800.000 
G2 X218.221 Y38.793 Z-1.000 I16.017 J-30.922 F800.000 
G3 X223.403 Y42.235 Z-1.000 I-10.834 J21.934 F800.000 
G1 X227.723 Y46.095 Z-1.000 F800.000 
G3 X228.894 Y47.479 Z-1.000 I-15.422 J14.238 F800.000 
G3 X231.591 Y51.399 Z-1.000 I-16.190 J14.027 F800.000 
G3 X232.883 Y53.718 Z-1.000 I-111.073 J63.411 F800.000 
G2 X233.482 Y55.038 Z-1.000 I7.848 J-2.765 F800.000 
G3 X234.443 Y57.982 Z-1.000 I-17.330 J7.283 F800.000 
G3 X235.199 Y61.059 Z-1.000 I-110.596 J28.823 F800.000 
G1 X235.511 Y62.999 Z-1.000 F800.000 
G1 X235.661 Y67.671 Z-1.000 F800.000 
G2 X236.431 Y69.694 Z-1.000 I3.976 J-0.354 F800.000 
G2 X237.477 Y70.373 Z-1.000 I1.777 J-1.594 F800.000 
G2 X238.318 Y70.547 Z-1.000 I0.582 J-0.694 F800.000 
G2 X241.678 Y68.975 Z-1.000 I-6.621 J-18.533 F800.000 
G2 X243.514 Y67.844 Z-1.000 I-8.121 J-15.231 F800.000 
G2 X245.614 Y66.585 Z-1.000 I-33.152 J-57.709 F800.000 
G2 X246.450 Y65.976 Z-1.000 I-12.130 J-17.517 F800.000 
G3 X242.388 Y69.486 Z-1.000 I-17.654 J-16.324 F800.000 
G2 X239.269 Y72.017 Z-1.000 I17.989 J25.363 F800.000 
G2 X237.963 Y73.587 Z-1.000 I9.102 J8.895 F800.000 
G2 X237.925 Y74.399 Z-1.000 I1.445 J0.474 F800.000 
G2 X237.952 Y75.962 Z-1.000 I4.147 J0.712 F800.000 
G3 X237.788 Y77.669 Z-1.000 I-3.171 J0.557 F800.000 
G3 X236.400 Y79.358 Z-1.000 I-7.426 J-4.685 F800.000 
G3 X234.651 Y80.804 Z-1.000 I-4.423 J-3.570 F800.000 
G2 X233.483 Y81.495 Z-1.000 I14.749 J26.278 F800.000 
G3 X231.724 Y82.120 Z-1.000 I-7.942 J-19.557 F800.000 
G3 X229.092 Y82.221 Z-1.000 I-1.509 J-4.945 F800.000 
G3 X227.451 Y81.286 Z-1.000 I0.413 J-2.630 F800.000 
G2 X227.267 Y81.116 Z-1.000 I-1.016 J0.916 F800.000 
G3 X225.617 Y79.729 Z-1.000 I7.339 J-10.409 F800.000 
G2 X225.065 Y79.232 Z-1.000 I-3.397 J3.221 F800.000 
G3 X223.626 Y77.579 Z-1.000 I10.377 J-10.483 F800.000 
G1 X221.177 Y73.547 Z-1.000 F800.000 
G2 X220.614 Y72.928 Z-1.000 I-2.618 J1.818 F800.000 
G3 X219.340 Y71.398 Z-1.000 I194.396 J-163.209 F800.000 
G2 X218.884 Y71.230 Z-1.000 I-0.474 J0.581 F800.000 
G3 X216.536 Y70.991 Z-1.000 I-0.053 J-11.132 F800.000 
G3 X204.972 Y68.008 Z-1.000 I69.564 J-293.590 F800.000 
G3 X202.406 Y66.904 Z-1.000 I6.571 J-18.808 F800.000 
G2 X201.829 Y66.624 Z-1.000 I-78.264 J160.489 F800.000 
G1 X197.562 Y64.038 Z-1.000 F800.000 
G2 X195.431 Y62.635 Z-1.000 I-9.329 J11.850 F800.000 
G2 X193.307 Y61.588 Z-1.000 I-12.650 J22.978 F800.000 
G2 X189.733 Y59.647 Z-1.000 I-8.375 J11.161 F800.000 
G2 X186.837 Y58.720 Z-1.000 I-29.216 J86.269 F800.000 
G2 X186.764 Y58.703 Z-1.000 I-0.205 J0.722 F800.000 
G3 X182.834 Y57.907 Z-1.000 I9.438 J-56.682 F800.000 
G3 X182.277 Y57.451 Z-1.000 I2.326 J-3.411 F800.000 
G2 X181.809 Y57.114 Z-1.000 I-0.638 J0.394 F800.000 
G2 X178.174 Y56.297 Z-1.000 I-112.627 J492.220 F800.000 
G3 X175.252 Y55.458 Z-1.000 I14.722 J-56.799 F800.000 
G2 X174.581 Y54.665 Z-1.000 I-0.734 J-0.059 F800.000 
G3 X172.745 Y54.391 Z-1.000 I1.103 J-13.650 F800.000 
G3 X169.223 Y53.624 Z-1.000 I19.983 J-100.214 F800.000 
G1 X169.491 Y53.543 Z-1.000 F800.000 
G0 Z5.000 
G0 Z5.000 
(finish operation: Pocket_Shape001)
(begin postamble)
M05
G17 G54 G90 G80 G40
M2
