(Exported by FreeCAD)
(Post Processor: linuxcnc_post)
(Output Time:2026-05-01 10:54:20.128424)
(begin preamble)
G17 G54 G40 G49 G80 G90
G21
(begin operation: TC: Diamantverzahnt 1,5mm)
(machine units: mm/min)
(TC: Diamantverzahnt 1,5mm) 
M5
M6 T4 
G43 H4 
M3 S24000 
(finish operation: TC: Diamantverzahnt 1,5mm)
(begin operation: Fixture)
(machine units: mm/min)
G54 
(finish operation: Fixture)
(begin operation: Pocket_Shape)
(machine units: mm/min)
(Pocket_Shape) 
G0 Z5.000 
G0 
G0 X20.346 Y46.764 
G0 X20.346 Y46.764 Z3.000 
G1 X20.346 Y46.764 Z-1.500 F400.000 
G1 X22.835 Y50.313 Z-1.500 F800.000 
G1 X19.977 Y47.455 Z-1.500 F800.000 
G1 X19.607 Y48.146 Z-1.500 F800.000 
G1 X25.267 Y53.806 Z-1.500 F800.000 
G1 X27.548 Y57.147 Z-1.500 F800.000 
G1 X19.437 Y49.036 Z-1.500 F800.000 
G1 X19.350 Y49.971 Z-1.500 F800.000 
G3 X19.376 Y50.036 Z-1.500 I-1.040 J0.453 F800.000 
G1 X29.829 Y60.489 Z-1.500 F800.000 
G1 X31.352 Y62.720 Z-1.500 F800.000 
G2 X31.932 Y63.653 Z-1.500 I57.395 J-35.061 F800.000 
G1 X20.577 Y52.298 Z-1.500 F800.000 
G3 X20.904 Y53.233 Z-1.500 I-4.888 J2.236 F800.000 
G3 X20.957 Y53.739 Z-1.500 I-4.013 J0.675 F800.000 
G1 X33.986 Y66.767 Z-1.500 F800.000 
G2 X35.151 Y68.354 Z-1.500 I24.948 J-17.101 F800.000 
G1 X35.408 Y68.775 Z-1.500 F800.000 
G2 X33.464 Y67.307 Z-1.500 I-14.432 J17.088 F800.000 
G1 X21.066 Y54.908 Z-1.500 F800.000 
G1 X21.174 Y56.077 Z-1.500 F800.000 
G1 X30.532 Y65.435 Z-1.500 F800.000 
G2 X29.248 Y64.681 Z-1.500 I-6.437 J9.488 F800.000 
G2 X28.322 Y64.286 Z-1.500 I-12.580 J28.192 F800.000 
G1 X27.470 Y63.922 Z-1.500 F800.000 
G2 X26.590 Y62.962 Z-1.500 I-17.523 J15.175 F800.000 
G2 X26.493 Y62.882 Z-1.500 I-0.524 J0.536 F800.000 
G1 X25.575 Y62.247 Z-1.500 F800.000 
G2 X24.716 Y61.049 Z-1.500 I-20.774 J13.985 F800.000 
G2 X24.624 Y60.954 Z-1.500 I-0.583 J0.472 F800.000 
G3 X22.220 Y58.748 Z-1.500 I14.899 J-18.653 F800.000 
G3 X21.631 Y58.037 Z-1.500 I3.138 J-3.198 F800.000 
G2 X21.282 Y57.244 Z-1.500 I-34.538 J14.709 F800.000 
G1 X20.919 Y53.325 Z-1.500 F800.000 
G2 X20.878 Y53.143 Z-1.500 I-0.747 J0.069 F800.000 
G2 X20.343 Y51.655 Z-1.500 I-13.746 J4.109 F800.000 
G2 X19.839 Y51.092 Z-1.500 I-1.555 J0.884 F800.000 
G3 X19.463 Y50.266 Z-1.500 I2.337 J-1.562 F800.000 
G2 X19.350 Y49.971 Z-1.500 I-4.533 J1.572 F800.000 
G1 X19.500 Y48.346 Z-1.500 F800.000 
G1 X20.346 Y46.764 Z-1.500 F800.000 
G3 X31.352 Y62.720 Z-1.500 I-629.935 J446.263 F800.000 
G2 X35.151 Y68.354 Z-1.500 I52.521 J-31.320 F800.000 
G1 X35.408 Y68.775 Z-1.500 F800.000 
G2 X34.740 Y68.233 Z-1.500 I-6.955 J7.890 F800.000 
G2 X32.446 Y66.568 Z-1.500 I-71.694 J96.370 F800.000 
G2 X32.401 Y66.539 Z-1.500 I-0.426 J0.617 F800.000 
G2 X29.292 Y64.703 Z-1.500 I-57.821 J94.371 F800.000 
G2 X28.322 Y64.286 Z-1.500 I-3.698 J7.257 F800.000 
G1 X21.284 Y57.247 Z-1.500 F800.000 
G2 X21.742 Y58.224 Z-1.500 I22.056 J-9.753 F800.000 
G2 X23.167 Y59.690 Z-1.500 I15.610 J-13.744 F800.000 
G3 X24.657 Y60.984 Z-1.500 I-21.241 J25.966 F800.000 
G3 X24.743 Y61.085 Z-1.500 I-0.524 J0.537 F800.000 
G1 X25.575 Y62.247 Z-1.500 F800.000 
G3 X26.559 Y62.934 Z-1.500 I-3.624 J6.245 F800.000 
G3 X27.470 Y63.922 Z-1.500 I-8.334 J8.591 F800.000 
G1 X28.322 Y64.286 Z-1.500 F800.000 
G0 Z5.000 
G0 X20.346 Y46.764 Z5.000 
G0 X20.346 Y46.764 Z3.000 
G1 X20.346 Y46.764 Z-2.000 F400.000 
G1 X22.835 Y50.313 Z-2.000 F800.000 
G1 X19.977 Y47.455 Z-2.000 F800.000 
G1 X19.607 Y48.146 Z-2.000 F800.000 
G1 X25.267 Y53.806 Z-2.000 F800.000 
G1 X27.548 Y57.147 Z-2.000 F800.000 
G1 X19.437 Y49.036 Z-2.000 F800.000 
G1 X19.350 Y49.971 Z-2.000 F800.000 
G3 X19.376 Y50.036 Z-2.000 I-1.040 J0.453 F800.000 
G1 X29.829 Y60.489 Z-2.000 F800.000 
G1 X31.352 Y62.720 Z-2.000 F800.000 
G2 X31.932 Y63.653 Z-2.000 I57.395 J-35.061 F800.000 
G1 X20.577 Y52.298 Z-2.000 F800.000 
G3 X20.904 Y53.233 Z-2.000 I-4.888 J2.236 F800.000 
G3 X20.957 Y53.739 Z-2.000 I-4.013 J0.675 F800.000 
G1 X33.986 Y66.767 Z-2.000 F800.000 
G2 X35.151 Y68.354 Z-2.000 I24.948 J-17.101 F800.000 
G1 X35.408 Y68.775 Z-2.000 F800.000 
G2 X33.464 Y67.307 Z-2.000 I-14.432 J17.088 F800.000 
G1 X21.066 Y54.908 Z-2.000 F800.000 
G1 X21.174 Y56.077 Z-2.000 F800.000 
G1 X30.532 Y65.435 Z-2.000 F800.000 
G2 X29.248 Y64.681 Z-2.000 I-6.437 J9.488 F800.000 
G2 X28.322 Y64.286 Z-2.000 I-12.580 J28.192 F800.000 
G1 X27.470 Y63.922 Z-2.000 F800.000 
G2 X26.590 Y62.962 Z-2.000 I-17.523 J15.175 F800.000 
G2 X26.493 Y62.882 Z-2.000 I-0.524 J0.536 F800.000 
G1 X25.575 Y62.247 Z-2.000 F800.000 
G2 X24.716 Y61.049 Z-2.000 I-20.774 J13.985 F800.000 
G2 X24.624 Y60.954 Z-2.000 I-0.583 J0.472 F800.000 
G3 X22.220 Y58.748 Z-2.000 I14.899 J-18.653 F800.000 
G3 X21.631 Y58.037 Z-2.000 I3.138 J-3.198 F800.000 
G2 X21.282 Y57.244 Z-2.000 I-34.538 J14.709 F800.000 
G1 X20.919 Y53.325 Z-2.000 F800.000 
G2 X20.878 Y53.143 Z-2.000 I-0.747 J0.069 F800.000 
G2 X20.343 Y51.655 Z-2.000 I-13.746 J4.109 F800.000 
G2 X19.839 Y51.092 Z-2.000 I-1.555 J0.884 F800.000 
G3 X19.463 Y50.266 Z-2.000 I2.337 J-1.562 F800.000 
G2 X19.350 Y49.971 Z-2.000 I-4.533 J1.572 F800.000 
G1 X19.500 Y48.346 Z-2.000 F800.000 
G1 X20.346 Y46.764 Z-2.000 F800.000 
G3 X31.352 Y62.720 Z-2.000 I-629.935 J446.263 F800.000 
G2 X35.151 Y68.354 Z-2.000 I52.521 J-31.320 F800.000 
G1 X35.408 Y68.775 Z-2.000 F800.000 
G2 X34.740 Y68.233 Z-2.000 I-6.955 J7.890 F800.000 
G2 X32.446 Y66.568 Z-2.000 I-71.694 J96.370 F800.000 
G2 X32.401 Y66.539 Z-2.000 I-0.426 J0.617 F800.000 
G2 X29.292 Y64.703 Z-2.000 I-57.821 J94.371 F800.000 
G2 X28.322 Y64.286 Z-2.000 I-3.698 J7.257 F800.000 
G1 X21.284 Y57.247 Z-2.000 F800.000 
G2 X21.742 Y58.224 Z-2.000 I22.056 J-9.753 F800.000 
G2 X23.167 Y59.690 Z-2.000 I15.610 J-13.744 F800.000 
G3 X24.657 Y60.984 Z-2.000 I-21.241 J25.966 F800.000 
G3 X24.743 Y61.085 Z-2.000 I-0.524 J0.537 F800.000 
G1 X25.575 Y62.247 Z-2.000 F800.000 
G3 X26.559 Y62.934 Z-2.000 I-3.624 J6.245 F800.000 
G3 X27.470 Y63.922 Z-2.000 I-8.334 J8.591 F800.000 
G1 X28.322 Y64.286 Z-2.000 F800.000 
G0 Z5.000 
G0 Z5.000 
G0 
G0 X33.935 Y70.474 
G0 X33.935 Y70.474 Z3.000 
G1 X33.935 Y70.474 Z-1.500 F400.000 
G1 X34.046 Y70.524 Z-1.500 F800.000 
G1 X33.174 Y69.805 Z-1.500 F800.000 
G1 X33.024 Y69.705 Z-1.500 F800.000 
G2 X33.935 Y70.474 Z-1.500 I3.025 J-2.660 F800.000 
G1 X34.046 Y70.524 Z-1.500 F800.000 
G1 X33.174 Y69.805 Z-1.500 F800.000 
G1 X33.024 Y69.705 Z-1.500 F800.000 
G2 X33.935 Y70.474 Z-1.500 I3.025 J-2.660 F800.000 
G1 X33.935 Y70.474 Z-2.000 F400.000 
G1 X34.046 Y70.524 Z-2.000 F800.000 
G1 X33.174 Y69.805 Z-2.000 F800.000 
G1 X33.024 Y69.705 Z-2.000 F800.000 
G2 X33.935 Y70.474 Z-2.000 I3.025 J-2.660 F800.000 
G1 X34.046 Y70.524 Z-2.000 F800.000 
G1 X33.174 Y69.805 Z-2.000 F800.000 
G1 X33.024 Y69.705 Z-2.000 F800.000 
G2 X33.935 Y70.474 Z-2.000 I3.025 J-2.660 F800.000 
G0 Z5.000 
G0 Z5.000 
G0 
G0 X22.059 Y37.864 
G0 X22.059 Y37.864 Z3.000 
G1 X22.059 Y37.864 Z-1.500 F400.000 
G3 X23.541 Y40.407 Z-1.500 I-35.740 J22.537 F800.000 
G1 X21.755 Y38.621 Z-1.500 F800.000 
G3 X21.321 Y39.247 Z-1.500 I-1.150 J-0.335 F800.000 
G1 X24.808 Y42.734 Z-1.500 F800.000 
G1 X26.075 Y45.062 Z-1.500 F800.000 
G1 X20.694 Y39.681 Z-1.500 F800.000 
G2 X20.181 Y40.228 Z-1.500 I0.740 J1.208 F800.000 
G1 X27.277 Y47.325 Z-1.500 F800.000 
G1 X28.380 Y49.488 Z-1.500 F800.000 
G1 X19.869 Y40.978 Z-1.500 F800.000 
G2 X19.781 Y41.950 Z-1.500 I3.980 J0.853 F800.000 
G1 X29.483 Y51.652 Z-1.500 F800.000 
G3 X30.566 Y53.796 Z-1.500 I-114.836 J59.374 F800.000 
G1 X21.751 Y44.980 Z-1.500 F800.000 
G3 X24.329 Y48.620 Z-1.500 I-70.194 J52.470 F800.000 
G1 X31.619 Y55.909 Z-1.500 F800.000 
G3 X32.669 Y58.020 Z-1.500 I-210.126 J105.847 F800.000 
G1 X26.775 Y52.126 Z-1.500 F800.000 
G1 X29.221 Y55.633 Z-1.500 F800.000 
G1 X33.696 Y60.107 Z-1.500 F800.000 
G3 X34.721 Y62.194 Z-1.500 I-882.883 J435.336 F800.000 
G1 X31.329 Y58.801 Z-1.500 F800.000 
G1 X33.357 Y61.890 Z-1.500 F800.000 
G1 X35.742 Y64.275 Z-1.500 F800.000 
G1 X36.763 Y66.356 Z-1.500 F800.000 
G1 X35.386 Y64.979 Z-1.500 F800.000 
G1 X37.414 Y68.068 Z-1.500 F800.000 
G2 X29.693 Y56.309 Z-1.500 I-1686.924 J1099.261 F800.000 
G2 X29.684 Y56.296 Z-1.500 I-0.624 J0.416 F800.000 
G2 X22.520 Y46.025 Z-1.500 I-1814.639 J1258.101 F800.000 
G2 X20.742 Y43.607 Z-1.500 I-362.270 J264.446 F800.000 
G3 X19.782 Y42.071 Z-1.500 I10.917 J-7.894 F800.000 
G3 X20.069 Y40.432 Z-1.500 I2.980 J-0.322 F800.000 
G3 X21.042 Y39.447 Z-1.500 I1.802 J0.806 F800.000 
G2 X21.828 Y38.437 Z-1.500 I-0.723 J-1.375 F800.000 
G2 X22.059 Y37.864 Z-1.500 I-37.393 J-15.327 F800.000 
G1 X23.317 Y39.996 Z-1.500 F800.000 
G1 X26.843 Y46.474 Z-1.500 F800.000 
G3 X36.889 Y66.615 Z-1.500 I-1135.911 J579.159 F800.000 
G2 X38.217 Y69.272 Z-1.500 I719.503 J-357.829 F800.000 
G3 X37.414 Y68.068 Z-1.500 I69.567 J-47.287 F800.000 
G1 X37.817 Y68.471 Z-1.500 F800.000 
G1 X38.217 Y69.272 Z-1.500 F800.000 
G3 X37.414 Y68.068 Z-1.500 I69.567 J-47.287 F800.000 
G0 Z5.000 
G0 X22.059 Y37.864 Z5.000 
G0 X22.059 Y37.864 Z3.000 
G1 X22.059 Y37.864 Z-2.000 F400.000 
G3 X23.541 Y40.407 Z-2.000 I-35.740 J22.537 F800.000 
G1 X21.755 Y38.621 Z-2.000 F800.000 
G3 X21.321 Y39.247 Z-2.000 I-1.150 J-0.335 F800.000 
G1 X24.808 Y42.734 Z-2.000 F800.000 
G1 X26.075 Y45.062 Z-2.000 F800.000 
G1 X20.694 Y39.681 Z-2.000 F800.000 
G2 X20.181 Y40.228 Z-2.000 I0.740 J1.208 F800.000 
G1 X27.277 Y47.325 Z-2.000 F800.000 
G1 X28.380 Y49.488 Z-2.000 F800.000 
G1 X19.869 Y40.978 Z-2.000 F800.000 
G2 X19.781 Y41.950 Z-2.000 I3.980 J0.853 F800.000 
G1 X29.483 Y51.652 Z-2.000 F800.000 
G3 X30.566 Y53.796 Z-2.000 I-114.836 J59.374 F800.000 
G1 X21.751 Y44.980 Z-2.000 F800.000 
G3 X24.329 Y48.620 Z-2.000 I-70.194 J52.470 F800.000 
G1 X31.619 Y55.909 Z-2.000 F800.000 
G3 X32.669 Y58.020 Z-2.000 I-210.126 J105.847 F800.000 
G1 X26.775 Y52.126 Z-2.000 F800.000 
G1 X29.221 Y55.633 Z-2.000 F800.000 
G1 X33.696 Y60.107 Z-2.000 F800.000 
G3 X34.721 Y62.194 Z-2.000 I-882.883 J435.336 F800.000 
G1 X31.329 Y58.801 Z-2.000 F800.000 
G1 X33.357 Y61.890 Z-2.000 F800.000 
G1 X35.742 Y64.275 Z-2.000 F800.000 
G1 X36.763 Y66.356 Z-2.000 F800.000 
G1 X35.386 Y64.979 Z-2.000 F800.000 
G1 X37.414 Y68.068 Z-2.000 F800.000 
G2 X29.693 Y56.309 Z-2.000 I-1686.924 J1099.261 F800.000 
G2 X29.684 Y56.296 Z-2.000 I-0.624 J0.416 F800.000 
G2 X22.520 Y46.025 Z-2.000 I-1814.639 J1258.101 F800.000 
G2 X20.742 Y43.607 Z-2.000 I-362.270 J264.446 F800.000 
G3 X19.782 Y42.071 Z-2.000 I10.917 J-7.894 F800.000 
G3 X20.069 Y40.432 Z-2.000 I2.980 J-0.322 F800.000 
G3 X21.042 Y39.447 Z-2.000 I1.802 J0.806 F800.000 
G2 X21.828 Y38.437 Z-2.000 I-0.723 J-1.375 F800.000 
G2 X22.059 Y37.864 Z-2.000 I-37.393 J-15.327 F800.000 
G1 X23.317 Y39.996 Z-2.000 F800.000 
G1 X26.843 Y46.474 Z-2.000 F800.000 
G3 X36.889 Y66.615 Z-2.000 I-1135.911 J579.159 F800.000 
G2 X38.217 Y69.272 Z-2.000 I719.503 J-357.829 F800.000 
G3 X37.414 Y68.068 Z-2.000 I69.567 J-47.287 F800.000 
G1 X37.817 Y68.471 Z-2.000 F800.000 
G1 X38.217 Y69.272 Z-2.000 F800.000 
G3 X37.414 Y68.068 Z-2.000 I69.567 J-47.287 F800.000 
G0 Z5.000 
G0 Z5.000 
G0 
G0 X25.771 Y29.869 
G0 X25.771 Y29.869 Z3.000 
G1 X25.771 Y29.869 Z-1.500 F400.000 
G3 X26.602 Y31.760 Z-1.500 I-27.627 J13.263 F800.000 
G1 X25.365 Y30.523 Z-1.500 F800.000 
G3 X24.897 Y31.116 Z-1.500 I-1.512 J-0.710 F800.000 
G1 X27.389 Y33.608 Z-1.500 F800.000 
G1 X28.176 Y35.456 Z-1.500 F800.000 
G1 X24.283 Y31.562 Z-1.500 F800.000 
G3 X23.459 Y31.799 Z-1.500 I-1.300 J-2.977 F800.000 
G1 X28.963 Y37.303 Z-1.500 F800.000 
G3 X29.672 Y39.073 Z-1.500 I-33.449 J14.429 F800.000 
G1 X22.836 Y32.236 Z-1.500 F800.000 
G3 X22.542 Y32.860 Z-1.500 I-1.385 J-0.271 F800.000 
G2 X22.481 Y32.942 Z-1.500 I0.203 J0.214 F800.000 
G1 X30.366 Y40.827 Z-1.500 F800.000 
G1 X31.060 Y42.582 Z-1.500 F800.000 
G1 X22.358 Y33.880 Z-1.500 F800.000 
G1 X22.360 Y34.008 Z-1.500 F800.000 
G3 X23.765 Y36.347 Z-1.500 I-90.040 J55.665 F800.000 
G1 X31.753 Y44.336 Z-1.500 F800.000 
G1 X32.447 Y46.090 Z-1.500 F800.000 
G1 X25.210 Y38.854 Z-1.500 F800.000 
G3 X26.543 Y41.246 Z-1.500 I-145.825 J82.754 F800.000 
G1 X33.141 Y47.845 Z-1.500 F800.000 
G3 X33.814 Y49.579 Z-1.500 I-74.686 J30.004 F800.000 
G1 X27.794 Y43.558 Z-1.500 F800.000 
G3 X28.966 Y45.791 Z-1.500 I-94.122 J50.841 F800.000 
G1 X34.470 Y51.295 Z-1.500 F800.000 
G1 X35.126 Y53.012 Z-1.500 F800.000 
G1 X30.048 Y47.934 Z-1.500 F800.000 
G1 X31.129 Y50.076 Z-1.500 F800.000 
G1 X35.782 Y54.728 Z-1.500 F800.000 
G1 X36.438 Y56.445 Z-1.500 F800.000 
G1 X32.211 Y52.218 Z-1.500 F800.000 
G1 X33.293 Y54.360 Z-1.500 F800.000 
G1 X37.093 Y58.161 Z-1.500 F800.000 
G2 X37.751 Y59.879 Z-1.500 I848.101 J-323.504 F800.000 
G1 X34.374 Y56.503 Z-1.500 F800.000 
G3 X35.437 Y58.627 Z-1.500 I-117.457 J60.127 F800.000 
G1 X38.410 Y61.599 Z-1.500 F800.000 
G1 X39.069 Y63.319 Z-1.500 F800.000 
G1 X36.471 Y60.721 Z-1.500 F800.000 
G1 X37.505 Y62.816 Z-1.500 F800.000 
G1 X39.728 Y65.039 Z-1.500 F800.000 
G1 X40.387 Y66.758 Z-1.500 F800.000 
G1 X38.539 Y64.910 Z-1.500 F800.000 
G1 X39.573 Y67.005 Z-1.500 F800.000 
G1 X41.046 Y68.478 Z-1.500 F800.000 
G1 X41.705 Y70.198 Z-1.500 F800.000 
G1 X40.607 Y69.100 Z-1.500 F800.000 
G1 X41.641 Y71.194 Z-1.500 F800.000 
G1 X42.461 Y72.015 Z-1.500 F800.000 
G1 X43.295 Y73.909 Z-1.500 F800.000 
G1 X43.874 Y75.225 Z-1.500 F800.000 
G1 X41.759 Y71.434 Z-1.500 F800.000 
G2 X35.037 Y57.816 Z-1.500 I-1514.692 J739.222 F800.000 
G2 X28.888 Y45.636 Z-1.500 I-1003.799 J499.163 F800.000 
G2 X22.360 Y34.008 Z-1.500 I-176.460 J91.417 F800.000 
G3 X22.448 Y32.992 Z-1.500 I2.673 J-0.282 F800.000 
G2 X22.858 Y32.178 Z-1.500 I-1.313 J-1.171 F800.000 
G3 X23.063 Y31.826 Z-1.500 I0.630 J0.133 F800.000 
G2 X24.843 Y31.170 Z-1.500 I0.122 J-2.412 F800.000 
G2 X25.184 Y30.813 Z-1.500 I-7.322 J-7.329 F800.000 
G1 X25.771 Y29.869 Z-1.500 F800.000 
G1 X26.061 Y30.489 Z-1.500 F800.000 
G1 X29.094 Y37.609 Z-1.500 F800.000 
G3 X37.457 Y59.114 Z-1.500 I-926.142 J372.581 F800.000 
G2 X42.002 Y70.970 Z-1.500 I9627.365 J-3683.324 F800.000 
G2 X43.295 Y73.909 Z-1.500 I242.776 J-105.074 F800.000 
G1 X42.944 Y73.558 Z-1.500 F800.000 
G1 X43.874 Y75.225 Z-1.500 F800.000 
G1 X43.295 Y73.909 Z-1.500 F800.000 
G0 Z5.000 
G0 X25.771 Y29.869 Z5.000 
G0 X25.771 Y29.869 Z3.000 
G1 X25.771 Y29.869 Z-2.000 F400.000 
G3 X26.602 Y31.760 Z-2.000 I-27.627 J13.263 F800.000 
G1 X25.365 Y30.523 Z-2.000 F800.000 
G3 X24.897 Y31.116 Z-2.000 I-1.512 J-0.710 F800.000 
G1 X27.389 Y33.608 Z-2.000 F800.000 
G1 X28.176 Y35.456 Z-2.000 F800.000 
G1 X24.283 Y31.562 Z-2.000 F800.000 
G3 X23.459 Y31.799 Z-2.000 I-1.300 J-2.977 F800.000 
G1 X28.963 Y37.303 Z-2.000 F800.000 
G3 X29.672 Y39.073 Z-2.000 I-33.449 J14.429 F800.000 
G1 X22.836 Y32.236 Z-2.000 F800.000 
G3 X22.542 Y32.860 Z-2.000 I-1.385 J-0.271 F800.000 
G2 X22.481 Y32.942 Z-2.000 I0.203 J0.214 F800.000 
G1 X30.366 Y40.827 Z-2.000 F800.000 
G1 X31.060 Y42.582 Z-2.000 F800.000 
G1 X22.358 Y33.880 Z-2.000 F800.000 
G1 X22.360 Y34.008 Z-2.000 F800.000 
G3 X23.765 Y36.347 Z-2.000 I-90.040 J55.665 F800.000 
G1 X31.753 Y44.336 Z-2.000 F800.000 
G1 X32.447 Y46.090 Z-2.000 F800.000 
G1 X25.210 Y38.854 Z-2.000 F800.000 
G3 X26.543 Y41.246 Z-2.000 I-145.825 J82.754 F800.000 
G1 X33.141 Y47.845 Z-2.000 F800.000 
G3 X33.814 Y49.579 Z-2.000 I-74.686 J30.004 F800.000 
G1 X27.794 Y43.558 Z-2.000 F800.000 
G3 X28.966 Y45.791 Z-2.000 I-94.122 J50.841 F800.000 
G1 X34.470 Y51.295 Z-2.000 F800.000 
G1 X35.126 Y53.012 Z-2.000 F800.000 
G1 X30.048 Y47.934 Z-2.000 F800.000 
G1 X31.129 Y50.076 Z-2.000 F800.000 
G1 X35.782 Y54.728 Z-2.000 F800.000 
G1 X36.438 Y56.445 Z-2.000 F800.000 
G1 X32.211 Y52.218 Z-2.000 F800.000 
G1 X33.293 Y54.360 Z-2.000 F800.000 
G1 X37.093 Y58.161 Z-2.000 F800.000 
G2 X37.751 Y59.879 Z-2.000 I848.101 J-323.504 F800.000 
G1 X34.374 Y56.503 Z-2.000 F800.000 
G3 X35.437 Y58.627 Z-2.000 I-117.457 J60.127 F800.000 
G1 X38.410 Y61.599 Z-2.000 F800.000 
G1 X39.069 Y63.319 Z-2.000 F800.000 
G1 X36.471 Y60.721 Z-2.000 F800.000 
G1 X37.505 Y62.816 Z-2.000 F800.000 
G1 X39.728 Y65.039 Z-2.000 F800.000 
G1 X40.387 Y66.758 Z-2.000 F800.000 
G1 X38.539 Y64.910 Z-2.000 F800.000 
G1 X39.573 Y67.005 Z-2.000 F800.000 
G1 X41.046 Y68.478 Z-2.000 F800.000 
G1 X41.705 Y70.198 Z-2.000 F800.000 
G1 X40.607 Y69.100 Z-2.000 F800.000 
G1 X41.641 Y71.194 Z-2.000 F800.000 
G1 X42.461 Y72.015 Z-2.000 F800.000 
G1 X43.295 Y73.909 Z-2.000 F800.000 
G1 X43.874 Y75.225 Z-2.000 F800.000 
G1 X41.759 Y71.434 Z-2.000 F800.000 
G2 X35.037 Y57.816 Z-2.000 I-1514.692 J739.222 F800.000 
G2 X28.888 Y45.636 Z-2.000 I-1003.799 J499.163 F800.000 
G2 X22.360 Y34.008 Z-2.000 I-176.460 J91.417 F800.000 
G3 X22.448 Y32.992 Z-2.000 I2.673 J-0.282 F800.000 
G2 X22.858 Y32.178 Z-2.000 I-1.313 J-1.171 F800.000 
G3 X23.063 Y31.826 Z-2.000 I0.630 J0.133 F800.000 
G2 X24.843 Y31.170 Z-2.000 I0.122 J-2.412 F800.000 
G2 X25.184 Y30.813 Z-2.000 I-7.322 J-7.329 F800.000 
G1 X25.771 Y29.869 Z-2.000 F800.000 
G1 X26.061 Y30.489 Z-2.000 F800.000 
G1 X29.094 Y37.609 Z-2.000 F800.000 
G3 X37.457 Y59.114 Z-2.000 I-926.142 J372.581 F800.000 
G2 X42.002 Y70.970 Z-2.000 I9627.365 J-3683.324 F800.000 
G2 X43.295 Y73.909 Z-2.000 I242.776 J-105.074 F800.000 
G1 X42.944 Y73.558 Z-2.000 F800.000 
G1 X43.874 Y75.225 Z-2.000 F800.000 
G1 X43.295 Y73.909 Z-2.000 F800.000 
G0 Z5.000 
G0 Z5.000 
G0 
G0 X30.836 Y23.439 
G0 X30.836 Y23.439 Z3.000 
G1 X30.836 Y23.439 Z-1.500 F400.000 
G1 X31.553 Y25.217 Z-1.500 F800.000 
G1 X30.260 Y23.924 Z-1.500 F800.000 
G3 X29.676 Y24.400 Z-1.500 I-2.097 J-1.975 F800.000 
G1 X32.226 Y26.950 Z-1.500 F800.000 
G1 X32.877 Y28.662 Z-1.500 F800.000 
G1 X28.928 Y24.713 Z-1.500 F800.000 
G3 X28.385 Y24.840 Z-1.500 I-0.470 J-0.789 F800.000 
G1 X27.949 Y24.795 Z-1.500 F800.000 
G1 X33.493 Y30.339 Z-1.500 F800.000 
G1 X34.085 Y31.991 Z-1.500 F800.000 
G1 X27.139 Y25.045 Z-1.500 F800.000 
G1 X26.751 Y25.718 Z-1.500 F800.000 
G1 X34.655 Y33.622 Z-1.500 F800.000 
G1 X35.192 Y35.220 Z-1.500 F800.000 
G1 X26.582 Y26.610 Z-1.500 F800.000 
G1 X27.501 Y28.590 Z-1.500 F800.000 
G1 X35.725 Y36.813 Z-1.500 F800.000 
G1 X36.212 Y38.361 Z-1.500 F800.000 
G1 X28.354 Y30.503 Z-1.500 F800.000 
G1 X29.182 Y32.392 Z-1.500 F800.000 
G1 X36.700 Y39.910 Z-1.500 F800.000 
G1 X37.188 Y41.458 Z-1.500 F800.000 
G1 X30.009 Y34.280 Z-1.500 F800.000 
G3 X30.816 Y36.147 Z-1.500 I-25.784 J12.242 F800.000 
G1 X37.646 Y42.977 Z-1.500 F800.000 
G1 X38.098 Y44.489 Z-1.500 F800.000 
G1 X31.511 Y37.902 Z-1.500 F800.000 
G1 X32.206 Y39.658 Z-1.500 F800.000 
G1 X38.550 Y46.002 Z-1.500 F800.000 
G3 X38.985 Y47.498 Z-1.500 I-48.963 J15.052 F800.000 
G1 X32.901 Y41.414 Z-1.500 F800.000 
G1 X33.596 Y43.169 Z-1.500 F800.000 
G1 X39.402 Y48.976 Z-1.500 F800.000 
G1 X39.819 Y50.453 Z-1.500 F800.000 
G1 X34.291 Y44.925 Z-1.500 F800.000 
G1 X34.986 Y46.681 Z-1.500 F800.000 
G1 X40.235 Y51.930 Z-1.500 F800.000 
G1 X40.619 Y53.374 Z-1.500 F800.000 
G1 X35.681 Y48.436 Z-1.500 F800.000 
G3 X36.373 Y50.189 Z-1.500 I-61.264 J25.202 F800.000 
G1 X41.002 Y54.818 Z-1.500 F800.000 
G1 X41.386 Y56.263 Z-1.500 F800.000 
G1 X37.021 Y51.898 Z-1.500 F800.000 
G1 X37.669 Y53.607 Z-1.500 F800.000 
G1 X41.769 Y57.706 Z-1.500 F800.000 
G1 X42.152 Y59.150 Z-1.500 F800.000 
G1 X38.317 Y55.316 Z-1.500 F800.000 
G1 X38.966 Y57.024 Z-1.500 F800.000 
G1 X42.534 Y60.593 Z-1.500 F800.000 
G1 X42.917 Y62.036 Z-1.500 F800.000 
G1 X39.590 Y58.710 Z-1.500 F800.000 
G2 X40.199 Y60.379 Z-1.500 I402.905 J-146.005 F800.000 
G1 X43.300 Y63.480 Z-1.500 F800.000 
G1 X43.682 Y64.923 Z-1.500 F800.000 
G1 X40.823 Y62.064 Z-1.500 F800.000 
G2 X41.472 Y63.773 Z-1.500 I134.711 J-50.151 F800.000 
G1 X44.065 Y66.366 Z-1.500 F800.000 
G1 X44.448 Y67.810 Z-1.500 F800.000 
G1 X42.194 Y65.556 Z-1.500 F800.000 
G3 X42.920 Y67.342 Z-1.500 I-282.890 J116.003 F800.000 
G1 X44.839 Y69.262 Z-1.500 F800.000 
G3 X45.268 Y70.751 Z-1.500 I-139.878 J41.062 F800.000 
G1 X43.651 Y69.134 Z-1.500 F800.000 
G2 X44.401 Y70.945 Z-1.500 I122.948 J-49.867 F800.000 
G1 X45.688 Y72.232 Z-1.500 F800.000 
G2 X46.122 Y73.727 Z-1.500 I44.557 J-12.136 F800.000 
G1 X45.169 Y72.774 Z-1.500 F800.000 
G2 X45.962 Y74.627 Z-1.500 I247.305 J-104.668 F800.000 
G1 X46.585 Y75.250 Z-1.500 F800.000 
G2 X47.096 Y76.822 Z-1.500 I28.787 J-8.493 F800.000 
G1 X46.787 Y76.513 Z-1.500 F800.000 
G2 X47.713 Y78.536 Z-1.500 I96.232 J-42.837 F800.000 
G3 X42.106 Y65.341 Z-1.500 I291.895 J-131.839 F800.000 
G3 X39.293 Y57.887 Z-1.500 I216.748 J-86.051 F800.000 
G2 X36.329 Y50.073 Z-1.500 I-363.344 J133.357 F800.000 
G2 X30.706 Y35.870 Z-1.500 I-1576.201 J615.767 F800.000 
G2 X30.698 Y35.851 Z-1.500 I-0.695 J0.282 F800.000 
G2 X27.757 Y29.140 Z-1.500 I-311.714 J132.616 F800.000 
G2 X26.504 Y26.442 Z-1.500 I-503.419 J232.105 F800.000 
G1 X26.536 Y26.091 Z-1.500 F800.000 
G1 X27.181 Y24.973 Z-1.500 F800.000 
G1 X27.499 Y24.749 Z-1.500 F800.000 
G2 X28.477 Y24.843 Z-1.500 I1.262 J-7.936 F800.000 
G2 X28.745 Y24.788 Z-1.500 I-0.015 J-0.750 F800.000 
G2 X29.639 Y24.421 Z-1.500 I-4.236 J-11.588 F800.000 
G2 X29.786 Y24.324 Z-1.500 I-0.337 J-0.670 F800.000 
G1 X30.836 Y23.439 Z-1.500 F800.000 
G3 X37.266 Y41.705 Z-1.500 I-187.958 J76.430 F800.000 
G3 X41.580 Y56.995 Z-1.500 I-328.088 J100.831 F800.000 
G2 X44.759 Y68.985 Z-1.500 I2215.046 J-580.868 F800.000 
G2 X47.182 Y77.080 Z-1.500 I153.760 J-41.615 F800.000 
G3 X47.713 Y78.536 Z-1.500 I-583.704 J213.694 F800.000 
G1 X47.681 Y78.468 Z-1.500 F800.000 
G0 Z5.000 
G0 X30.836 Y23.439 Z5.000 
G0 X30.836 Y23.439 Z3.000 
G1 X30.836 Y23.439 Z-2.000 F400.000 
G1 X31.553 Y25.217 Z-2.000 F800.000 
G1 X30.260 Y23.924 Z-2.000 F800.000 
G3 X29.676 Y24.400 Z-2.000 I-2.097 J-1.975 F800.000 
G1 X32.226 Y26.950 Z-2.000 F800.000 
G1 X32.877 Y28.662 Z-2.000 F800.000 
G1 X28.928 Y24.713 Z-2.000 F800.000 
G3 X28.385 Y24.840 Z-2.000 I-0.470 J-0.789 F800.000 
G1 X27.949 Y24.795 Z-2.000 F800.000 
G1 X33.493 Y30.339 Z-2.000 F800.000 
G1 X34.085 Y31.991 Z-2.000 F800.000 
G1 X27.139 Y25.045 Z-2.000 F800.000 
G1 X26.751 Y25.718 Z-2.000 F800.000 
G1 X34.655 Y33.622 Z-2.000 F800.000 
G1 X35.192 Y35.220 Z-2.000 F800.000 
G1 X26.582 Y26.610 Z-2.000 F800.000 
G1 X27.501 Y28.590 Z-2.000 F800.000 
G1 X35.725 Y36.813 Z-2.000 F800.000 
G1 X36.212 Y38.361 Z-2.000 F800.000 
G1 X28.354 Y30.503 Z-2.000 F800.000 
G1 X29.182 Y32.392 Z-2.000 F800.000 
G1 X36.700 Y39.910 Z-2.000 F800.000 
G1 X37.188 Y41.458 Z-2.000 F800.000 
G1 X30.009 Y34.280 Z-2.000 F800.000 
G3 X30.816 Y36.147 Z-2.000 I-25.784 J12.242 F800.000 
G1 X37.646 Y42.977 Z-2.000 F800.000 
G1 X38.098 Y44.489 Z-2.000 F800.000 
G1 X31.511 Y37.902 Z-2.000 F800.000 
G1 X32.206 Y39.658 Z-2.000 F800.000 
G1 X38.550 Y46.002 Z-2.000 F800.000 
G3 X38.985 Y47.498 Z-2.000 I-48.963 J15.052 F800.000 
G1 X32.901 Y41.414 Z-2.000 F800.000 
G1 X33.596 Y43.169 Z-2.000 F800.000 
G1 X39.402 Y48.976 Z-2.000 F800.000 
G1 X39.819 Y50.453 Z-2.000 F800.000 
G1 X34.291 Y44.925 Z-2.000 F800.000 
G1 X34.986 Y46.681 Z-2.000 F800.000 
G1 X40.235 Y51.930 Z-2.000 F800.000 
G1 X40.619 Y53.374 Z-2.000 F800.000 
G1 X35.681 Y48.436 Z-2.000 F800.000 
G3 X36.373 Y50.189 Z-2.000 I-61.264 J25.202 F800.000 
G1 X41.002 Y54.818 Z-2.000 F800.000 
G1 X41.386 Y56.263 Z-2.000 F800.000 
G1 X37.021 Y51.898 Z-2.000 F800.000 
G1 X37.669 Y53.607 Z-2.000 F800.000 
G1 X41.769 Y57.706 Z-2.000 F800.000 
G1 X42.152 Y59.150 Z-2.000 F800.000 
G1 X38.317 Y55.316 Z-2.000 F800.000 
G1 X38.966 Y57.024 Z-2.000 F800.000 
G1 X42.534 Y60.593 Z-2.000 F800.000 
G1 X42.917 Y62.036 Z-2.000 F800.000 
G1 X39.590 Y58.710 Z-2.000 F800.000 
G2 X40.199 Y60.379 Z-2.000 I402.905 J-146.005 F800.000 
G1 X43.300 Y63.480 Z-2.000 F800.000 
G1 X43.682 Y64.923 Z-2.000 F800.000 
G1 X40.823 Y62.064 Z-2.000 F800.000 
G2 X41.472 Y63.773 Z-2.000 I134.711 J-50.151 F800.000 
G1 X44.065 Y66.366 Z-2.000 F800.000 
G1 X44.448 Y67.810 Z-2.000 F800.000 
G1 X42.194 Y65.556 Z-2.000 F800.000 
G3 X42.920 Y67.342 Z-2.000 I-282.890 J116.003 F800.000 
G1 X44.839 Y69.262 Z-2.000 F800.000 
G3 X45.268 Y70.751 Z-2.000 I-139.878 J41.062 F800.000 
G1 X43.651 Y69.134 Z-2.000 F800.000 
G2 X44.401 Y70.945 Z-2.000 I122.948 J-49.867 F800.000 
G1 X45.688 Y72.232 Z-2.000 F800.000 
G2 X46.122 Y73.727 Z-2.000 I44.557 J-12.136 F800.000 
G1 X45.169 Y72.774 Z-2.000 F800.000 
G2 X45.962 Y74.627 Z-2.000 I247.305 J-104.668 F800.000 
G1 X46.585 Y75.250 Z-2.000 F800.000 
G2 X47.096 Y76.822 Z-2.000 I28.787 J-8.493 F800.000 
G1 X46.787 Y76.513 Z-2.000 F800.000 
G2 X47.713 Y78.536 Z-2.000 I96.232 J-42.837 F800.000 
G3 X42.106 Y65.341 Z-2.000 I291.895 J-131.839 F800.000 
G3 X39.293 Y57.887 Z-2.000 I216.748 J-86.051 F800.000 
G2 X36.329 Y50.073 Z-2.000 I-363.344 J133.357 F800.000 
G2 X30.706 Y35.870 Z-2.000 I-1576.201 J615.767 F800.000 
G2 X30.698 Y35.851 Z-2.000 I-0.695 J0.282 F800.000 
G2 X27.757 Y29.140 Z-2.000 I-311.714 J132.616 F800.000 
G2 X26.504 Y26.442 Z-2.000 I-503.419 J232.105 F800.000 
G1 X26.536 Y26.091 Z-2.000 F800.000 
G1 X27.181 Y24.973 Z-2.000 F800.000 
G1 X27.499 Y24.749 Z-2.000 F800.000 
G2 X28.477 Y24.843 Z-2.000 I1.262 J-7.936 F800.000 
G2 X28.745 Y24.788 Z-2.000 I-0.015 J-0.750 F800.000 
G2 X29.639 Y24.421 Z-2.000 I-4.236 J-11.588 F800.000 
G2 X29.786 Y24.324 Z-2.000 I-0.337 J-0.670 F800.000 
G1 X30.836 Y23.439 Z-2.000 F800.000 
G3 X37.266 Y41.705 Z-2.000 I-187.958 J76.430 F800.000 
G3 X41.580 Y56.995 Z-2.000 I-328.088 J100.831 F800.000 
G2 X44.759 Y68.985 Z-2.000 I2215.046 J-580.868 F800.000 
G2 X47.182 Y77.080 Z-2.000 I153.760 J-41.615 F800.000 
G3 X47.713 Y78.536 Z-2.000 I-583.704 J213.694 F800.000 
G1 X47.681 Y78.468 Z-2.000 F800.000 
G0 Z5.000 
G0 Z5.000 
G0 
G0 X39.452 Y16.408 
G0 X39.452 Y16.408 Z3.000 
G1 X39.452 Y16.408 Z-1.500 F400.000 
G3 X39.778 Y17.795 Z-1.500 I-78.524 J19.196 F800.000 
G1 X38.632 Y16.649 Z-1.500 F800.000 
G2 X38.057 Y17.135 Z-1.500 I11.499 J14.150 F800.000 
G1 X40.080 Y19.157 Z-1.500 F800.000 
G3 X40.378 Y20.516 Z-1.500 I-50.683 J11.833 F800.000 
G1 X37.704 Y17.843 Z-1.500 F800.000 
G3 X37.378 Y18.577 Z-1.500 I-3.264 J-1.012 F800.000 
G1 X40.655 Y21.854 Z-1.500 F800.000 
G1 X40.933 Y23.192 Z-1.500 F800.000 
G1 X36.836 Y19.095 Z-1.500 F800.000 
G3 X36.224 Y19.544 Z-1.500 I-2.210 J-2.370 F800.000 
G1 X41.210 Y24.530 Z-1.500 F800.000 
G1 X41.488 Y25.869 Z-1.500 F800.000 
G1 X35.540 Y19.921 Z-1.500 F800.000 
G3 X34.685 Y20.127 Z-1.500 I-0.707 J-1.060 F800.000 
G1 X41.742 Y27.184 Z-1.500 F800.000 
G1 X41.996 Y28.498 Z-1.500 F800.000 
G1 X33.456 Y19.958 Z-1.500 F800.000 
G2 X33.047 Y19.955 Z-1.500 I-0.206 J0.220 F800.000 
G2 X32.654 Y20.217 Z-1.500 I0.679 J1.442 F800.000 
G1 X42.250 Y29.813 Z-1.500 F800.000 
G1 X42.504 Y31.127 Z-1.500 F800.000 
G1 X32.065 Y20.688 Z-1.500 F800.000 
G1 X31.993 Y20.761 Z-1.500 F800.000 
G1 X32.623 Y22.308 Z-1.500 F800.000 
G1 X42.752 Y32.436 Z-1.500 F800.000 
G1 X42.953 Y33.698 Z-1.500 F800.000 
G1 X33.353 Y24.098 Z-1.500 F800.000 
G1 X34.082 Y25.888 Z-1.500 F800.000 
G1 X43.155 Y34.961 Z-1.500 F800.000 
G1 X43.357 Y36.223 Z-1.500 F800.000 
G1 X34.811 Y27.677 Z-1.500 F800.000 
G3 X35.486 Y29.413 Z-1.500 I-11.604 J5.512 F800.000 
G1 X43.559 Y37.486 Z-1.500 F800.000 
G1 X43.761 Y38.748 Z-1.500 F800.000 
G1 X35.993 Y30.981 Z-1.500 F800.000 
G1 X36.500 Y32.548 Z-1.500 F800.000 
G1 X43.963 Y40.011 Z-1.500 F800.000 
G1 X44.165 Y41.274 Z-1.500 F800.000 
G1 X37.013 Y34.122 Z-1.500 F800.000 
G3 X37.527 Y35.697 Z-1.500 I-1533.194 J501.385 F800.000 
G1 X44.367 Y42.536 Z-1.500 F800.000 
G1 X44.568 Y43.799 Z-1.500 F800.000 
G1 X38.040 Y37.271 Z-1.500 F800.000 
G3 X38.539 Y38.830 Z-1.500 I-100.009 J32.844 F800.000 
G1 X44.770 Y45.061 Z-1.500 F800.000 
G3 X44.963 Y46.315 Z-1.500 I-67.820 J11.084 F800.000 
G1 X39.033 Y40.384 Z-1.500 F800.000 
G1 X39.526 Y41.938 Z-1.500 F800.000 
G1 X45.151 Y47.563 Z-1.500 F800.000 
G1 X45.339 Y48.812 Z-1.500 F800.000 
G1 X40.020 Y43.492 Z-1.500 F800.000 
G3 X40.478 Y45.012 Z-1.500 I-42.143 J13.548 F800.000 
G1 X45.527 Y50.060 Z-1.500 F800.000 
G3 X45.715 Y51.309 Z-1.500 I-188.142 J28.931 F800.000 
G1 X40.928 Y46.522 Z-1.500 F800.000 
G3 X41.371 Y48.026 Z-1.500 I-33.739 J10.757 F800.000 
G1 X45.897 Y52.552 Z-1.500 F800.000 
G1 X46.080 Y53.796 Z-1.500 F800.000 
G1 X41.770 Y49.486 Z-1.500 F800.000 
G1 X42.170 Y50.946 Z-1.500 F800.000 
G1 X46.263 Y55.039 Z-1.500 F800.000 
G1 X46.446 Y56.283 Z-1.500 F800.000 
G1 X42.565 Y52.402 Z-1.500 F800.000 
G1 X42.949 Y53.846 Z-1.500 F800.000 
G1 X46.606 Y57.503 Z-1.500 F800.000 
G1 X46.765 Y58.723 Z-1.500 F800.000 
G1 X43.333 Y55.291 Z-1.500 F800.000 
G1 X43.716 Y56.735 Z-1.500 F800.000 
G1 X46.936 Y59.955 Z-1.500 F800.000 
G1 X47.124 Y61.204 Z-1.500 F800.000 
G1 X44.100 Y58.180 Z-1.500 F800.000 
G1 X44.484 Y59.624 Z-1.500 F800.000 
G1 X47.311 Y62.451 Z-1.500 F800.000 
G1 X47.489 Y63.689 Z-1.500 F800.000 
G1 X44.868 Y61.069 Z-1.500 F800.000 
G1 X45.252 Y62.513 Z-1.500 F800.000 
G1 X47.666 Y64.927 Z-1.500 F800.000 
G2 X47.879 Y66.201 Z-1.500 I30.225 J-4.396 F800.000 
G1 X45.636 Y63.958 Z-1.500 F800.000 
G1 X46.019 Y65.402 Z-1.500 F800.000 
G1 X48.101 Y67.483 Z-1.500 F800.000 
G3 X48.323 Y68.766 Z-1.500 I-45.187 J8.485 F800.000 
G1 X46.403 Y66.847 Z-1.500 F800.000 
G1 X46.787 Y68.291 Z-1.500 F800.000 
G1 X48.536 Y70.040 Z-1.500 F800.000 
G1 X48.755 Y71.320 Z-1.500 F800.000 
G1 X47.171 Y69.735 Z-1.500 F800.000 
G2 X47.594 Y71.219 Z-1.500 I18.740 J-4.542 F800.000 
G1 X48.975 Y72.600 Z-1.500 F800.000 
G2 X49.196 Y73.882 Z-1.500 I504.689 J-86.363 F800.000 
G1 X48.068 Y72.754 Z-1.500 F800.000 
G1 X48.543 Y74.289 Z-1.500 F800.000 
G1 X49.418 Y75.165 Z-1.500 F800.000 
G2 X49.643 Y76.450 Z-1.500 I274.397 J-47.273 F800.000 
G1 X49.017 Y75.824 Z-1.500 F800.000 
G2 X49.625 Y77.493 Z-1.500 I12.362 J-3.560 F800.000 
G1 X49.910 Y77.778 Z-1.500 F800.000 
G3 X50.185 Y78.941 Z-1.500 I-76.869 J18.768 F800.000 
G1 X49.164 Y76.300 Z-1.500 F800.000 
G1 X47.388 Y70.554 Z-1.500 F800.000 
G2 X42.463 Y52.017 Z-1.500 I-2533.947 J663.389 F800.000 
G2 X40.116 Y43.795 Z-1.500 I-184.775 J48.299 F800.000 
G2 X35.352 Y29.006 Z-1.500 I-1720.688 J546.030 F800.000 
G1 X31.993 Y20.761 Z-1.500 F800.000 
G3 X33.047 Y19.955 Z-1.500 I7.025 J8.096 F800.000 
G1 X33.257 Y19.877 Z-1.500 F800.000 
G2 X33.933 Y20.135 Z-1.500 I1.185 J-2.087 F800.000 
G2 X35.154 Y20.094 Z-1.500 I0.446 J-4.960 F800.000 
G2 X37.449 Y18.475 Z-1.500 I-1.946 J-5.192 F800.000 
G3 X38.069 Y17.114 Z-1.500 I22.569 J9.461 F800.000 
G3 X38.907 Y16.486 Z-1.500 I5.334 J6.246 F800.000 
G3 X39.460 Y16.426 Z-1.500 I0.385 J0.966 F800.000 
G3 X42.728 Y32.288 Z-1.500 I-366.358 J83.739 F800.000 
G3 X46.453 Y56.331 Z-1.500 I-1230.744 J203.000 F800.000 
G2 X47.287 Y62.279 Z-1.500 I148.689 J-17.802 F800.000 
G2 X48.262 Y68.391 Z-1.500 I124.268 J-16.693 F800.000 
G2 X49.888 Y77.690 Z-1.500 I424.535 J-69.464 F800.000 
G3 X50.185 Y78.941 Z-1.500 I-70.078 J17.275 F800.000 
G1 X49.625 Y77.493 Z-1.500 F800.000 
G0 Z5.000 
G0 X39.452 Y16.408 Z5.000 
G0 X39.452 Y16.408 Z3.000 
G1 X39.452 Y16.408 Z-2.000 F400.000 
G3 X39.778 Y17.795 Z-2.000 I-78.524 J19.196 F800.000 
G1 X38.632 Y16.649 Z-2.000 F800.000 
G2 X38.057 Y17.135 Z-2.000 I11.499 J14.150 F800.000 
G1 X40.080 Y19.157 Z-2.000 F800.000 
G3 X40.378 Y20.516 Z-2.000 I-50.683 J11.833 F800.000 
G1 X37.704 Y17.843 Z-2.000 F800.000 
G3 X37.378 Y18.577 Z-2.000 I-3.264 J-1.012 F800.000 
G1 X40.655 Y21.854 Z-2.000 F800.000 
G1 X40.933 Y23.192 Z-2.000 F800.000 
G1 X36.836 Y19.095 Z-2.000 F800.000 
G3 X36.224 Y19.544 Z-2.000 I-2.210 J-2.370 F800.000 
G1 X41.210 Y24.530 Z-2.000 F800.000 
G1 X41.488 Y25.869 Z-2.000 F800.000 
G1 X35.540 Y19.921 Z-2.000 F800.000 
G3 X34.685 Y20.127 Z-2.000 I-0.707 J-1.060 F800.000 
G1 X41.742 Y27.184 Z-2.000 F800.000 
G1 X41.996 Y28.498 Z-2.000 F800.000 
G1 X33.456 Y19.958 Z-2.000 F800.000 
G2 X33.047 Y19.955 Z-2.000 I-0.206 J0.220 F800.000 
G2 X32.654 Y20.217 Z-2.000 I0.679 J1.442 F800.000 
G1 X42.250 Y29.813 Z-2.000 F800.000 
G1 X42.504 Y31.127 Z-2.000 F800.000 
G1 X32.065 Y20.688 Z-2.000 F800.000 
G1 X31.993 Y20.761 Z-2.000 F800.000 
G1 X32.623 Y22.308 Z-2.000 F800.000 
G1 X42.752 Y32.436 Z-2.000 F800.000 
G1 X42.953 Y33.698 Z-2.000 F800.000 
G1 X33.353 Y24.098 Z-2.000 F800.000 
G1 X34.082 Y25.888 Z-2.000 F800.000 
G1 X43.155 Y34.961 Z-2.000 F800.000 
G1 X43.357 Y36.223 Z-2.000 F800.000 
G1 X34.811 Y27.677 Z-2.000 F800.000 
G3 X35.486 Y29.413 Z-2.000 I-11.604 J5.512 F800.000 
G1 X43.559 Y37.486 Z-2.000 F800.000 
G1 X43.761 Y38.748 Z-2.000 F800.000 
G1 X35.993 Y30.981 Z-2.000 F800.000 
G1 X36.500 Y32.548 Z-2.000 F800.000 
G1 X43.963 Y40.011 Z-2.000 F800.000 
G1 X44.165 Y41.274 Z-2.000 F800.000 
G1 X37.013 Y34.122 Z-2.000 F800.000 
G3 X37.527 Y35.697 Z-2.000 I-1533.194 J501.385 F800.000 
G1 X44.367 Y42.536 Z-2.000 F800.000 
G1 X44.568 Y43.799 Z-2.000 F800.000 
G1 X38.040 Y37.271 Z-2.000 F800.000 
G3 X38.539 Y38.830 Z-2.000 I-100.009 J32.844 F800.000 
G1 X44.770 Y45.061 Z-2.000 F800.000 
G3 X44.963 Y46.315 Z-2.000 I-67.820 J11.084 F800.000 
G1 X39.033 Y40.384 Z-2.000 F800.000 
G1 X39.526 Y41.938 Z-2.000 F800.000 
G1 X45.151 Y47.563 Z-2.000 F800.000 
G1 X45.339 Y48.812 Z-2.000 F800.000 
G1 X40.020 Y43.492 Z-2.000 F800.000 
G3 X40.478 Y45.012 Z-2.000 I-42.143 J13.548 F800.000 
G1 X45.527 Y50.060 Z-2.000 F800.000 
G3 X45.715 Y51.309 Z-2.000 I-188.142 J28.931 F800.000 
G1 X40.928 Y46.522 Z-2.000 F800.000 
G3 X41.371 Y48.026 Z-2.000 I-33.739 J10.757 F800.000 
G1 X45.897 Y52.552 Z-2.000 F800.000 
G1 X46.080 Y53.796 Z-2.000 F800.000 
G1 X41.770 Y49.486 Z-2.000 F800.000 
G1 X42.170 Y50.946 Z-2.000 F800.000 
G1 X46.263 Y55.039 Z-2.000 F800.000 
G1 X46.446 Y56.283 Z-2.000 F800.000 
G1 X42.565 Y52.402 Z-2.000 F800.000 
G1 X42.949 Y53.846 Z-2.000 F800.000 
G1 X46.606 Y57.503 Z-2.000 F800.000 
G1 X46.765 Y58.723 Z-2.000 F800.000 
G1 X43.333 Y55.291 Z-2.000 F800.000 
G1 X43.716 Y56.735 Z-2.000 F800.000 
G1 X46.936 Y59.955 Z-2.000 F800.000 
G1 X47.124 Y61.204 Z-2.000 F800.000 
G1 X44.100 Y58.180 Z-2.000 F800.000 
G1 X44.484 Y59.624 Z-2.000 F800.000 
G1 X47.311 Y62.451 Z-2.000 F800.000 
G1 X47.489 Y63.689 Z-2.000 F800.000 
G1 X44.868 Y61.069 Z-2.000 F800.000 
G1 X45.252 Y62.513 Z-2.000 F800.000 
G1 X47.666 Y64.927 Z-2.000 F800.000 
G2 X47.879 Y66.201 Z-2.000 I30.225 J-4.396 F800.000 
G1 X45.636 Y63.958 Z-2.000 F800.000 
G1 X46.019 Y65.402 Z-2.000 F800.000 
G1 X48.101 Y67.483 Z-2.000 F800.000 
G3 X48.323 Y68.766 Z-2.000 I-45.187 J8.485 F800.000 
G1 X46.403 Y66.847 Z-2.000 F800.000 
G1 X46.787 Y68.291 Z-2.000 F800.000 
G1 X48.536 Y70.040 Z-2.000 F800.000 
G1 X48.755 Y71.320 Z-2.000 F800.000 
G1 X47.171 Y69.735 Z-2.000 F800.000 
G2 X47.594 Y71.219 Z-2.000 I18.740 J-4.542 F800.000 
G1 X48.975 Y72.600 Z-2.000 F800.000 
G2 X49.196 Y73.882 Z-2.000 I504.689 J-86.363 F800.000 
G1 X48.068 Y72.754 Z-2.000 F800.000 
G1 X48.543 Y74.289 Z-2.000 F800.000 
G1 X49.418 Y75.165 Z-2.000 F800.000 
G2 X49.643 Y76.450 Z-2.000 I274.397 J-47.273 F800.000 
G1 X49.017 Y75.824 Z-2.000 F800.000 
G2 X49.625 Y77.493 Z-2.000 I12.362 J-3.560 F800.000 
G1 X49.910 Y77.778 Z-2.000 F800.000 
G3 X50.185 Y78.941 Z-2.000 I-76.869 J18.768 F800.000 
G1 X49.164 Y76.300 Z-2.000 F800.000 
G1 X47.388 Y70.554 Z-2.000 F800.000 
G2 X42.463 Y52.017 Z-2.000 I-2533.947 J663.389 F800.000 
G2 X40.116 Y43.795 Z-2.000 I-184.775 J48.299 F800.000 
G2 X35.352 Y29.006 Z-2.000 I-1720.688 J546.030 F800.000 
G1 X31.993 Y20.761 Z-2.000 F800.000 
G3 X33.047 Y19.955 Z-2.000 I7.025 J8.096 F800.000 
G1 X33.257 Y19.877 Z-2.000 F800.000 
G2 X33.933 Y20.135 Z-2.000 I1.185 J-2.087 F800.000 
G2 X35.154 Y20.094 Z-2.000 I0.446 J-4.960 F800.000 
G2 X37.449 Y18.475 Z-2.000 I-1.946 J-5.192 F800.000 
G3 X38.069 Y17.114 Z-2.000 I22.569 J9.461 F800.000 
G3 X38.907 Y16.486 Z-2.000 I5.334 J6.246 F800.000 
G3 X39.460 Y16.426 Z-2.000 I0.385 J0.966 F800.000 
G3 X42.728 Y32.288 Z-2.000 I-366.358 J83.739 F800.000 
G3 X46.453 Y56.331 Z-2.000 I-1230.744 J203.000 F800.000 
G2 X47.287 Y62.279 Z-2.000 I148.689 J-17.802 F800.000 
G2 X48.262 Y68.391 Z-2.000 I124.268 J-16.693 F800.000 
G2 X49.888 Y77.690 Z-2.000 I424.535 J-69.464 F800.000 
G3 X50.185 Y78.941 Z-2.000 I-70.078 J17.275 F800.000 
G1 X49.625 Y77.493 Z-2.000 F800.000 
G0 Z5.000 
G0 Z5.000 
G0 
G0 X50.389 Y14.883 
G0 X50.389 Y14.883 Z3.000 
G1 X50.389 Y14.883 Z-1.500 F400.000 
G1 X50.490 Y16.045 Z-1.500 F800.000 
G1 X49.595 Y15.151 Z-1.500 F800.000 
G3 X48.634 Y15.250 Z-1.500 I-0.765 J-2.708 F800.000 
G1 X50.590 Y17.206 Z-1.500 F800.000 
G1 X50.691 Y18.368 Z-1.500 F800.000 
G1 X46.610 Y14.287 Z-1.500 F800.000 
G3 X46.427 Y14.137 Z-1.500 I0.427 J-0.709 F800.000 
G2 X45.440 Y14.177 Z-1.500 I-0.184 J7.709 F800.000 
G1 X50.792 Y19.529 Z-1.500 F800.000 
G1 X50.893 Y20.691 Z-1.500 F800.000 
G1 X44.754 Y14.552 Z-1.500 F800.000 
G3 X44.456 Y15.315 Z-1.500 I-5.994 J-1.905 F800.000 
G1 X50.994 Y21.852 Z-1.500 F800.000 
G1 X51.095 Y23.014 Z-1.500 F800.000 
G1 X43.924 Y15.843 Z-1.500 F800.000 
G3 X43.313 Y16.293 Z-1.500 I-3.027 J-3.467 F800.000 
G1 X51.195 Y24.175 Z-1.500 F800.000 
G1 X51.296 Y25.337 Z-1.500 F800.000 
G1 X42.620 Y16.661 Z-1.500 F800.000 
G3 X41.837 Y16.938 Z-1.500 I-1.702 J-3.554 F800.000 
G1 X51.397 Y26.498 Z-1.500 F800.000 
G1 X51.498 Y27.660 Z-1.500 F800.000 
G1 X42.096 Y18.258 Z-1.500 F800.000 
G1 X42.387 Y19.610 Z-1.500 F800.000 
G1 X51.599 Y28.821 Z-1.500 F800.000 
G1 X51.699 Y29.983 Z-1.500 F800.000 
G1 X42.679 Y20.962 Z-1.500 F800.000 
G1 X42.970 Y22.314 Z-1.500 F800.000 
G1 X51.800 Y31.144 Z-1.500 F800.000 
G3 X51.877 Y32.281 Z-1.500 I-14.490 J1.545 F800.000 
G1 X43.261 Y23.666 Z-1.500 F800.000 
G1 X43.552 Y25.018 Z-1.500 F800.000 
G1 X51.930 Y33.395 Z-1.500 F800.000 
G1 X51.982 Y34.508 Z-1.500 F800.000 
G1 X43.825 Y26.351 Z-1.500 F800.000 
G1 X44.046 Y27.632 Z-1.500 F800.000 
G1 X52.035 Y35.622 Z-1.500 F800.000 
G1 X52.088 Y36.735 Z-1.500 F800.000 
G1 X44.267 Y28.914 Z-1.500 F800.000 
G1 X44.488 Y30.196 Z-1.500 F800.000 
G1 X52.141 Y37.849 Z-1.500 F800.000 
G1 X52.194 Y38.963 Z-1.500 F800.000 
G1 X44.709 Y31.477 Z-1.500 F800.000 
G1 X44.930 Y32.759 Z-1.500 F800.000 
G1 X52.247 Y40.076 Z-1.500 F800.000 
G1 X52.300 Y41.190 Z-1.500 F800.000 
G1 X45.151 Y34.040 Z-1.500 F800.000 
G1 X45.372 Y35.322 Z-1.500 F800.000 
G1 X52.353 Y42.303 Z-1.500 F800.000 
G1 X52.406 Y43.417 Z-1.500 F800.000 
G1 X45.592 Y36.604 Z-1.500 F800.000 
G1 X45.813 Y37.885 Z-1.500 F800.000 
G1 X52.459 Y44.530 Z-1.500 F800.000 
G1 X52.511 Y45.644 Z-1.500 F800.000 
G1 X46.034 Y39.167 Z-1.500 F800.000 
G1 X46.255 Y40.448 Z-1.500 F800.000 
G1 X52.542 Y46.735 Z-1.500 F800.000 
G1 X52.573 Y47.826 Z-1.500 F800.000 
G1 X46.469 Y41.723 Z-1.500 F800.000 
G1 X46.658 Y42.973 Z-1.500 F800.000 
G1 X52.603 Y48.917 Z-1.500 F800.000 
G1 X52.633 Y50.008 Z-1.500 F800.000 
G1 X46.847 Y44.222 Z-1.500 F800.000 
G1 X47.036 Y45.471 Z-1.500 F800.000 
G1 X52.663 Y51.099 Z-1.500 F800.000 
G1 X52.694 Y52.190 Z-1.500 F800.000 
G1 X47.224 Y46.721 Z-1.500 F800.000 
G1 X47.413 Y47.970 Z-1.500 F800.000 
G1 X52.724 Y53.281 Z-1.500 F800.000 
G1 X52.754 Y54.372 Z-1.500 F800.000 
G1 X47.602 Y49.220 Z-1.500 F800.000 
G1 X47.791 Y50.469 Z-1.500 F800.000 
G1 X52.785 Y55.463 Z-1.500 F800.000 
G3 X52.807 Y56.546 Z-1.500 I-48.948 J1.554 F800.000 
G1 X47.979 Y51.718 Z-1.500 F800.000 
G1 X48.168 Y52.968 Z-1.500 F800.000 
G1 X52.825 Y57.625 Z-1.500 F800.000 
G1 X52.843 Y58.703 Z-1.500 F800.000 
G1 X48.357 Y54.217 Z-1.500 F800.000 
G1 X48.546 Y55.467 Z-1.500 F800.000 
G1 X52.861 Y59.782 Z-1.500 F800.000 
G1 X52.879 Y60.861 Z-1.500 F800.000 
G1 X48.734 Y56.716 Z-1.500 F800.000 
G3 X48.923 Y57.965 Z-1.500 I-154.111 J23.884 F800.000 
G1 X52.897 Y61.939 Z-1.500 F800.000 
G1 X52.915 Y63.018 Z-1.500 F800.000 
G1 X49.105 Y59.208 Z-1.500 F800.000 
G1 X49.288 Y60.452 Z-1.500 F800.000 
G1 X52.933 Y64.097 Z-1.500 F800.000 
G1 X52.951 Y65.175 Z-1.500 F800.000 
G1 X49.471 Y61.695 Z-1.500 F800.000 
G1 X49.653 Y62.938 Z-1.500 F800.000 
G1 X52.969 Y66.254 Z-1.500 F800.000 
G3 X52.985 Y67.330 Z-1.500 I-22.074 J0.858 F800.000 
G1 X49.836 Y64.182 Z-1.500 F800.000 
G1 X50.019 Y65.425 Z-1.500 F800.000 
G1 X52.976 Y68.383 Z-1.500 F800.000 
G1 X52.968 Y69.435 Z-1.500 F800.000 
G1 X50.201 Y66.668 Z-1.500 F800.000 
G2 X50.399 Y67.926 Z-1.500 I30.080 J-4.072 F800.000 
G1 X52.960 Y70.488 Z-1.500 F800.000 
G1 X52.952 Y71.541 Z-1.500 F800.000 
G1 X50.613 Y69.202 Z-1.500 F800.000 
G1 X50.828 Y70.477 Z-1.500 F800.000 
G1 X52.944 Y72.593 Z-1.500 F800.000 
G1 X52.936 Y73.646 Z-1.500 F800.000 
G1 X51.043 Y71.752 Z-1.500 F800.000 
G1 X51.258 Y73.028 Z-1.500 F800.000 
G1 X52.930 Y74.700 Z-1.500 F800.000 
G1 X52.934 Y75.765 Z-1.500 F800.000 
G1 X51.495 Y74.325 Z-1.500 F800.000 
G3 X51.733 Y75.624 Z-1.500 I-136.750 J25.763 F800.000 
G1 X52.937 Y76.829 Z-1.500 F800.000 
G1 X52.941 Y77.893 Z-1.500 F800.000 
G1 X51.987 Y76.939 Z-1.500 F800.000 
G1 X52.250 Y78.263 Z-1.500 F800.000 
G1 X52.944 Y78.957 Z-1.500 F800.000 
G1 X52.948 Y80.021 Z-1.500 F800.000 
G1 X52.951 Y81.055 Z-1.500 F800.000 
G3 X52.568 Y79.642 Z-1.500 I20.751 J-6.385 F800.000 
G1 X52.948 Y80.021 Z-1.500 F800.000 
G1 X52.951 Y81.055 Z-1.500 F800.000 
G3 X51.540 Y74.569 Z-1.500 I56.082 J-15.597 F800.000 
G3 X50.301 Y67.348 Z-1.500 I293.022 J-53.996 F800.000 
G2 X46.428 Y41.452 Z-1.500 I-3173.304 J461.346 F800.000 
G2 X43.767 Y26.016 Z-1.500 I-1488.161 J248.608 F800.000 
G2 X43.763 Y25.993 Z-1.500 I-0.738 J0.135 F800.000 
G1 X41.813 Y16.943 Z-1.500 F800.000 
G2 X44.387 Y15.435 Z-1.500 I-1.486 J-5.487 F800.000 
G2 X44.787 Y14.474 Z-1.500 I-3.529 J-2.033 F800.000 
G3 X45.805 Y14.150 Z-1.500 I0.924 J1.140 F800.000 
G3 X46.435 Y14.146 Z-1.500 I0.330 J2.573 F800.000 
G2 X46.789 Y14.369 Z-1.500 I0.616 J-0.584 F800.000 
G2 X47.621 Y14.963 Z-1.500 I3.913 J-4.600 F800.000 
G2 X49.804 Y15.101 Z-1.500 I1.256 J-2.527 F800.000 
G2 X50.389 Y14.883 Z-1.500 I-0.327 J-1.772 F800.000 
G1 X51.850 Y31.715 Z-1.500 F800.000 
G1 X52.513 Y45.671 Z-1.500 F800.000 
G3 X52.985 Y67.232 Z-1.500 I-974.461 J32.144 F800.000 
G2 X52.948 Y80.021 Z-1.500 I581.522 J8.100 F800.000 
G0 Z5.000 
G0 X50.389 Y14.883 Z5.000 
G0 X50.389 Y14.883 Z3.000 
G1 X50.389 Y14.883 Z-2.000 F400.000 
G1 X50.490 Y16.045 Z-2.000 F800.000 
G1 X49.595 Y15.151 Z-2.000 F800.000 
G3 X48.634 Y15.250 Z-2.000 I-0.765 J-2.708 F800.000 
G1 X50.590 Y17.206 Z-2.000 F800.000 
G1 X50.691 Y18.368 Z-2.000 F800.000 
G1 X46.610 Y14.287 Z-2.000 F800.000 
G3 X46.427 Y14.137 Z-2.000 I0.427 J-0.709 F800.000 
G2 X45.440 Y14.177 Z-2.000 I-0.184 J7.709 F800.000 
G1 X50.792 Y19.529 Z-2.000 F800.000 
G1 X50.893 Y20.691 Z-2.000 F800.000 
G1 X44.754 Y14.552 Z-2.000 F800.000 
G3 X44.456 Y15.315 Z-2.000 I-5.994 J-1.905 F800.000 
G1 X50.994 Y21.852 Z-2.000 F800.000 
G1 X51.095 Y23.014 Z-2.000 F800.000 
G1 X43.924 Y15.843 Z-2.000 F800.000 
G3 X43.313 Y16.293 Z-2.000 I-3.027 J-3.467 F800.000 
G1 X51.195 Y24.175 Z-2.000 F800.000 
G1 X51.296 Y25.337 Z-2.000 F800.000 
G1 X42.620 Y16.661 Z-2.000 F800.000 
G3 X41.837 Y16.938 Z-2.000 I-1.702 J-3.554 F800.000 
G1 X51.397 Y26.498 Z-2.000 F800.000 
G1 X51.498 Y27.660 Z-2.000 F800.000 
G1 X42.096 Y18.258 Z-2.000 F800.000 
G1 X42.387 Y19.610 Z-2.000 F800.000 
G1 X51.599 Y28.821 Z-2.000 F800.000 
G1 X51.699 Y29.983 Z-2.000 F800.000 
G1 X42.679 Y20.962 Z-2.000 F800.000 
G1 X42.970 Y22.314 Z-2.000 F800.000 
G1 X51.800 Y31.144 Z-2.000 F800.000 
G3 X51.877 Y32.281 Z-2.000 I-14.490 J1.545 F800.000 
G1 X43.261 Y23.666 Z-2.000 F800.000 
G1 X43.552 Y25.018 Z-2.000 F800.000 
G1 X51.930 Y33.395 Z-2.000 F800.000 
G1 X51.982 Y34.508 Z-2.000 F800.000 
G1 X43.825 Y26.351 Z-2.000 F800.000 
G1 X44.046 Y27.632 Z-2.000 F800.000 
G1 X52.035 Y35.622 Z-2.000 F800.000 
G1 X52.088 Y36.735 Z-2.000 F800.000 
G1 X44.267 Y28.914 Z-2.000 F800.000 
G1 X44.488 Y30.196 Z-2.000 F800.000 
G1 X52.141 Y37.849 Z-2.000 F800.000 
G1 X52.194 Y38.963 Z-2.000 F800.000 
G1 X44.709 Y31.477 Z-2.000 F800.000 
G1 X44.930 Y32.759 Z-2.000 F800.000 
G1 X52.247 Y40.076 Z-2.000 F800.000 
G1 X52.300 Y41.190 Z-2.000 F800.000 
G1 X45.151 Y34.040 Z-2.000 F800.000 
G1 X45.372 Y35.322 Z-2.000 F800.000 
G1 X52.353 Y42.303 Z-2.000 F800.000 
G1 X52.406 Y43.417 Z-2.000 F800.000 
G1 X45.592 Y36.604 Z-2.000 F800.000 
G1 X45.813 Y37.885 Z-2.000 F800.000 
G1 X52.459 Y44.530 Z-2.000 F800.000 
G1 X52.511 Y45.644 Z-2.000 F800.000 
G1 X46.034 Y39.167 Z-2.000 F800.000 
G1 X46.255 Y40.448 Z-2.000 F800.000 
G1 X52.542 Y46.735 Z-2.000 F800.000 
G1 X52.573 Y47.826 Z-2.000 F800.000 
G1 X46.469 Y41.723 Z-2.000 F800.000 
G1 X46.658 Y42.973 Z-2.000 F800.000 
G1 X52.603 Y48.917 Z-2.000 F800.000 
G1 X52.633 Y50.008 Z-2.000 F800.000 
G1 X46.847 Y44.222 Z-2.000 F800.000 
G1 X47.036 Y45.471 Z-2.000 F800.000 
G1 X52.663 Y51.099 Z-2.000 F800.000 
G1 X52.694 Y52.190 Z-2.000 F800.000 
G1 X47.224 Y46.721 Z-2.000 F800.000 
G1 X47.413 Y47.970 Z-2.000 F800.000 
G1 X52.724 Y53.281 Z-2.000 F800.000 
G1 X52.754 Y54.372 Z-2.000 F800.000 
G1 X47.602 Y49.220 Z-2.000 F800.000 
G1 X47.791 Y50.469 Z-2.000 F800.000 
G1 X52.785 Y55.463 Z-2.000 F800.000 
G3 X52.807 Y56.546 Z-2.000 I-48.948 J1.554 F800.000 
G1 X47.979 Y51.718 Z-2.000 F800.000 
G1 X48.168 Y52.968 Z-2.000 F800.000 
G1 X52.825 Y57.625 Z-2.000 F800.000 
G1 X52.843 Y58.703 Z-2.000 F800.000 
G1 X48.357 Y54.217 Z-2.000 F800.000 
G1 X48.546 Y55.467 Z-2.000 F800.000 
G1 X52.861 Y59.782 Z-2.000 F800.000 
G1 X52.879 Y60.861 Z-2.000 F800.000 
G1 X48.734 Y56.716 Z-2.000 F800.000 
G3 X48.923 Y57.965 Z-2.000 I-154.111 J23.884 F800.000 
G1 X52.897 Y61.939 Z-2.000 F800.000 
G1 X52.915 Y63.018 Z-2.000 F800.000 
G1 X49.105 Y59.208 Z-2.000 F800.000 
G1 X49.288 Y60.452 Z-2.000 F800.000 
G1 X52.933 Y64.097 Z-2.000 F800.000 
G1 X52.951 Y65.175 Z-2.000 F800.000 
G1 X49.471 Y61.695 Z-2.000 F800.000 
G1 X49.653 Y62.938 Z-2.000 F800.000 
G1 X52.969 Y66.254 Z-2.000 F800.000 
G3 X52.985 Y67.330 Z-2.000 I-22.074 J0.858 F800.000 
G1 X49.836 Y64.182 Z-2.000 F800.000 
G1 X50.019 Y65.425 Z-2.000 F800.000 
G1 X52.976 Y68.383 Z-2.000 F800.000 
G1 X52.968 Y69.435 Z-2.000 F800.000 
G1 X50.201 Y66.668 Z-2.000 F800.000 
G2 X50.399 Y67.926 Z-2.000 I30.080 J-4.072 F800.000 
G1 X52.960 Y70.488 Z-2.000 F800.000 
G1 X52.952 Y71.541 Z-2.000 F800.000 
G1 X50.613 Y69.202 Z-2.000 F800.000 
G1 X50.828 Y70.477 Z-2.000 F800.000 
G1 X52.944 Y72.593 Z-2.000 F800.000 
G1 X52.936 Y73.646 Z-2.000 F800.000 
G1 X51.043 Y71.752 Z-2.000 F800.000 
G1 X51.258 Y73.028 Z-2.000 F800.000 
G1 X52.930 Y74.700 Z-2.000 F800.000 
G1 X52.934 Y75.765 Z-2.000 F800.000 
G1 X51.495 Y74.325 Z-2.000 F800.000 
G3 X51.733 Y75.624 Z-2.000 I-136.750 J25.763 F800.000 
G1 X52.937 Y76.829 Z-2.000 F800.000 
G1 X52.941 Y77.893 Z-2.000 F800.000 
G1 X51.987 Y76.939 Z-2.000 F800.000 
G1 X52.250 Y78.263 Z-2.000 F800.000 
G1 X52.944 Y78.957 Z-2.000 F800.000 
G1 X52.948 Y80.021 Z-2.000 F800.000 
G1 X52.951 Y81.055 Z-2.000 F800.000 
G3 X52.568 Y79.642 Z-2.000 I20.751 J-6.385 F800.000 
G1 X52.948 Y80.021 Z-2.000 F800.000 
G1 X52.951 Y81.055 Z-2.000 F800.000 
G3 X51.540 Y74.569 Z-2.000 I56.082 J-15.597 F800.000 
G3 X50.301 Y67.348 Z-2.000 I293.022 J-53.996 F800.000 
G2 X46.428 Y41.452 Z-2.000 I-3173.304 J461.346 F800.000 
G2 X43.767 Y26.016 Z-2.000 I-1488.161 J248.608 F800.000 
G2 X43.763 Y25.993 Z-2.000 I-0.738 J0.135 F800.000 
G1 X41.813 Y16.943 Z-2.000 F800.000 
G2 X44.387 Y15.435 Z-2.000 I-1.486 J-5.487 F800.000 
G2 X44.787 Y14.474 Z-2.000 I-3.529 J-2.033 F800.000 
G3 X45.805 Y14.150 Z-2.000 I0.924 J1.140 F800.000 
G3 X46.435 Y14.146 Z-2.000 I0.330 J2.573 F800.000 
G2 X46.789 Y14.369 Z-2.000 I0.616 J-0.584 F800.000 
G2 X47.621 Y14.963 Z-2.000 I3.913 J-4.600 F800.000 
G2 X49.804 Y15.101 Z-2.000 I1.256 J-2.527 F800.000 
G2 X50.389 Y14.883 Z-2.000 I-0.327 J-1.772 F800.000 
G1 X51.850 Y31.715 Z-2.000 F800.000 
G1 X52.513 Y45.671 Z-2.000 F800.000 
G3 X52.985 Y67.232 Z-2.000 I-974.461 J32.144 F800.000 
G2 X52.948 Y80.021 Z-2.000 I581.522 J8.100 F800.000 
G0 Z5.000 
G0 Z5.000 
G0 
G0 X64.678 Y15.974 
G0 X64.678 Y15.974 Z3.000 
G1 X64.678 Y15.974 Z-1.500 F400.000 
G1 X64.645 Y17.001 Z-1.500 F800.000 
G1 X63.707 Y16.063 Z-1.500 F800.000 
G3 X62.178 Y15.595 Z-1.500 I0.096 J-3.046 F800.000 
G1 X64.611 Y18.028 Z-1.500 F800.000 
G0 Z5.000 
G0 X61.205 Y14.622 Z5.000 
G0 X61.205 Y14.622 Z3.000 
G1 X61.205 Y14.622 Z-1.500 F400.000 
G3 X60.929 Y14.130 Z-1.500 I5.545 J-3.429 F800.000 
G2 X60.445 Y13.862 Z-1.500 I-0.793 J0.862 F800.000 
G1 X61.205 Y14.622 Z-1.500 F800.000 
G2 X62.178 Y15.595 Z-1.500 I2.829 J-1.856 F800.000 
G1 X64.611 Y18.028 Z-1.500 F800.000 
G1 X64.578 Y19.055 Z-1.500 F800.000 
G1 X59.389 Y13.867 Z-1.500 F800.000 
G2 X58.667 Y14.205 Z-1.500 I0.204 J1.377 F800.000 
G1 X64.544 Y20.082 Z-1.500 F800.000 
G1 X64.511 Y21.109 Z-1.500 F800.000 
G1 X58.019 Y14.617 Z-1.500 F800.000 
G3 X57.245 Y14.904 Z-1.500 I-1.444 J-2.711 F800.000 
G1 X64.477 Y22.136 Z-1.500 F800.000 
G1 X64.443 Y23.163 Z-1.500 F800.000 
G1 X56.295 Y15.015 Z-1.500 F800.000 
G3 X54.868 Y14.648 Z-1.500 I-0.093 J-2.599 F800.000 
G1 X64.395 Y24.176 Z-1.500 F800.000 
G1 X64.310 Y25.151 Z-1.500 F800.000 
G1 X52.646 Y13.487 Z-1.500 F800.000 
G1 X52.553 Y13.496 Z-1.500 F800.000 
G1 X52.630 Y14.532 Z-1.500 F800.000 
G1 X64.224 Y26.126 Z-1.500 F800.000 
G1 X64.139 Y27.101 Z-1.500 F800.000 
G1 X52.716 Y15.678 Z-1.500 F800.000 
G1 X52.801 Y16.824 Z-1.500 F800.000 
G1 X64.053 Y28.076 Z-1.500 F800.000 
G1 X63.967 Y29.051 Z-1.500 F800.000 
G1 X52.886 Y17.970 Z-1.500 F800.000 
G1 X52.971 Y19.116 Z-1.500 F800.000 
G1 X63.882 Y30.026 Z-1.500 F800.000 
G1 X63.796 Y31.001 Z-1.500 F800.000 
G1 X53.057 Y20.262 Z-1.500 F800.000 
G1 X53.142 Y21.408 Z-1.500 F800.000 
G1 X63.711 Y31.977 Z-1.500 F800.000 
G1 X63.625 Y32.952 Z-1.500 F800.000 
G1 X53.227 Y22.554 Z-1.500 F800.000 
G1 X53.312 Y23.700 Z-1.500 F800.000 
G1 X63.539 Y33.927 Z-1.500 F800.000 
G1 X63.454 Y34.902 Z-1.500 F800.000 
G1 X53.398 Y24.846 Z-1.500 F800.000 
G1 X53.483 Y25.992 Z-1.500 F800.000 
G1 X63.351 Y35.860 Z-1.500 F800.000 
G1 X63.233 Y36.803 Z-1.500 F800.000 
G1 X53.568 Y27.137 Z-1.500 F800.000 
G1 X53.653 Y28.283 Z-1.500 F800.000 
G1 X63.115 Y37.745 Z-1.500 F800.000 
G1 X62.997 Y38.688 Z-1.500 F800.000 
G1 X53.739 Y29.429 Z-1.500 F800.000 
G1 X53.824 Y30.575 Z-1.500 F800.000 
G1 X62.879 Y39.631 Z-1.500 F800.000 
G1 X62.761 Y40.573 Z-1.500 F800.000 
G1 X53.909 Y31.721 Z-1.500 F800.000 
G1 X53.994 Y32.867 Z-1.500 F800.000 
G1 X62.643 Y41.516 Z-1.500 F800.000 
G1 X62.525 Y42.458 Z-1.500 F800.000 
G1 X54.080 Y34.013 Z-1.500 F800.000 
G1 X54.165 Y35.159 Z-1.500 F800.000 
G1 X62.407 Y43.401 Z-1.500 F800.000 
G1 X62.289 Y44.344 Z-1.500 F800.000 
G1 X54.248 Y36.303 Z-1.500 F800.000 
G1 X54.288 Y37.403 Z-1.500 F800.000 
G1 X62.171 Y45.286 Z-1.500 F800.000 
G1 X62.053 Y46.229 Z-1.500 F800.000 
G1 X54.327 Y38.503 Z-1.500 F800.000 
G1 X54.366 Y39.603 Z-1.500 F800.000 
G1 X61.935 Y47.172 Z-1.500 F800.000 
G1 X61.817 Y48.114 Z-1.500 F800.000 
G1 X54.406 Y40.703 Z-1.500 F800.000 
G1 X54.445 Y41.803 Z-1.500 F800.000 
G1 X61.699 Y49.057 Z-1.500 F800.000 
G1 X61.581 Y50.000 Z-1.500 F800.000 
G1 X54.484 Y42.903 Z-1.500 F800.000 
G1 X54.524 Y44.003 Z-1.500 F800.000 
G1 X61.463 Y50.942 Z-1.500 F800.000 
G1 X61.345 Y51.885 Z-1.500 F800.000 
G1 X54.563 Y45.103 Z-1.500 F800.000 
G1 X54.602 Y46.203 Z-1.500 F800.000 
G1 X61.208 Y52.808 Z-1.500 F800.000 
G1 X61.051 Y53.713 Z-1.500 F800.000 
G1 X54.642 Y47.303 Z-1.500 F800.000 
G1 X54.681 Y48.403 Z-1.500 F800.000 
G1 X60.895 Y54.617 Z-1.500 F800.000 
G1 X60.739 Y55.522 Z-1.500 F800.000 
G1 X54.721 Y49.503 Z-1.500 F800.000 
G1 X54.760 Y50.603 Z-1.500 F800.000 
G1 X60.583 Y56.426 Z-1.500 F800.000 
G1 X60.427 Y57.331 Z-1.500 F800.000 
G1 X54.799 Y51.703 Z-1.500 F800.000 
G1 X54.839 Y52.803 Z-1.500 F800.000 
G1 X60.271 Y58.235 Z-1.500 F800.000 
G1 X60.115 Y59.140 Z-1.500 F800.000 
G1 X54.878 Y53.903 Z-1.500 F800.000 
G1 X54.917 Y55.003 Z-1.500 F800.000 
G1 X59.959 Y60.045 Z-1.500 F800.000 
G1 X59.803 Y60.949 Z-1.500 F800.000 
G1 X54.957 Y56.103 Z-1.500 F800.000 
G1 X54.996 Y57.203 Z-1.500 F800.000 
G1 X59.647 Y61.854 Z-1.500 F800.000 
G1 X59.491 Y62.758 Z-1.500 F800.000 
G1 X55.035 Y58.303 Z-1.500 F800.000 
G3 X55.069 Y59.398 Z-1.500 I-16.942 J1.075 F800.000 
G1 X59.335 Y63.663 Z-1.500 F800.000 
G1 X59.178 Y64.567 Z-1.500 F800.000 
G1 X55.072 Y60.461 Z-1.500 F800.000 
G1 X55.075 Y61.525 Z-1.500 F800.000 
G1 X59.022 Y65.472 Z-1.500 F800.000 
G3 X58.859 Y66.370 Z-1.500 I-9.974 J-1.347 F800.000 
G1 X55.078 Y62.589 Z-1.500 F800.000 
G1 X55.081 Y63.652 Z-1.500 F800.000 
G1 X58.668 Y67.239 Z-1.500 F800.000 
G1 X58.477 Y68.109 Z-1.500 F800.000 
G1 X55.084 Y64.716 Z-1.500 F800.000 
G1 X55.087 Y65.779 Z-1.500 F800.000 
G1 X58.286 Y68.978 Z-1.500 F800.000 
G1 X58.093 Y69.846 Z-1.500 F800.000 
G1 X55.090 Y66.843 Z-1.500 F800.000 
G1 X55.093 Y67.906 Z-1.500 F800.000 
G1 X57.900 Y70.714 Z-1.500 F800.000 
G1 X57.707 Y71.581 Z-1.500 F800.000 
G1 X55.096 Y68.970 Z-1.500 F800.000 
G1 X55.099 Y70.034 Z-1.500 F800.000 
G1 X57.507 Y72.442 Z-1.500 F800.000 
G1 X57.304 Y73.300 Z-1.500 F800.000 
G1 X55.101 Y71.097 Z-1.500 F800.000 
G1 X55.104 Y72.161 Z-1.500 F800.000 
G1 X57.102 Y74.158 Z-1.500 F800.000 
G1 X56.899 Y75.016 Z-1.500 F800.000 
G1 X55.107 Y73.224 Z-1.500 F800.000 
G1 X55.110 Y74.288 Z-1.500 F800.000 
G1 X56.697 Y75.875 Z-1.500 F800.000 
G1 X56.494 Y76.733 Z-1.500 F800.000 
G1 X55.113 Y75.351 Z-1.500 F800.000 
G1 X55.116 Y76.415 Z-1.500 F800.000 
G1 X56.278 Y77.577 Z-1.500 F800.000 
G1 X56.059 Y78.419 Z-1.500 F800.000 
G1 X55.119 Y77.479 Z-1.500 F800.000 
G3 X55.115 Y78.536 Z-1.500 I-65.091 J0.315 F800.000 
G1 X55.841 Y79.261 Z-1.500 F800.000 
G3 X55.620 Y80.101 Z-1.500 I-61.244 J-15.642 F800.000 
G1 X55.110 Y79.591 Z-1.500 F800.000 
G1 X55.104 Y80.646 Z-1.500 F800.000 
G1 X55.396 Y80.938 Z-1.500 F800.000 
G3 X55.167 Y81.769 Z-1.500 I-12.054 J-2.872 F800.000 
G1 X55.097 Y82.000 Z-1.500 F800.000 
G1 X55.098 Y81.701 Z-1.500 F800.000 
G1 X55.167 Y81.769 Z-1.500 F800.000 
G1 X55.097 Y82.000 Z-1.500 F800.000 
G2 X55.120 Y77.752 Z-1.500 I-346.228 J-3.998 F800.000 
G2 X55.069 Y59.249 Z-1.500 I-2240.950 J-3.122 F800.000 
G2 X55.069 Y59.230 Z-1.500 I-0.750 J0.008 F800.000 
G1 X54.247 Y36.271 Z-1.500 F800.000 
G2 X54.246 Y36.242 Z-1.500 I-0.750 J0.027 F800.000 
G1 X52.553 Y13.496 Z-1.500 F800.000 
G3 X54.014 Y13.951 Z-1.500 I0.374 J1.372 F800.000 
G2 X56.428 Y15.012 Z-1.500 I2.284 J-1.919 F800.000 
G2 X58.818 Y14.087 Z-1.500 I-0.069 J-3.727 F800.000 
G3 X59.961 Y13.772 Z-1.500 I1.226 J2.214 F800.000 
G3 X60.948 Y14.165 Z-1.500 I0.013 J1.403 F800.000 
G2 X64.437 Y16.002 Z-1.500 I2.880 J-1.238 F800.000 
G2 X64.678 Y15.974 Z-1.500 I-0.439 J-4.750 F800.000 
G1 X64.419 Y23.902 Z-1.500 F800.000 
G1 X63.413 Y35.372 Z-1.500 F800.000 
G1 X61.287 Y52.346 Z-1.500 F800.000 
G1 X58.897 Y66.199 Z-1.500 F800.000 
G3 X55.707 Y79.776 Z-1.500 I-305.418 J-64.602 F800.000 
G3 X55.167 Y81.769 Z-1.500 I-28.893 J-6.750 F800.000 
G0 Z5.000 
G0 X64.678 Y15.974 Z5.000 
G0 X64.678 Y15.974 Z3.000 
G1 X64.678 Y15.974 Z-2.000 F400.000 
G1 X64.645 Y17.001 Z-2.000 F800.000 
G1 X63.707 Y16.063 Z-2.000 F800.000 
G3 X62.178 Y15.595 Z-2.000 I0.096 J-3.046 F800.000 
G1 X64.611 Y18.028 Z-2.000 F800.000 
G0 Z5.000 
G0 X61.205 Y14.622 Z5.000 
G0 X61.205 Y14.622 Z3.000 
G1 X61.205 Y14.622 Z-2.000 F400.000 
G3 X60.929 Y14.130 Z-2.000 I5.545 J-3.429 F800.000 
G2 X60.445 Y13.862 Z-2.000 I-0.793 J0.862 F800.000 
G1 X61.205 Y14.622 Z-2.000 F800.000 
G2 X62.178 Y15.595 Z-2.000 I2.829 J-1.856 F800.000 
G1 X64.611 Y18.028 Z-2.000 F800.000 
G1 X64.578 Y19.055 Z-2.000 F800.000 
G1 X59.389 Y13.867 Z-2.000 F800.000 
G2 X58.667 Y14.205 Z-2.000 I0.204 J1.377 F800.000 
G1 X64.544 Y20.082 Z-2.000 F800.000 
G1 X64.511 Y21.109 Z-2.000 F800.000 
G1 X58.019 Y14.617 Z-2.000 F800.000 
G3 X57.245 Y14.904 Z-2.000 I-1.444 J-2.711 F800.000 
G1 X64.477 Y22.136 Z-2.000 F800.000 
G1 X64.443 Y23.163 Z-2.000 F800.000 
G1 X56.295 Y15.015 Z-2.000 F800.000 
G3 X54.868 Y14.648 Z-2.000 I-0.093 J-2.599 F800.000 
G1 X64.395 Y24.176 Z-2.000 F800.000 
G1 X64.310 Y25.151 Z-2.000 F800.000 
G1 X52.646 Y13.487 Z-2.000 F800.000 
G1 X52.553 Y13.496 Z-2.000 F800.000 
G1 X52.630 Y14.532 Z-2.000 F800.000 
G1 X64.224 Y26.126 Z-2.000 F800.000 
G1 X64.139 Y27.101 Z-2.000 F800.000 
G1 X52.716 Y15.678 Z-2.000 F800.000 
G1 X52.801 Y16.824 Z-2.000 F800.000 
G1 X64.053 Y28.076 Z-2.000 F800.000 
G1 X63.967 Y29.051 Z-2.000 F800.000 
G1 X52.886 Y17.970 Z-2.000 F800.000 
G1 X52.971 Y19.116 Z-2.000 F800.000 
G1 X63.882 Y30.026 Z-2.000 F800.000 
G1 X63.796 Y31.001 Z-2.000 F800.000 
G1 X53.057 Y20.262 Z-2.000 F800.000 
G1 X53.142 Y21.408 Z-2.000 F800.000 
G1 X63.711 Y31.977 Z-2.000 F800.000 
G1 X63.625 Y32.952 Z-2.000 F800.000 
G1 X53.227 Y22.554 Z-2.000 F800.000 
G1 X53.312 Y23.700 Z-2.000 F800.000 
G1 X63.539 Y33.927 Z-2.000 F800.000 
G1 X63.454 Y34.902 Z-2.000 F800.000 
G1 X53.398 Y24.846 Z-2.000 F800.000 
G1 X53.483 Y25.992 Z-2.000 F800.000 
G1 X63.351 Y35.860 Z-2.000 F800.000 
G1 X63.233 Y36.803 Z-2.000 F800.000 
G1 X53.568 Y27.137 Z-2.000 F800.000 
G1 X53.653 Y28.283 Z-2.000 F800.000 
G1 X63.115 Y37.745 Z-2.000 F800.000 
G1 X62.997 Y38.688 Z-2.000 F800.000 
G1 X53.739 Y29.429 Z-2.000 F800.000 
G1 X53.824 Y30.575 Z-2.000 F800.000 
G1 X62.879 Y39.631 Z-2.000 F800.000 
G1 X62.761 Y40.573 Z-2.000 F800.000 
G1 X53.909 Y31.721 Z-2.000 F800.000 
G1 X53.994 Y32.867 Z-2.000 F800.000 
G1 X62.643 Y41.516 Z-2.000 F800.000 
G1 X62.525 Y42.458 Z-2.000 F800.000 
G1 X54.080 Y34.013 Z-2.000 F800.000 
G1 X54.165 Y35.159 Z-2.000 F800.000 
G1 X62.407 Y43.401 Z-2.000 F800.000 
G1 X62.289 Y44.344 Z-2.000 F800.000 
G1 X54.248 Y36.303 Z-2.000 F800.000 
G1 X54.288 Y37.403 Z-2.000 F800.000 
G1 X62.171 Y45.286 Z-2.000 F800.000 
G1 X62.053 Y46.229 Z-2.000 F800.000 
G1 X54.327 Y38.503 Z-2.000 F800.000 
G1 X54.366 Y39.603 Z-2.000 F800.000 
G1 X61.935 Y47.172 Z-2.000 F800.000 
G1 X61.817 Y48.114 Z-2.000 F800.000 
G1 X54.406 Y40.703 Z-2.000 F800.000 
G1 X54.445 Y41.803 Z-2.000 F800.000 
G1 X61.699 Y49.057 Z-2.000 F800.000 
G1 X61.581 Y50.000 Z-2.000 F800.000 
G1 X54.484 Y42.903 Z-2.000 F800.000 
G1 X54.524 Y44.003 Z-2.000 F800.000 
G1 X61.463 Y50.942 Z-2.000 F800.000 
G1 X61.345 Y51.885 Z-2.000 F800.000 
G1 X54.563 Y45.103 Z-2.000 F800.000 
G1 X54.602 Y46.203 Z-2.000 F800.000 
G1 X61.208 Y52.808 Z-2.000 F800.000 
G1 X61.051 Y53.713 Z-2.000 F800.000 
G1 X54.642 Y47.303 Z-2.000 F800.000 
G1 X54.681 Y48.403 Z-2.000 F800.000 
G1 X60.895 Y54.617 Z-2.000 F800.000 
G1 X60.739 Y55.522 Z-2.000 F800.000 
G1 X54.721 Y49.503 Z-2.000 F800.000 
G1 X54.760 Y50.603 Z-2.000 F800.000 
G1 X60.583 Y56.426 Z-2.000 F800.000 
G1 X60.427 Y57.331 Z-2.000 F800.000 
G1 X54.799 Y51.703 Z-2.000 F800.000 
G1 X54.839 Y52.803 Z-2.000 F800.000 
G1 X60.271 Y58.235 Z-2.000 F800.000 
G1 X60.115 Y59.140 Z-2.000 F800.000 
G1 X54.878 Y53.903 Z-2.000 F800.000 
G1 X54.917 Y55.003 Z-2.000 F800.000 
G1 X59.959 Y60.045 Z-2.000 F800.000 
G1 X59.803 Y60.949 Z-2.000 F800.000 
G1 X54.957 Y56.103 Z-2.000 F800.000 
G1 X54.996 Y57.203 Z-2.000 F800.000 
G1 X59.647 Y61.854 Z-2.000 F800.000 
G1 X59.491 Y62.758 Z-2.000 F800.000 
G1 X55.035 Y58.303 Z-2.000 F800.000 
G3 X55.069 Y59.398 Z-2.000 I-16.942 J1.075 F800.000 
G1 X59.335 Y63.663 Z-2.000 F800.000 
G1 X59.178 Y64.567 Z-2.000 F800.000 
G1 X55.072 Y60.461 Z-2.000 F800.000 
G1 X55.075 Y61.525 Z-2.000 F800.000 
G1 X59.022 Y65.472 Z-2.000 F800.000 
G3 X58.859 Y66.370 Z-2.000 I-9.974 J-1.347 F800.000 
G1 X55.078 Y62.589 Z-2.000 F800.000 
G1 X55.081 Y63.652 Z-2.000 F800.000 
G1 X58.668 Y67.239 Z-2.000 F800.000 
G1 X58.477 Y68.109 Z-2.000 F800.000 
G1 X55.084 Y64.716 Z-2.000 F800.000 
G1 X55.087 Y65.779 Z-2.000 F800.000 
G1 X58.286 Y68.978 Z-2.000 F800.000 
G1 X58.093 Y69.846 Z-2.000 F800.000 
G1 X55.090 Y66.843 Z-2.000 F800.000 
G1 X55.093 Y67.906 Z-2.000 F800.000 
G1 X57.900 Y70.714 Z-2.000 F800.000 
G1 X57.707 Y71.581 Z-2.000 F800.000 
G1 X55.096 Y68.970 Z-2.000 F800.000 
G1 X55.099 Y70.034 Z-2.000 F800.000 
G1 X57.507 Y72.442 Z-2.000 F800.000 
G1 X57.304 Y73.300 Z-2.000 F800.000 
G1 X55.101 Y71.097 Z-2.000 F800.000 
G1 X55.104 Y72.161 Z-2.000 F800.000 
G1 X57.102 Y74.158 Z-2.000 F800.000 
G1 X56.899 Y75.016 Z-2.000 F800.000 
G1 X55.107 Y73.224 Z-2.000 F800.000 
G1 X55.110 Y74.288 Z-2.000 F800.000 
G1 X56.697 Y75.875 Z-2.000 F800.000 
G1 X56.494 Y76.733 Z-2.000 F800.000 
G1 X55.113 Y75.351 Z-2.000 F800.000 
G1 X55.116 Y76.415 Z-2.000 F800.000 
G1 X56.278 Y77.577 Z-2.000 F800.000 
G1 X56.059 Y78.419 Z-2.000 F800.000 
G1 X55.119 Y77.479 Z-2.000 F800.000 
G3 X55.115 Y78.536 Z-2.000 I-65.091 J0.315 F800.000 
G1 X55.841 Y79.261 Z-2.000 F800.000 
G3 X55.620 Y80.101 Z-2.000 I-61.244 J-15.642 F800.000 
G1 X55.110 Y79.591 Z-2.000 F800.000 
G1 X55.104 Y80.646 Z-2.000 F800.000 
G1 X55.396 Y80.938 Z-2.000 F800.000 
G3 X55.167 Y81.769 Z-2.000 I-12.054 J-2.872 F800.000 
G1 X55.097 Y82.000 Z-2.000 F800.000 
G1 X55.098 Y81.701 Z-2.000 F800.000 
G1 X55.167 Y81.769 Z-2.000 F800.000 
G1 X55.097 Y82.000 Z-2.000 F800.000 
G2 X55.120 Y77.752 Z-2.000 I-346.228 J-3.998 F800.000 
G2 X55.069 Y59.249 Z-2.000 I-2240.950 J-3.122 F800.000 
G2 X55.069 Y59.230 Z-2.000 I-0.750 J0.008 F800.000 
G1 X54.247 Y36.271 Z-2.000 F800.000 
G2 X54.246 Y36.242 Z-2.000 I-0.750 J0.027 F800.000 
G1 X52.553 Y13.496 Z-2.000 F800.000 
G3 X54.014 Y13.951 Z-2.000 I0.374 J1.372 F800.000 
G2 X56.428 Y15.012 Z-2.000 I2.284 J-1.919 F800.000 
G2 X58.818 Y14.087 Z-2.000 I-0.069 J-3.727 F800.000 
G3 X59.961 Y13.772 Z-2.000 I1.226 J2.214 F800.000 
G3 X60.948 Y14.165 Z-2.000 I0.013 J1.403 F800.000 
G2 X64.437 Y16.002 Z-2.000 I2.880 J-1.238 F800.000 
G2 X64.678 Y15.974 Z-2.000 I-0.439 J-4.750 F800.000 
G1 X64.419 Y23.902 Z-2.000 F800.000 
G1 X63.413 Y35.372 Z-2.000 F800.000 
G1 X61.287 Y52.346 Z-2.000 F800.000 
G1 X58.897 Y66.199 Z-2.000 F800.000 
G3 X55.707 Y79.776 Z-2.000 I-305.418 J-64.602 F800.000 
G3 X55.167 Y81.769 Z-2.000 I-28.893 J-6.750 F800.000 
G0 Z5.000 
G0 Z5.000 
G0 
G0 X74.684 Y18.322 
G0 X74.684 Y18.322 Z3.000 
G1 X74.684 Y18.322 Z-1.500 F400.000 
G3 X74.801 Y18.610 Z-1.500 I-0.459 J0.354 F800.000 
G2 X75.042 Y19.740 Z-1.500 I3.217 J-0.094 F800.000 
G1 X73.008 Y17.706 Z-1.500 F800.000 
G0 Z5.000 
G0 X76.409 Y21.107 Z5.000 
G0 X76.409 Y21.107 Z3.000 
G1 X76.409 Y21.107 Z-1.500 F400.000 
G2 X77.717 Y21.491 Z-1.500 I1.910 J-4.088 F800.000 
G1 X77.573 Y22.271 Z-1.500 F800.000 
G1 X76.409 Y21.107 Z-1.500 F800.000 
G3 X75.042 Y19.740 Z-1.500 I0.971 J-2.338 F800.000 
G1 X73.008 Y17.706 Z-1.500 F800.000 
G3 X72.140 Y17.899 Z-1.500 I-6.445 J-26.988 F800.000 
G1 X77.408 Y23.167 Z-1.500 F800.000 
G1 X77.242 Y24.062 Z-1.500 F800.000 
G1 X71.238 Y18.058 Z-1.500 F800.000 
G3 X69.912 Y17.792 Z-1.500 I-0.090 J-2.996 F800.000 
G1 X77.077 Y24.958 Z-1.500 F800.000 
G0 Z5.000 
G0 X68.206 Y16.086 Z5.000 
G0 X68.206 Y16.086 Z3.000 
G1 X68.206 Y16.086 Z-1.500 F400.000 
G3 X68.105 Y15.774 Z-1.500 I1.244 J-0.574 F800.000 
G2 X67.479 Y15.359 Z-1.500 I-0.892 J0.667 F800.000 
G1 X68.206 Y16.086 Z-1.500 F800.000 
G2 X69.189 Y17.407 Z-1.500 I2.982 J-1.192 F800.000 
G2 X69.912 Y17.792 Z-1.500 I3.049 J-4.858 F800.000 
G1 X77.077 Y24.958 Z-1.500 F800.000 
G1 X76.912 Y25.853 Z-1.500 F800.000 
G1 X66.887 Y15.828 Z-1.500 F800.000 
G1 X66.845 Y16.847 Z-1.500 F800.000 
G1 X76.747 Y26.748 Z-1.500 F800.000 
G1 X76.581 Y27.644 Z-1.500 F800.000 
G1 X66.802 Y17.865 Z-1.500 F800.000 
G1 X66.760 Y18.883 Z-1.500 F800.000 
G1 X76.416 Y28.539 Z-1.500 F800.000 
G1 X76.251 Y29.434 Z-1.500 F800.000 
G1 X66.718 Y19.901 Z-1.500 F800.000 
G1 X66.675 Y20.919 Z-1.500 F800.000 
G1 X76.085 Y30.330 Z-1.500 F800.000 
G3 X75.905 Y31.210 Z-1.500 I-9.046 J-1.399 F800.000 
G1 X66.633 Y21.937 Z-1.500 F800.000 
G1 X66.590 Y22.956 Z-1.500 F800.000 
G1 X75.702 Y32.068 Z-1.500 F800.000 
G1 X75.500 Y32.926 Z-1.500 F800.000 
G1 X66.548 Y23.974 Z-1.500 F800.000 
G3 X66.503 Y24.990 Z-1.500 I-13.893 J-0.095 F800.000 
G1 X75.297 Y33.784 Z-1.500 F800.000 
G1 X75.095 Y34.642 Z-1.500 F800.000 
G1 X66.423 Y25.971 Z-1.500 F800.000 
G1 X66.343 Y26.951 Z-1.500 F800.000 
G1 X74.892 Y35.501 Z-1.500 F800.000 
G1 X74.690 Y36.359 Z-1.500 F800.000 
G1 X66.262 Y27.931 Z-1.500 F800.000 
G1 X66.182 Y28.911 Z-1.500 F800.000 
G1 X74.487 Y37.217 Z-1.500 F800.000 
G1 X74.285 Y38.075 Z-1.500 F800.000 
G1 X66.100 Y29.891 Z-1.500 F800.000 
G1 X66.014 Y30.865 Z-1.500 F800.000 
G1 X74.082 Y38.933 Z-1.500 F800.000 
G1 X73.880 Y39.792 Z-1.500 F800.000 
G1 X65.927 Y31.839 Z-1.500 F800.000 
G2 X65.841 Y32.813 Z-1.500 I319.345 J28.824 F800.000 
G1 X73.670 Y40.642 Z-1.500 F800.000 
G1 X73.448 Y41.481 Z-1.500 F800.000 
G1 X65.756 Y33.789 Z-1.500 F800.000 
G2 X65.671 Y34.764 Z-1.500 I149.817 J13.532 F800.000 
G1 X73.225 Y42.319 Z-1.500 F800.000 
G1 X73.002 Y43.157 Z-1.500 F800.000 
G1 X65.588 Y35.742 Z-1.500 F800.000 
G3 X65.476 Y36.691 Z-1.500 I-13.485 J-1.115 F800.000 
G1 X72.780 Y43.995 Z-1.500 F800.000 
G1 X72.557 Y44.833 Z-1.500 F800.000 
G1 X65.361 Y37.637 Z-1.500 F800.000 
G1 X65.246 Y38.582 Z-1.500 F800.000 
G1 X72.335 Y45.671 Z-1.500 F800.000 
G1 X72.112 Y46.509 Z-1.500 F800.000 
G1 X65.131 Y39.528 Z-1.500 F800.000 
G1 X65.016 Y40.473 Z-1.500 F800.000 
G1 X71.890 Y47.347 Z-1.500 F800.000 
G1 X71.667 Y48.185 Z-1.500 F800.000 
G1 X64.901 Y41.419 Z-1.500 F800.000 
G1 X64.786 Y42.365 Z-1.500 F800.000 
G1 X71.444 Y49.023 Z-1.500 F800.000 
G1 X71.222 Y49.861 Z-1.500 F800.000 
G1 X64.671 Y43.310 Z-1.500 F800.000 
G1 X64.556 Y44.256 Z-1.500 F800.000 
G1 X70.999 Y50.699 Z-1.500 F800.000 
G2 X70.781 Y51.541 Z-1.500 I71.005 J18.897 F800.000 
G1 X64.441 Y45.202 Z-1.500 F800.000 
G1 X64.326 Y46.147 Z-1.500 F800.000 
G1 X70.562 Y52.384 Z-1.500 F800.000 
G1 X70.344 Y53.226 Z-1.500 F800.000 
G1 X64.211 Y47.093 Z-1.500 F800.000 
G1 X64.096 Y48.038 Z-1.500 F800.000 
G1 X70.126 Y54.068 Z-1.500 F800.000 
G1 X69.907 Y54.911 Z-1.500 F800.000 
G1 X63.981 Y48.984 Z-1.500 F800.000 
G3 X63.861 Y49.925 Z-1.500 I-12.422 J-1.100 F800.000 
G1 X69.689 Y55.753 Z-1.500 F800.000 
G3 X69.470 Y56.595 Z-1.500 I-2750.855 J-712.977 F800.000 
G1 X63.713 Y50.838 Z-1.500 F800.000 
G1 X63.566 Y51.751 Z-1.500 F800.000 
G1 X69.252 Y57.437 Z-1.500 F800.000 
G1 X69.034 Y58.280 Z-1.500 F800.000 
G1 X63.418 Y52.664 Z-1.500 F800.000 
G1 X63.270 Y53.577 Z-1.500 F800.000 
G1 X68.815 Y59.122 Z-1.500 F800.000 
G1 X68.597 Y59.964 Z-1.500 F800.000 
G1 X63.123 Y54.490 Z-1.500 F800.000 
G1 X62.975 Y55.403 Z-1.500 F800.000 
G1 X68.369 Y60.797 Z-1.500 F800.000 
G1 X68.121 Y61.610 Z-1.500 F800.000 
G1 X62.827 Y56.316 Z-1.500 F800.000 
G1 X62.679 Y57.229 Z-1.500 F800.000 
G1 X67.873 Y62.422 Z-1.500 F800.000 
G1 X67.625 Y63.235 Z-1.500 F800.000 
G1 X62.532 Y58.142 Z-1.500 F800.000 
G1 X62.384 Y59.055 Z-1.500 F800.000 
G1 X67.378 Y64.048 Z-1.500 F800.000 
G1 X67.130 Y64.861 Z-1.500 F800.000 
G1 X62.236 Y59.968 Z-1.500 F800.000 
G1 X62.089 Y60.881 Z-1.500 F800.000 
G1 X66.870 Y65.662 Z-1.500 F800.000 
G1 X66.586 Y66.439 Z-1.500 F800.000 
G1 X61.930 Y61.782 Z-1.500 F800.000 
G1 X61.752 Y62.665 Z-1.500 F800.000 
G1 X66.303 Y67.216 Z-1.500 F800.000 
G1 X66.019 Y67.993 Z-1.500 F800.000 
G1 X61.574 Y63.548 Z-1.500 F800.000 
G1 X61.396 Y64.431 Z-1.500 F800.000 
G1 X65.735 Y68.770 Z-1.500 F800.000 
G1 X65.452 Y69.547 Z-1.500 F800.000 
G1 X61.218 Y65.314 Z-1.500 F800.000 
G1 X61.040 Y66.196 Z-1.500 F800.000 
G1 X65.143 Y70.299 Z-1.500 F800.000 
G1 X64.826 Y71.043 Z-1.500 F800.000 
G1 X60.862 Y67.079 Z-1.500 F800.000 
G1 X60.685 Y67.962 Z-1.500 F800.000 
G1 X64.510 Y71.787 Z-1.500 F800.000 
G1 X64.193 Y72.531 Z-1.500 F800.000 
G1 X60.507 Y68.845 Z-1.500 F800.000 
G1 X60.329 Y69.728 Z-1.500 F800.000 
G1 X63.877 Y73.275 Z-1.500 F800.000 
G1 X63.560 Y74.019 Z-1.500 F800.000 
G1 X60.151 Y70.610 Z-1.500 F800.000 
G3 X59.966 Y71.486 Z-1.500 I-18.123 J-3.376 F800.000 
G1 X61.491 Y73.011 Z-1.500 F800.000 
G2 X61.066 Y73.646 Z-1.500 I0.790 J0.988 F800.000 
G1 X59.770 Y72.350 Z-1.500 F800.000 
G1 X59.573 Y73.214 Z-1.500 F800.000 
G1 X60.745 Y74.386 Z-1.500 F800.000 
G2 X60.437 Y75.139 Z-1.500 I76.950 J31.823 F800.000 
G1 X59.377 Y74.079 Z-1.500 F800.000 
G1 X59.181 Y74.943 Z-1.500 F800.000 
G1 X60.130 Y75.892 Z-1.500 F800.000 
G1 X59.817 Y76.640 Z-1.500 F800.000 
G1 X58.984 Y75.807 Z-1.500 F800.000 
G1 X58.788 Y76.672 Z-1.500 F800.000 
G1 X59.504 Y77.388 Z-1.500 F800.000 
G1 X59.191 Y78.136 Z-1.500 F800.000 
G1 X58.592 Y77.536 Z-1.500 F800.000 
G1 X58.395 Y78.400 Z-1.500 F800.000 
G1 X58.878 Y78.884 Z-1.500 F800.000 
G3 X58.541 Y79.607 Z-1.500 I-4.663 J-1.734 F800.000 
G1 X58.196 Y79.261 Z-1.500 F800.000 
G1 X57.974 Y80.100 Z-1.500 F800.000 
G1 X58.180 Y80.307 Z-1.500 F800.000 
G1 X57.819 Y81.006 Z-1.500 F800.000 
G1 X57.752 Y80.939 Z-1.500 F800.000 
G1 X57.644 Y81.345 Z-1.500 F800.000 
G1 X57.819 Y81.006 Z-1.500 F800.000 
G0 Z5.000 
G0 X62.583 Y74.103 Z5.000 
G0 X62.583 Y74.103 Z3.000 
G1 X62.583 Y74.103 Z-1.500 F400.000 
G1 X63.244 Y74.763 Z-1.500 F800.000 
G3 X62.907 Y75.488 Z-1.500 I-4.299 J-1.553 F800.000 
G1 X62.392 Y74.973 Z-1.500 F800.000 
G1 X62.145 Y75.786 Z-1.500 F800.000 
G1 X62.539 Y76.180 Z-1.500 F800.000 
G1 X62.170 Y76.872 Z-1.500 F800.000 
G1 X61.856 Y76.558 Z-1.500 F800.000 
G1 X61.564 Y77.327 Z-1.500 F800.000 
G1 X61.801 Y77.564 Z-1.500 F800.000 
G1 X61.432 Y78.256 Z-1.500 F800.000 
G1 X61.272 Y78.096 Z-1.500 F800.000 
G1 X60.980 Y78.864 Z-1.500 F800.000 
G1 X61.064 Y78.947 Z-1.500 F800.000 
G3 X60.708 Y79.521 Z-1.500 I-2.519 J-1.164 F800.000 
G2 X60.980 Y78.864 Z-1.500 I-6.620 J-3.130 F800.000 
G2 X62.125 Y75.849 Z-1.500 I-59.092 J-24.161 F800.000 
G2 X62.631 Y73.729 Z-1.500 I-7.940 J-3.016 F800.000 
G2 X61.199 Y73.342 Z-1.500 I-0.745 J-0.085 F800.000 
G2 X58.724 Y79.253 Z-1.500 I263.148 J113.687 F800.000 
G1 X57.644 Y81.345 Z-1.500 F800.000 
G2 X58.228 Y79.138 Z-1.500 I-41.404 J-12.128 F800.000 
G2 X60.044 Y71.143 Z-1.500 I-434.271 J-102.841 F800.000 
G2 X61.994 Y61.461 Z-1.500 I-788.408 J-163.882 F800.000 
G2 X61.998 Y61.440 Z-1.500 I-0.737 J-0.141 F800.000 
G2 X63.880 Y49.806 Z-1.500 I-1181.210 J-197.083 F800.000 
G2 X63.883 Y49.784 Z-1.500 I-0.742 J-0.112 F800.000 
G2 X65.580 Y35.834 Z-1.500 I-1509.198 J-190.656 F800.000 
G2 X66.508 Y24.930 Z-1.500 I-1386.057 J-123.376 F800.000 
G1 X66.914 Y15.201 Z-1.500 F800.000 
G3 X68.015 Y15.657 Z-1.500 I-0.208 J2.060 F800.000 
G3 X68.160 Y15.973 Z-1.500 I-1.135 J0.712 F800.000 
G2 X69.189 Y17.407 Z-1.500 I3.069 J-1.116 F800.000 
G2 X71.306 Y18.049 Z-1.500 I1.979 J-2.715 F800.000 
G2 X73.442 Y17.612 Z-1.500 I-6.851 J-38.849 F800.000 
G3 X74.721 Y18.370 Z-1.500 I-1.441 J3.889 F800.000 
G3 X74.801 Y18.610 Z-1.500 I-0.644 J0.350 F800.000 
G2 X76.342 Y21.082 Z-1.500 I2.665 J0.056 F800.000 
G2 X77.717 Y21.491 Z-1.500 I2.002 J-4.221 F800.000 
G1 X75.988 Y30.854 Z-1.500 F800.000 
G1 X73.751 Y40.337 Z-1.500 F800.000 
G2 X68.449 Y60.534 Z-1.500 I1711.743 J460.196 F800.000 
G1 X66.963 Y65.408 Z-1.500 F800.000 
G1 X65.384 Y69.732 Z-1.500 F800.000 
G1 X63.045 Y75.230 Z-1.500 F800.000 
G1 X60.915 Y79.226 Z-1.500 F800.000 
G1 X60.708 Y79.521 Z-1.500 F800.000 
G2 X60.980 Y78.864 Z-1.500 I-6.620 J-3.130 F800.000 
G0 Z5.000 
G0 X74.684 Y18.322 Z5.000 
G0 X74.684 Y18.322 Z3.000 
G1 X74.684 Y18.322 Z-2.000 F400.000 
G3 X74.801 Y18.610 Z-2.000 I-0.459 J0.354 F800.000 
G2 X75.042 Y19.740 Z-2.000 I3.217 J-0.094 F800.000 
G1 X73.008 Y17.706 Z-2.000 F800.000 
G0 Z5.000 
G0 X76.409 Y21.107 Z5.000 
G0 X76.409 Y21.107 Z3.000 
G1 X76.409 Y21.107 Z-2.000 F400.000 
G2 X77.717 Y21.491 Z-2.000 I1.910 J-4.088 F800.000 
G1 X77.573 Y22.271 Z-2.000 F800.000 
G1 X76.409 Y21.107 Z-2.000 F800.000 
G3 X75.042 Y19.740 Z-2.000 I0.971 J-2.338 F800.000 
G1 X73.008 Y17.706 Z-2.000 F800.000 
G3 X72.140 Y17.899 Z-2.000 I-6.445 J-26.988 F800.000 
G1 X77.408 Y23.167 Z-2.000 F800.000 
G1 X77.242 Y24.062 Z-2.000 F800.000 
G1 X71.238 Y18.058 Z-2.000 F800.000 
G3 X69.912 Y17.792 Z-2.000 I-0.090 J-2.996 F800.000 
G1 X77.077 Y24.958 Z-2.000 F800.000 
G0 Z5.000 
G0 X68.206 Y16.086 Z5.000 
G0 X68.206 Y16.086 Z3.000 
G1 X68.206 Y16.086 Z-2.000 F400.000 
G3 X68.105 Y15.774 Z-2.000 I1.244 J-0.574 F800.000 
G2 X67.479 Y15.359 Z-2.000 I-0.892 J0.667 F800.000 
G1 X68.206 Y16.086 Z-2.000 F800.000 
G2 X69.189 Y17.407 Z-2.000 I2.982 J-1.192 F800.000 
G2 X69.912 Y17.792 Z-2.000 I3.049 J-4.858 F800.000 
G1 X77.077 Y24.958 Z-2.000 F800.000 
G1 X76.912 Y25.853 Z-2.000 F800.000 
G1 X66.887 Y15.828 Z-2.000 F800.000 
G1 X66.845 Y16.847 Z-2.000 F800.000 
G1 X76.747 Y26.748 Z-2.000 F800.000 
G1 X76.581 Y27.644 Z-2.000 F800.000 
G1 X66.802 Y17.865 Z-2.000 F800.000 
G1 X66.760 Y18.883 Z-2.000 F800.000 
G1 X76.416 Y28.539 Z-2.000 F800.000 
G1 X76.251 Y29.434 Z-2.000 F800.000 
G1 X66.718 Y19.901 Z-2.000 F800.000 
G1 X66.675 Y20.919 Z-2.000 F800.000 
G1 X76.085 Y30.330 Z-2.000 F800.000 
G3 X75.905 Y31.210 Z-2.000 I-9.046 J-1.399 F800.000 
G1 X66.633 Y21.937 Z-2.000 F800.000 
G1 X66.590 Y22.956 Z-2.000 F800.000 
G1 X75.702 Y32.068 Z-2.000 F800.000 
G1 X75.500 Y32.926 Z-2.000 F800.000 
G1 X66.548 Y23.974 Z-2.000 F800.000 
G3 X66.503 Y24.990 Z-2.000 I-13.893 J-0.095 F800.000 
G1 X75.297 Y33.784 Z-2.000 F800.000 
G1 X75.095 Y34.642 Z-2.000 F800.000 
G1 X66.423 Y25.971 Z-2.000 F800.000 
G1 X66.343 Y26.951 Z-2.000 F800.000 
G1 X74.892 Y35.501 Z-2.000 F800.000 
G1 X74.690 Y36.359 Z-2.000 F800.000 
G1 X66.262 Y27.931 Z-2.000 F800.000 
G1 X66.182 Y28.911 Z-2.000 F800.000 
G1 X74.487 Y37.217 Z-2.000 F800.000 
G1 X74.285 Y38.075 Z-2.000 F800.000 
G1 X66.100 Y29.891 Z-2.000 F800.000 
G1 X66.014 Y30.865 Z-2.000 F800.000 
G1 X74.082 Y38.933 Z-2.000 F800.000 
G1 X73.880 Y39.792 Z-2.000 F800.000 
G1 X65.927 Y31.839 Z-2.000 F800.000 
G2 X65.841 Y32.813 Z-2.000 I319.345 J28.824 F800.000 
G1 X73.670 Y40.642 Z-2.000 F800.000 
G1 X73.448 Y41.481 Z-2.000 F800.000 
G1 X65.756 Y33.789 Z-2.000 F800.000 
G2 X65.671 Y34.764 Z-2.000 I149.817 J13.532 F800.000 
G1 X73.225 Y42.319 Z-2.000 F800.000 
G1 X73.002 Y43.157 Z-2.000 F800.000 
G1 X65.588 Y35.742 Z-2.000 F800.000 
G3 X65.476 Y36.691 Z-2.000 I-13.485 J-1.115 F800.000 
G1 X72.780 Y43.995 Z-2.000 F800.000 
G1 X72.557 Y44.833 Z-2.000 F800.000 
G1 X65.361 Y37.637 Z-2.000 F800.000 
G1 X65.246 Y38.582 Z-2.000 F800.000 
G1 X72.335 Y45.671 Z-2.000 F800.000 
G1 X72.112 Y46.509 Z-2.000 F800.000 
G1 X65.131 Y39.528 Z-2.000 F800.000 
G1 X65.016 Y40.473 Z-2.000 F800.000 
G1 X71.890 Y47.347 Z-2.000 F800.000 
G1 X71.667 Y48.185 Z-2.000 F800.000 
G1 X64.901 Y41.419 Z-2.000 F800.000 
G1 X64.786 Y42.365 Z-2.000 F800.000 
G1 X71.444 Y49.023 Z-2.000 F800.000 
G1 X71.222 Y49.861 Z-2.000 F800.000 
G1 X64.671 Y43.310 Z-2.000 F800.000 
G1 X64.556 Y44.256 Z-2.000 F800.000 
G1 X70.999 Y50.699 Z-2.000 F800.000 
G2 X70.781 Y51.541 Z-2.000 I71.005 J18.897 F800.000 
G1 X64.441 Y45.202 Z-2.000 F800.000 
G1 X64.326 Y46.147 Z-2.000 F800.000 
G1 X70.562 Y52.384 Z-2.000 F800.000 
G1 X70.344 Y53.226 Z-2.000 F800.000 
G1 X64.211 Y47.093 Z-2.000 F800.000 
G1 X64.096 Y48.038 Z-2.000 F800.000 
G1 X70.126 Y54.068 Z-2.000 F800.000 
G1 X69.907 Y54.911 Z-2.000 F800.000 
G1 X63.981 Y48.984 Z-2.000 F800.000 
G3 X63.861 Y49.925 Z-2.000 I-12.422 J-1.100 F800.000 
G1 X69.689 Y55.753 Z-2.000 F800.000 
G3 X69.470 Y56.595 Z-2.000 I-2750.855 J-712.977 F800.000 
G1 X63.713 Y50.838 Z-2.000 F800.000 
G1 X63.566 Y51.751 Z-2.000 F800.000 
G1 X69.252 Y57.437 Z-2.000 F800.000 
G1 X69.034 Y58.280 Z-2.000 F800.000 
G1 X63.418 Y52.664 Z-2.000 F800.000 
G1 X63.270 Y53.577 Z-2.000 F800.000 
G1 X68.815 Y59.122 Z-2.000 F800.000 
G1 X68.597 Y59.964 Z-2.000 F800.000 
G1 X63.123 Y54.490 Z-2.000 F800.000 
G1 X62.975 Y55.403 Z-2.000 F800.000 
G1 X68.369 Y60.797 Z-2.000 F800.000 
G1 X68.121 Y61.610 Z-2.000 F800.000 
G1 X62.827 Y56.316 Z-2.000 F800.000 
G1 X62.679 Y57.229 Z-2.000 F800.000 
G1 X67.873 Y62.422 Z-2.000 F800.000 
G1 X67.625 Y63.235 Z-2.000 F800.000 
G1 X62.532 Y58.142 Z-2.000 F800.000 
G1 X62.384 Y59.055 Z-2.000 F800.000 
G1 X67.378 Y64.048 Z-2.000 F800.000 
G1 X67.130 Y64.861 Z-2.000 F800.000 
G1 X62.236 Y59.968 Z-2.000 F800.000 
G1 X62.089 Y60.881 Z-2.000 F800.000 
G1 X66.870 Y65.662 Z-2.000 F800.000 
G1 X66.586 Y66.439 Z-2.000 F800.000 
G1 X61.930 Y61.782 Z-2.000 F800.000 
G1 X61.752 Y62.665 Z-2.000 F800.000 
G1 X66.303 Y67.216 Z-2.000 F800.000 
G1 X66.019 Y67.993 Z-2.000 F800.000 
G1 X61.574 Y63.548 Z-2.000 F800.000 
G1 X61.396 Y64.431 Z-2.000 F800.000 
G1 X65.735 Y68.770 Z-2.000 F800.000 
G1 X65.452 Y69.547 Z-2.000 F800.000 
G1 X61.218 Y65.314 Z-2.000 F800.000 
G1 X61.040 Y66.196 Z-2.000 F800.000 
G1 X65.143 Y70.299 Z-2.000 F800.000 
G1 X64.826 Y71.043 Z-2.000 F800.000 
G1 X60.862 Y67.079 Z-2.000 F800.000 
G1 X60.685 Y67.962 Z-2.000 F800.000 
G1 X64.510 Y71.787 Z-2.000 F800.000 
G1 X64.193 Y72.531 Z-2.000 F800.000 
G1 X60.507 Y68.845 Z-2.000 F800.000 
G1 X60.329 Y69.728 Z-2.000 F800.000 
G1 X63.877 Y73.275 Z-2.000 F800.000 
G1 X63.560 Y74.019 Z-2.000 F800.000 
G1 X60.151 Y70.610 Z-2.000 F800.000 
G3 X59.966 Y71.486 Z-2.000 I-18.123 J-3.376 F800.000 
G1 X61.491 Y73.011 Z-2.000 F800.000 
G2 X61.066 Y73.646 Z-2.000 I0.790 J0.988 F800.000 
G1 X59.770 Y72.350 Z-2.000 F800.000 
G1 X59.573 Y73.214 Z-2.000 F800.000 
G1 X60.745 Y74.386 Z-2.000 F800.000 
G2 X60.437 Y75.139 Z-2.000 I76.950 J31.823 F800.000 
G1 X59.377 Y74.079 Z-2.000 F800.000 
G1 X59.181 Y74.943 Z-2.000 F800.000 
G1 X60.130 Y75.892 Z-2.000 F800.000 
G1 X59.817 Y76.640 Z-2.000 F800.000 
G1 X58.984 Y75.807 Z-2.000 F800.000 
G1 X58.788 Y76.672 Z-2.000 F800.000 
G1 X59.504 Y77.388 Z-2.000 F800.000 
G1 X59.191 Y78.136 Z-2.000 F800.000 
G1 X58.592 Y77.536 Z-2.000 F800.000 
G1 X58.395 Y78.400 Z-2.000 F800.000 
G1 X58.878 Y78.884 Z-2.000 F800.000 
G3 X58.541 Y79.607 Z-2.000 I-4.663 J-1.734 F800.000 
G1 X58.196 Y79.261 Z-2.000 F800.000 
G1 X57.974 Y80.100 Z-2.000 F800.000 
G1 X58.180 Y80.307 Z-2.000 F800.000 
G1 X57.819 Y81.006 Z-2.000 F800.000 
G1 X57.752 Y80.939 Z-2.000 F800.000 
G1 X57.644 Y81.345 Z-2.000 F800.000 
G1 X57.819 Y81.006 Z-2.000 F800.000 
G0 Z5.000 
G0 X62.583 Y74.103 Z5.000 
G0 X62.583 Y74.103 Z3.000 
G1 X62.583 Y74.103 Z-2.000 F400.000 
G1 X63.244 Y74.763 Z-2.000 F800.000 
G3 X62.907 Y75.488 Z-2.000 I-4.299 J-1.553 F800.000 
G1 X62.392 Y74.973 Z-2.000 F800.000 
G1 X62.145 Y75.786 Z-2.000 F800.000 
G1 X62.539 Y76.180 Z-2.000 F800.000 
G1 X62.170 Y76.872 Z-2.000 F800.000 
G1 X61.856 Y76.558 Z-2.000 F800.000 
G1 X61.564 Y77.327 Z-2.000 F800.000 
G1 X61.801 Y77.564 Z-2.000 F800.000 
G1 X61.432 Y78.256 Z-2.000 F800.000 
G1 X61.272 Y78.096 Z-2.000 F800.000 
G1 X60.980 Y78.864 Z-2.000 F800.000 
G1 X61.064 Y78.947 Z-2.000 F800.000 
G3 X60.708 Y79.521 Z-2.000 I-2.519 J-1.164 F800.000 
G2 X60.980 Y78.864 Z-2.000 I-6.620 J-3.130 F800.000 
G2 X62.125 Y75.849 Z-2.000 I-59.092 J-24.161 F800.000 
G2 X62.631 Y73.729 Z-2.000 I-7.940 J-3.016 F800.000 
G2 X61.199 Y73.342 Z-2.000 I-0.745 J-0.085 F800.000 
G2 X58.724 Y79.253 Z-2.000 I263.148 J113.687 F800.000 
G1 X57.644 Y81.345 Z-2.000 F800.000 
G2 X58.228 Y79.138 Z-2.000 I-41.404 J-12.128 F800.000 
G2 X60.044 Y71.143 Z-2.000 I-434.271 J-102.841 F800.000 
G2 X61.994 Y61.461 Z-2.000 I-788.408 J-163.882 F800.000 
G2 X61.998 Y61.440 Z-2.000 I-0.737 J-0.141 F800.000 
G2 X63.880 Y49.806 Z-2.000 I-1181.210 J-197.083 F800.000 
G2 X63.883 Y49.784 Z-2.000 I-0.742 J-0.112 F800.000 
G2 X65.580 Y35.834 Z-2.000 I-1509.198 J-190.656 F800.000 
G2 X66.508 Y24.930 Z-2.000 I-1386.057 J-123.376 F800.000 
G1 X66.914 Y15.201 Z-2.000 F800.000 
G3 X68.015 Y15.657 Z-2.000 I-0.208 J2.060 F800.000 
G3 X68.160 Y15.973 Z-2.000 I-1.135 J0.712 F800.000 
G2 X69.189 Y17.407 Z-2.000 I3.069 J-1.116 F800.000 
G2 X71.306 Y18.049 Z-2.000 I1.979 J-2.715 F800.000 
G2 X73.442 Y17.612 Z-2.000 I-6.851 J-38.849 F800.000 
G3 X74.721 Y18.370 Z-2.000 I-1.441 J3.889 F800.000 
G3 X74.801 Y18.610 Z-2.000 I-0.644 J0.350 F800.000 
G2 X76.342 Y21.082 Z-2.000 I2.665 J0.056 F800.000 
G2 X77.717 Y21.491 Z-2.000 I2.002 J-4.221 F800.000 
G1 X75.988 Y30.854 Z-2.000 F800.000 
G1 X73.751 Y40.337 Z-2.000 F800.000 
G2 X68.449 Y60.534 Z-2.000 I1711.743 J460.196 F800.000 
G1 X66.963 Y65.408 Z-2.000 F800.000 
G1 X65.384 Y69.732 Z-2.000 F800.000 
G1 X63.045 Y75.230 Z-2.000 F800.000 
G1 X60.915 Y79.226 Z-2.000 F800.000 
G1 X60.708 Y79.521 Z-2.000 F800.000 
G2 X60.980 Y78.864 Z-2.000 I-6.620 J-3.130 F800.000 
G0 Z5.000 
G0 Z5.000 
G0 
G0 X79.947 Y21.902 
G0 X79.947 Y21.902 Z3.000 
G1 X79.947 Y21.902 Z-1.500 F400.000 
G3 X80.584 Y22.694 Z-1.500 I-2.261 J2.473 F800.000 
G3 X81.016 Y24.031 Z-1.500 I-6.104 J2.706 F800.000 
G1 X79.663 Y22.679 Z-1.500 F800.000 
G1 X79.495 Y23.571 Z-1.500 F800.000 
G1 X82.162 Y26.238 Z-1.500 F800.000 
G2 X82.905 Y26.982 Z-1.500 I1.964 J-1.221 F800.000 
G1 X84.992 Y29.069 Z-1.500 F800.000 
G3 X84.995 Y29.452 Z-1.500 I-6.055 J0.236 F800.000 
G1 X84.842 Y29.980 Z-1.500 F800.000 
G1 X79.327 Y24.464 Z-1.500 F800.000 
G1 X79.159 Y25.357 Z-1.500 F800.000 
G1 X84.604 Y30.802 Z-1.500 F800.000 
G1 X84.366 Y31.624 Z-1.500 F800.000 
G1 X78.991 Y26.249 Z-1.500 F800.000 
G1 X78.823 Y27.142 Z-1.500 F800.000 
G1 X84.127 Y32.446 Z-1.500 F800.000 
G1 X83.889 Y33.269 Z-1.500 F800.000 
G1 X78.655 Y28.035 Z-1.500 F800.000 
G1 X78.487 Y28.927 Z-1.500 F800.000 
G1 X83.650 Y34.091 Z-1.500 F800.000 
G3 X83.386 Y34.887 Z-1.500 I-8.357 J-2.331 F800.000 
G1 X78.327 Y29.828 Z-1.500 F800.000 
G1 X78.182 Y30.744 Z-1.500 F800.000 
G1 X83.115 Y35.677 Z-1.500 F800.000 
G1 X82.844 Y36.467 Z-1.500 F800.000 
G1 X78.024 Y31.647 Z-1.500 F800.000 
G3 X77.848 Y32.532 Z-1.500 I-15.929 J-2.703 F800.000 
G1 X82.573 Y37.256 Z-1.500 F800.000 
G1 X82.302 Y38.046 Z-1.500 F800.000 
G1 X77.657 Y33.401 Z-1.500 F800.000 
G3 X77.464 Y34.269 Z-1.500 I-22.801 J-4.605 F800.000 
G1 X82.031 Y38.836 Z-1.500 F800.000 
G3 X81.756 Y39.621 Z-1.500 I-27.461 J-9.175 F800.000 
G1 X77.258 Y35.123 Z-1.500 F800.000 
G3 X77.045 Y35.971 Z-1.500 I-53.788 J-13.046 F800.000 
G1 X81.476 Y40.402 Z-1.500 F800.000 
G3 X81.191 Y41.177 Z-1.500 I-31.253 J-11.052 F800.000 
G1 X76.831 Y36.818 Z-1.500 F800.000 
G2 X76.616 Y37.663 Z-1.500 I322.066 J82.476 F800.000 
G1 X80.902 Y41.950 Z-1.500 F800.000 
G1 X80.614 Y42.722 Z-1.500 F800.000 
G1 X76.403 Y38.511 Z-1.500 F800.000 
G1 X76.194 Y39.362 Z-1.500 F800.000 
G1 X80.326 Y43.494 Z-1.500 F800.000 
G3 X80.037 Y44.266 Z-1.500 I-9.995 J-3.302 F800.000 
G1 X75.994 Y40.223 Z-1.500 F800.000 
G1 X75.799 Y41.089 Z-1.500 F800.000 
G1 X79.724 Y45.013 Z-1.500 F800.000 
G1 X79.411 Y45.761 Z-1.500 F800.000 
G1 X75.605 Y41.955 Z-1.500 F800.000 
G3 X75.397 Y42.809 Z-1.500 I-24.860 J-5.593 F800.000 
G1 X79.098 Y46.509 Z-1.500 F800.000 
G1 X78.785 Y47.256 Z-1.500 F800.000 
G1 X75.177 Y43.649 Z-1.500 F800.000 
G1 X74.956 Y44.488 Z-1.500 F800.000 
G1 X78.472 Y48.004 Z-1.500 F800.000 
G1 X78.159 Y48.752 Z-1.500 F800.000 
G1 X74.734 Y45.327 Z-1.500 F800.000 
G1 X74.513 Y46.167 Z-1.500 F800.000 
G1 X77.846 Y49.499 Z-1.500 F800.000 
G1 X77.532 Y50.247 Z-1.500 F800.000 
G1 X74.284 Y46.998 Z-1.500 F800.000 
G1 X74.053 Y47.828 Z-1.500 F800.000 
G1 X77.219 Y50.994 Z-1.500 F800.000 
G1 X76.906 Y51.742 Z-1.500 F800.000 
G1 X73.820 Y48.656 Z-1.500 F800.000 
G2 X73.588 Y49.484 Z-1.500 I573.353 J161.411 F800.000 
G1 X76.593 Y52.490 Z-1.500 F800.000 
G1 X76.280 Y53.237 Z-1.500 F800.000 
G1 X73.357 Y50.314 Z-1.500 F800.000 
G1 X73.130 Y51.147 Z-1.500 F800.000 
G1 X75.967 Y53.985 Z-1.500 F800.000 
G1 X75.654 Y54.733 Z-1.500 F800.000 
G1 X72.903 Y51.981 Z-1.500 F800.000 
G1 X72.675 Y52.814 Z-1.500 F800.000 
G1 X75.341 Y55.480 Z-1.500 F800.000 
G1 X75.028 Y56.228 Z-1.500 F800.000 
G1 X72.465 Y53.665 Z-1.500 F800.000 
G1 X72.256 Y54.516 Z-1.500 F800.000 
G1 X74.715 Y56.975 Z-1.500 F800.000 
G1 X74.402 Y57.723 Z-1.500 F800.000 
G1 X72.049 Y55.370 Z-1.500 F800.000 
G3 X71.842 Y56.224 Z-1.500 I-868.165 J-209.909 F800.000 
G1 X74.090 Y58.472 Z-1.500 F800.000 
G1 X73.778 Y59.220 Z-1.500 F800.000 
G1 X71.633 Y57.076 Z-1.500 F800.000 
G1 X71.422 Y57.925 Z-1.500 F800.000 
G1 X73.465 Y59.968 Z-1.500 F800.000 
G1 X73.151 Y60.714 Z-1.500 F800.000 
G1 X71.211 Y58.775 Z-1.500 F800.000 
G3 X70.994 Y59.618 Z-1.500 I-22.936 J-5.469 F800.000 
G1 X72.837 Y61.461 Z-1.500 F800.000 
G3 X72.520 Y62.205 Z-1.500 I-44.003 J-18.264 F800.000 
G1 X70.769 Y60.454 Z-1.500 F800.000 
G1 X70.545 Y61.291 Z-1.500 F800.000 
G1 X72.201 Y62.946 Z-1.500 F800.000 
G3 X71.875 Y63.681 Z-1.500 I-25.309 J-10.766 F800.000 
G1 X70.317 Y62.123 Z-1.500 F800.000 
G1 X70.071 Y62.938 Z-1.500 F800.000 
G1 X71.547 Y64.414 Z-1.500 F800.000 
G1 X71.218 Y65.146 Z-1.500 F800.000 
G1 X69.825 Y63.753 Z-1.500 F800.000 
G3 X69.574 Y64.563 Z-1.500 I-12.668 J-3.474 F800.000 
G1 X70.883 Y65.872 Z-1.500 F800.000 
G1 X70.537 Y66.586 Z-1.500 F800.000 
G1 X69.306 Y65.355 Z-1.500 F800.000 
G1 X69.038 Y66.148 Z-1.500 F800.000 
G1 X70.192 Y67.301 Z-1.500 F800.000 
G1 X69.846 Y68.016 Z-1.500 F800.000 
G1 X68.770 Y66.940 Z-1.500 F800.000 
G3 X68.496 Y67.726 Z-1.500 I-21.696 J-7.131 F800.000 
G1 X69.479 Y68.710 Z-1.500 F800.000 
G1 X69.103 Y69.394 Z-1.500 F800.000 
G1 X68.215 Y68.507 Z-1.500 F800.000 
G3 X67.925 Y69.278 Z-1.500 I-20.937 J-7.438 F800.000 
G1 X68.727 Y70.079 Z-1.500 F800.000 
G1 X68.351 Y70.764 Z-1.500 F800.000 
G1 X67.633 Y70.046 Z-1.500 F800.000 
G1 X67.341 Y70.814 Z-1.500 F800.000 
G1 X67.971 Y71.445 Z-1.500 F800.000 
G1 X67.579 Y72.113 Z-1.500 F800.000 
G1 X67.045 Y71.579 Z-1.500 F800.000 
G1 X66.740 Y72.335 Z-1.500 F800.000 
G1 X67.188 Y72.782 Z-1.500 F800.000 
G3 X66.793 Y73.449 Z-1.500 I-12.467 J-6.930 F800.000 
G1 X66.431 Y73.086 Z-1.500 F800.000 
G3 X66.113 Y73.829 Z-1.500 I-238.041 J-101.481 F800.000 
G1 X66.386 Y74.102 Z-1.500 F800.000 
G1 X65.979 Y74.756 Z-1.500 F800.000 
G1 X65.794 Y74.571 Z-1.500 F800.000 
G3 X65.472 Y75.309 Z-1.500 I-19.169 J-7.943 F800.000 
G1 X65.145 Y76.029 Z-1.500 F800.000 
G1 X65.563 Y75.401 Z-1.500 F800.000 
G1 X65.472 Y75.309 Z-1.500 F800.000 
G0 Z5.000 
G0 X84.233 Y27.822 Z5.000 
G0 X84.233 Y27.822 Z3.000 
G1 X84.233 Y27.822 Z-1.500 F400.000 
G3 X84.992 Y29.069 Z-1.500 I-0.476 J1.145 F800.000 
G2 X84.517 Y27.995 Z-1.500 I-1.249 J-0.089 F800.000 
G3 X82.689 Y26.835 Z-1.500 I17.228 J-29.174 F800.000 
G3 X81.307 Y24.982 Z-1.500 I6.514 J-6.302 F800.000 
G3 X81.236 Y24.834 Z-1.500 I0.637 J-0.397 F800.000 
G3 X80.810 Y23.276 Z-1.500 I21.124 J-6.600 F800.000 
G2 X80.584 Y22.694 Z-1.500 I-2.083 J0.474 F800.000 
G2 X79.830 Y21.794 Z-1.500 I-4.904 J3.347 F800.000 
G1 X78.375 Y29.522 Z-1.500 F800.000 
G3 X77.901 Y32.293 Z-1.500 I-43.361 J-5.996 F800.000 
G3 X76.118 Y39.673 Z-1.500 I-166.809 J-36.398 F800.000 
G3 X74.022 Y47.937 Z-1.500 I-114.977 J-24.755 F800.000 
G2 X71.912 Y55.936 Z-1.500 I210.819 J59.900 F800.000 
G3 X65.145 Y76.029 Z-1.500 I-101.542 J-23.009 F800.000 
G2 X68.085 Y71.251 Z-1.500 I-52.267 J-35.441 F800.000 
G2 X72.095 Y63.191 Z-1.500 I-59.975 J-34.872 F800.000 
G2 X80.044 Y44.249 Z-1.500 I-3331.367 J-1409.095 F800.000 
G2 X83.601 Y34.260 Z-1.500 I-209.568 J-80.268 F800.000 
G1 X84.995 Y29.452 Z-1.500 F800.000 
G2 X84.992 Y29.069 Z-1.500 I-6.057 J-0.148 F800.000 
G1 X82.905 Y26.982 Z-1.500 F800.000 
G2 X84.233 Y27.822 Z-1.500 I11.064 J-16.021 F800.000 
G0 Z5.000 
G0 X79.947 Y21.902 Z5.000 
G0 X79.947 Y21.902 Z3.000 
G1 X79.947 Y21.902 Z-2.000 F400.000 
G3 X80.584 Y22.694 Z-2.000 I-2.261 J2.473 F800.000 
G3 X81.016 Y24.031 Z-2.000 I-6.104 J2.706 F800.000 
G1 X79.663 Y22.679 Z-2.000 F800.000 
G1 X79.495 Y23.571 Z-2.000 F800.000 
G1 X82.162 Y26.238 Z-2.000 F800.000 
G2 X82.905 Y26.982 Z-2.000 I1.964 J-1.221 F800.000 
G1 X84.992 Y29.069 Z-2.000 F800.000 
G3 X84.995 Y29.452 Z-2.000 I-6.055 J0.236 F800.000 
G1 X84.842 Y29.980 Z-2.000 F800.000 
G1 X79.327 Y24.464 Z-2.000 F800.000 
G1 X79.159 Y25.357 Z-2.000 F800.000 
G1 X84.604 Y30.802 Z-2.000 F800.000 
G1 X84.366 Y31.624 Z-2.000 F800.000 
G1 X78.991 Y26.249 Z-2.000 F800.000 
G1 X78.823 Y27.142 Z-2.000 F800.000 
G1 X84.127 Y32.446 Z-2.000 F800.000 
G1 X83.889 Y33.269 Z-2.000 F800.000 
G1 X78.655 Y28.035 Z-2.000 F800.000 
G1 X78.487 Y28.927 Z-2.000 F800.000 
G1 X83.650 Y34.091 Z-2.000 F800.000 
G3 X83.386 Y34.887 Z-2.000 I-8.357 J-2.331 F800.000 
G1 X78.327 Y29.828 Z-2.000 F800.000 
G1 X78.182 Y30.744 Z-2.000 F800.000 
G1 X83.115 Y35.677 Z-2.000 F800.000 
G1 X82.844 Y36.467 Z-2.000 F800.000 
G1 X78.024 Y31.647 Z-2.000 F800.000 
G3 X77.848 Y32.532 Z-2.000 I-15.929 J-2.703 F800.000 
G1 X82.573 Y37.256 Z-2.000 F800.000 
G1 X82.302 Y38.046 Z-2.000 F800.000 
G1 X77.657 Y33.401 Z-2.000 F800.000 
G3 X77.464 Y34.269 Z-2.000 I-22.801 J-4.605 F800.000 
G1 X82.031 Y38.836 Z-2.000 F800.000 
G3 X81.756 Y39.621 Z-2.000 I-27.461 J-9.175 F800.000 
G1 X77.258 Y35.123 Z-2.000 F800.000 
G3 X77.045 Y35.971 Z-2.000 I-53.788 J-13.046 F800.000 
G1 X81.476 Y40.402 Z-2.000 F800.000 
G3 X81.191 Y41.177 Z-2.000 I-31.253 J-11.052 F800.000 
G1 X76.831 Y36.818 Z-2.000 F800.000 
G2 X76.616 Y37.663 Z-2.000 I322.066 J82.476 F800.000 
G1 X80.902 Y41.950 Z-2.000 F800.000 
G1 X80.614 Y42.722 Z-2.000 F800.000 
G1 X76.403 Y38.511 Z-2.000 F800.000 
G1 X76.194 Y39.362 Z-2.000 F800.000 
G1 X80.326 Y43.494 Z-2.000 F800.000 
G3 X80.037 Y44.266 Z-2.000 I-9.995 J-3.302 F800.000 
G1 X75.994 Y40.223 Z-2.000 F800.000 
G1 X75.799 Y41.089 Z-2.000 F800.000 
G1 X79.724 Y45.013 Z-2.000 F800.000 
G1 X79.411 Y45.761 Z-2.000 F800.000 
G1 X75.605 Y41.955 Z-2.000 F800.000 
G3 X75.397 Y42.809 Z-2.000 I-24.860 J-5.593 F800.000 
G1 X79.098 Y46.509 Z-2.000 F800.000 
G1 X78.785 Y47.256 Z-2.000 F800.000 
G1 X75.177 Y43.649 Z-2.000 F800.000 
G1 X74.956 Y44.488 Z-2.000 F800.000 
G1 X78.472 Y48.004 Z-2.000 F800.000 
G1 X78.159 Y48.752 Z-2.000 F800.000 
G1 X74.734 Y45.327 Z-2.000 F800.000 
G1 X74.513 Y46.167 Z-2.000 F800.000 
G1 X77.846 Y49.499 Z-2.000 F800.000 
G1 X77.532 Y50.247 Z-2.000 F800.000 
G1 X74.284 Y46.998 Z-2.000 F800.000 
G1 X74.053 Y47.828 Z-2.000 F800.000 
G1 X77.219 Y50.994 Z-2.000 F800.000 
G1 X76.906 Y51.742 Z-2.000 F800.000 
G1 X73.820 Y48.656 Z-2.000 F800.000 
G2 X73.588 Y49.484 Z-2.000 I573.353 J161.411 F800.000 
G1 X76.593 Y52.490 Z-2.000 F800.000 
G1 X76.280 Y53.237 Z-2.000 F800.000 
G1 X73.357 Y50.314 Z-2.000 F800.000 
G1 X73.130 Y51.147 Z-2.000 F800.000 
G1 X75.967 Y53.985 Z-2.000 F800.000 
G1 X75.654 Y54.733 Z-2.000 F800.000 
G1 X72.903 Y51.981 Z-2.000 F800.000 
G1 X72.675 Y52.814 Z-2.000 F800.000 
G1 X75.341 Y55.480 Z-2.000 F800.000 
G1 X75.028 Y56.228 Z-2.000 F800.000 
G1 X72.465 Y53.665 Z-2.000 F800.000 
G1 X72.256 Y54.516 Z-2.000 F800.000 
G1 X74.715 Y56.975 Z-2.000 F800.000 
G1 X74.402 Y57.723 Z-2.000 F800.000 
G1 X72.049 Y55.370 Z-2.000 F800.000 
G3 X71.842 Y56.224 Z-2.000 I-868.165 J-209.909 F800.000 
G1 X74.090 Y58.472 Z-2.000 F800.000 
G1 X73.778 Y59.220 Z-2.000 F800.000 
G1 X71.633 Y57.076 Z-2.000 F800.000 
G1 X71.422 Y57.925 Z-2.000 F800.000 
G1 X73.465 Y59.968 Z-2.000 F800.000 
G1 X73.151 Y60.714 Z-2.000 F800.000 
G1 X71.211 Y58.775 Z-2.000 F800.000 
G3 X70.994 Y59.618 Z-2.000 I-22.936 J-5.469 F800.000 
G1 X72.837 Y61.461 Z-2.000 F800.000 
G3 X72.520 Y62.205 Z-2.000 I-44.003 J-18.264 F800.000 
G1 X70.769 Y60.454 Z-2.000 F800.000 
G1 X70.545 Y61.291 Z-2.000 F800.000 
G1 X72.201 Y62.946 Z-2.000 F800.000 
G3 X71.875 Y63.681 Z-2.000 I-25.309 J-10.766 F800.000 
G1 X70.317 Y62.123 Z-2.000 F800.000 
G1 X70.071 Y62.938 Z-2.000 F800.000 
G1 X71.547 Y64.414 Z-2.000 F800.000 
G1 X71.218 Y65.146 Z-2.000 F800.000 
G1 X69.825 Y63.753 Z-2.000 F800.000 
G3 X69.574 Y64.563 Z-2.000 I-12.668 J-3.474 F800.000 
G1 X70.883 Y65.872 Z-2.000 F800.000 
G1 X70.537 Y66.586 Z-2.000 F800.000 
G1 X69.306 Y65.355 Z-2.000 F800.000 
G1 X69.038 Y66.148 Z-2.000 F800.000 
G1 X70.192 Y67.301 Z-2.000 F800.000 
G1 X69.846 Y68.016 Z-2.000 F800.000 
G1 X68.770 Y66.940 Z-2.000 F800.000 
G3 X68.496 Y67.726 Z-2.000 I-21.696 J-7.131 F800.000 
G1 X69.479 Y68.710 Z-2.000 F800.000 
G1 X69.103 Y69.394 Z-2.000 F800.000 
G1 X68.215 Y68.507 Z-2.000 F800.000 
G3 X67.925 Y69.278 Z-2.000 I-20.937 J-7.438 F800.000 
G1 X68.727 Y70.079 Z-2.000 F800.000 
G1 X68.351 Y70.764 Z-2.000 F800.000 
G1 X67.633 Y70.046 Z-2.000 F800.000 
G1 X67.341 Y70.814 Z-2.000 F800.000 
G1 X67.971 Y71.445 Z-2.000 F800.000 
G1 X67.579 Y72.113 Z-2.000 F800.000 
G1 X67.045 Y71.579 Z-2.000 F800.000 
G1 X66.740 Y72.335 Z-2.000 F800.000 
G1 X67.188 Y72.782 Z-2.000 F800.000 
G3 X66.793 Y73.449 Z-2.000 I-12.467 J-6.930 F800.000 
G1 X66.431 Y73.086 Z-2.000 F800.000 
G3 X66.113 Y73.829 Z-2.000 I-238.041 J-101.481 F800.000 
G1 X66.386 Y74.102 Z-2.000 F800.000 
G1 X65.979 Y74.756 Z-2.000 F800.000 
G1 X65.794 Y74.571 Z-2.000 F800.000 
G3 X65.472 Y75.309 Z-2.000 I-19.169 J-7.943 F800.000 
G1 X65.145 Y76.029 Z-2.000 F800.000 
G1 X65.563 Y75.401 Z-2.000 F800.000 
G1 X65.472 Y75.309 Z-2.000 F800.000 
G0 Z5.000 
G0 X84.233 Y27.822 Z5.000 
G0 X84.233 Y27.822 Z3.000 
G1 X84.233 Y27.822 Z-2.000 F400.000 
G3 X84.992 Y29.069 Z-2.000 I-0.476 J1.145 F800.000 
G2 X84.517 Y27.995 Z-2.000 I-1.249 J-0.089 F800.000 
G3 X82.689 Y26.835 Z-2.000 I17.228 J-29.174 F800.000 
G3 X81.307 Y24.982 Z-2.000 I6.514 J-6.302 F800.000 
G3 X81.236 Y24.834 Z-2.000 I0.637 J-0.397 F800.000 
G3 X80.810 Y23.276 Z-2.000 I21.124 J-6.600 F800.000 
G2 X80.584 Y22.694 Z-2.000 I-2.083 J0.474 F800.000 
G2 X79.830 Y21.794 Z-2.000 I-4.904 J3.347 F800.000 
G1 X78.375 Y29.522 Z-2.000 F800.000 
G3 X77.901 Y32.293 Z-2.000 I-43.361 J-5.996 F800.000 
G3 X76.118 Y39.673 Z-2.000 I-166.809 J-36.398 F800.000 
G3 X74.022 Y47.937 Z-2.000 I-114.977 J-24.755 F800.000 
G2 X71.912 Y55.936 Z-2.000 I210.819 J59.900 F800.000 
G3 X65.145 Y76.029 Z-2.000 I-101.542 J-23.009 F800.000 
G2 X68.085 Y71.251 Z-2.000 I-52.267 J-35.441 F800.000 
G2 X72.095 Y63.191 Z-2.000 I-59.975 J-34.872 F800.000 
G2 X80.044 Y44.249 Z-2.000 I-3331.367 J-1409.095 F800.000 
G2 X83.601 Y34.260 Z-2.000 I-209.568 J-80.268 F800.000 
G1 X84.995 Y29.452 Z-2.000 F800.000 
G2 X84.992 Y29.069 Z-2.000 I-6.057 J-0.148 F800.000 
G1 X82.905 Y26.982 Z-2.000 F800.000 
G2 X84.233 Y27.822 Z-2.000 I11.064 J-16.021 F800.000 
G0 Z5.000 
G0 Z5.000 
G0 
G0 X86.151 Y33.496 
G0 X86.151 Y33.496 Z3.000 
G1 X86.151 Y33.496 Z-1.500 F400.000 
G2 X86.696 Y34.505 Z-1.500 I5.012 J-2.056 F800.000 
G3 X86.926 Y34.856 Z-1.500 I-1.696 J1.367 F800.000 
G3 X87.029 Y35.436 Z-1.500 I-2.461 J0.736 F800.000 
G1 X85.899 Y34.305 Z-1.500 F800.000 
G3 X85.636 Y35.103 Z-1.500 I-24.526 J-7.616 F800.000 
G1 X86.914 Y36.381 Z-1.500 F800.000 
G3 X86.797 Y37.324 Z-1.500 I-234.021 J-28.587 F800.000 
G1 X85.373 Y35.901 Z-1.500 F800.000 
G3 X85.109 Y36.697 Z-1.500 I-69.878 J-22.735 F800.000 
G1 X86.686 Y38.274 Z-1.500 F800.000 
G2 X86.626 Y39.275 Z-1.500 I7.464 J0.950 F800.000 
G1 X84.842 Y37.491 Z-1.500 F800.000 
G2 X84.593 Y38.302 Z-1.500 I13.612 J4.620 F800.000 
G1 X86.750 Y40.460 Z-1.500 F800.000 
G2 X86.955 Y41.666 Z-1.500 I9.573 J-1.004 F800.000 
G2 X86.980 Y41.750 Z-1.500 I2.640 J-0.738 F800.000 
G1 X84.338 Y39.109 Z-1.500 F800.000 
G1 X84.064 Y39.895 Z-1.500 F800.000 
G1 X87.054 Y42.885 Z-1.500 F800.000 
G1 X86.980 Y43.163 Z-1.500 F800.000 
G1 X86.675 Y43.567 Z-1.500 F800.000 
G1 X83.783 Y40.675 Z-1.500 F800.000 
G2 X83.500 Y41.452 Z-1.500 I101.605 J37.423 F800.000 
G1 X86.275 Y44.227 Z-1.500 F800.000 
G1 X85.892 Y44.905 Z-1.500 F800.000 
G1 X83.216 Y42.229 Z-1.500 F800.000 
G1 X82.914 Y42.987 Z-1.500 F800.000 
G1 X85.535 Y45.609 Z-1.500 F800.000 
G1 X85.179 Y46.314 Z-1.500 F800.000 
G1 X82.612 Y43.746 Z-1.500 F800.000 
G1 X82.310 Y44.504 Z-1.500 F800.000 
G1 X84.824 Y47.018 Z-1.500 F800.000 
G1 X84.468 Y47.723 Z-1.500 F800.000 
G1 X82.005 Y45.261 Z-1.500 F800.000 
G1 X81.694 Y46.010 Z-1.500 F800.000 
G1 X84.112 Y48.428 Z-1.500 F800.000 
G2 X83.756 Y49.133 Z-1.500 I114.865 J58.405 F800.000 
G1 X81.382 Y46.759 Z-1.500 F800.000 
G1 X81.071 Y47.508 Z-1.500 F800.000 
G1 X83.402 Y49.840 Z-1.500 F800.000 
G3 X83.020 Y50.518 Z-1.500 I-7.182 J-3.595 F800.000 
G1 X80.757 Y48.255 Z-1.500 F800.000 
G3 X80.441 Y49.000 Z-1.500 I-423.025 J-178.401 F800.000 
G1 X82.638 Y51.197 Z-1.500 F800.000 
G1 X82.263 Y51.882 Z-1.500 F800.000 
G1 X80.126 Y49.745 Z-1.500 F800.000 
G2 X79.810 Y50.491 Z-1.500 I42.236 J18.304 F800.000 
G1 X81.872 Y52.553 Z-1.500 F800.000 
G2 X81.472 Y53.213 Z-1.500 I40.875 J25.235 F800.000 
G1 X79.500 Y51.241 Z-1.500 F800.000 
G1 X79.190 Y51.991 Z-1.500 F800.000 
G1 X81.062 Y53.864 Z-1.500 F800.000 
G1 X80.637 Y54.499 Z-1.500 F800.000 
G1 X78.880 Y52.742 Z-1.500 F800.000 
G1 X78.569 Y53.492 Z-1.500 F800.000 
G1 X80.211 Y55.134 Z-1.500 F800.000 
G2 X79.786 Y55.769 Z-1.500 I23.723 J16.356 F800.000 
G1 X78.259 Y54.243 Z-1.500 F800.000 
G1 X77.949 Y54.993 Z-1.500 F800.000 
G1 X79.380 Y56.424 Z-1.500 F800.000 
G1 X78.974 Y57.079 Z-1.500 F800.000 
G1 X77.639 Y55.744 Z-1.500 F800.000 
G1 X77.329 Y56.494 Z-1.500 F800.000 
G1 X78.568 Y57.734 Z-1.500 F800.000 
G2 X78.173 Y58.399 Z-1.500 I9.695 J6.221 F800.000 
G1 X77.018 Y57.244 Z-1.500 F800.000 
G2 X76.709 Y57.995 Z-1.500 I13.760 J6.113 F800.000 
G1 X77.786 Y59.073 Z-1.500 F800.000 
G1 X77.400 Y59.747 Z-1.500 F800.000 
G1 X76.415 Y58.763 Z-1.500 F800.000 
G3 X76.116 Y59.525 Z-1.500 I-12.349 J-4.406 F800.000 
G1 X77.015 Y60.423 Z-1.500 F800.000 
G1 X76.646 Y61.115 Z-1.500 F800.000 
G1 X75.803 Y60.272 Z-1.500 F800.000 
G3 X75.484 Y61.014 Z-1.500 I-27.271 J-11.295 F800.000 
G1 X76.278 Y61.807 Z-1.500 F800.000 
G1 X75.910 Y62.500 Z-1.500 F800.000 
G1 X75.161 Y61.751 Z-1.500 F800.000 
G2 X74.838 Y62.489 Z-1.500 I226.974 J99.872 F800.000 
G1 X75.532 Y63.183 Z-1.500 F800.000 
G1 X75.150 Y63.861 Z-1.500 F800.000 
G1 X74.521 Y63.233 Z-1.500 F800.000 
G3 X74.205 Y63.977 Z-1.500 I-125.010 J-52.706 F800.000 
G1 X74.764 Y64.536 Z-1.500 F800.000 
G1 X74.373 Y65.206 Z-1.500 F800.000 
G1 X73.887 Y64.720 Z-1.500 F800.000 
G3 X73.564 Y65.457 Z-1.500 I-10.792 J-4.288 F800.000 
G1 X73.978 Y65.871 Z-1.500 F800.000 
G1 X73.574 Y66.528 Z-1.500 F800.000 
G1 X73.224 Y66.178 Z-1.500 F800.000 
G3 X72.882 Y66.897 Z-1.500 I-25.900 J-11.897 F800.000 
G1 X73.171 Y67.186 Z-1.500 F800.000 
G3 X72.760 Y67.835 Z-1.500 I-12.618 J-7.546 F800.000 
G1 X72.534 Y67.609 Z-1.500 F800.000 
G2 X72.186 Y68.322 Z-1.500 I45.212 J22.516 F800.000 
G1 X72.342 Y68.478 Z-1.500 F800.000 
G3 X71.912 Y69.109 Z-1.500 I-11.194 J-7.175 F800.000 
G1 X71.561 Y69.617 Z-1.500 F800.000 
G1 X71.842 Y69.039 Z-1.500 F800.000 
G1 X71.912 Y69.109 Z-1.500 F800.000 
G1 X71.561 Y69.617 Z-1.500 F800.000 
G2 X75.358 Y61.302 Z-1.500 I-109.320 J-54.959 F800.000 
G2 X76.719 Y57.969 Z-1.500 I-44.201 J-19.982 F800.000 
G2 X82.085 Y45.068 Z-1.500 I-67710.034 J-28173.958 F800.000 
G2 X83.310 Y41.992 Z-1.500 I-75.783 J-31.942 F800.000 
G2 X84.818 Y37.561 Z-1.500 I-67.865 J-25.579 F800.000 
G2 X86.151 Y33.496 Z-1.500 I-108.888 J-37.944 F800.000 
G2 X86.696 Y34.505 Z-1.500 I5.012 J-2.056 F800.000 
G3 X86.926 Y34.856 Z-1.500 I-1.696 J1.367 F800.000 
G3 X86.964 Y35.976 Z-1.500 I-1.876 J0.623 F800.000 
G2 X86.626 Y39.287 Z-1.500 I28.225 J4.550 F800.000 
G2 X87.085 Y42.192 Z-1.500 I17.444 J-1.267 F800.000 
G3 X86.602 Y43.664 Z-1.500 I-1.645 J0.275 F800.000 
G2 X86.547 Y43.747 Z-1.500 I0.598 J0.452 F800.000 
G2 X85.873 Y44.939 Z-1.500 I16.412 J10.065 F800.000 
G3 X82.663 Y51.152 Z-1.500 I-112.892 J-54.391 F800.000 
G3 X79.775 Y55.786 Z-1.500 I-41.637 J-22.735 F800.000 
G2 X75.790 Y62.725 Z-1.500 I69.677 J44.632 F800.000 
G3 X71.912 Y69.109 Z-1.500 I-62.135 J-33.375 F800.000 
G0 Z5.000 
G0 X86.151 Y33.496 Z5.000 
G0 X86.151 Y33.496 Z3.000 
G1 X86.151 Y33.496 Z-2.000 F400.000 
G2 X86.696 Y34.505 Z-2.000 I5.012 J-2.056 F800.000 
G3 X86.926 Y34.856 Z-2.000 I-1.696 J1.367 F800.000 
G3 X87.029 Y35.436 Z-2.000 I-2.461 J0.736 F800.000 
G1 X85.899 Y34.305 Z-2.000 F800.000 
G3 X85.636 Y35.103 Z-2.000 I-24.526 J-7.616 F800.000 
G1 X86.914 Y36.381 Z-2.000 F800.000 
G3 X86.797 Y37.324 Z-2.000 I-234.021 J-28.587 F800.000 
G1 X85.373 Y35.901 Z-2.000 F800.000 
G3 X85.109 Y36.697 Z-2.000 I-69.878 J-22.735 F800.000 
G1 X86.686 Y38.274 Z-2.000 F800.000 
G2 X86.626 Y39.275 Z-2.000 I7.464 J0.950 F800.000 
G1 X84.842 Y37.491 Z-2.000 F800.000 
G2 X84.593 Y38.302 Z-2.000 I13.612 J4.620 F800.000 
G1 X86.750 Y40.460 Z-2.000 F800.000 
G2 X86.955 Y41.666 Z-2.000 I9.573 J-1.004 F800.000 
G2 X86.980 Y41.750 Z-2.000 I2.640 J-0.738 F800.000 
G1 X84.338 Y39.109 Z-2.000 F800.000 
G1 X84.064 Y39.895 Z-2.000 F800.000 
G1 X87.054 Y42.885 Z-2.000 F800.000 
G1 X86.980 Y43.163 Z-2.000 F800.000 
G1 X86.675 Y43.567 Z-2.000 F800.000 
G1 X83.783 Y40.675 Z-2.000 F800.000 
G2 X83.500 Y41.452 Z-2.000 I101.605 J37.423 F800.000 
G1 X86.275 Y44.227 Z-2.000 F800.000 
G1 X85.892 Y44.905 Z-2.000 F800.000 
G1 X83.216 Y42.229 Z-2.000 F800.000 
G1 X82.914 Y42.987 Z-2.000 F800.000 
G1 X85.535 Y45.609 Z-2.000 F800.000 
G1 X85.179 Y46.314 Z-2.000 F800.000 
G1 X82.612 Y43.746 Z-2.000 F800.000 
G1 X82.310 Y44.504 Z-2.000 F800.000 
G1 X84.824 Y47.018 Z-2.000 F800.000 
G1 X84.468 Y47.723 Z-2.000 F800.000 
G1 X82.005 Y45.261 Z-2.000 F800.000 
G1 X81.694 Y46.010 Z-2.000 F800.000 
G1 X84.112 Y48.428 Z-2.000 F800.000 
G2 X83.756 Y49.133 Z-2.000 I114.865 J58.405 F800.000 
G1 X81.382 Y46.759 Z-2.000 F800.000 
G1 X81.071 Y47.508 Z-2.000 F800.000 
G1 X83.402 Y49.840 Z-2.000 F800.000 
G3 X83.020 Y50.518 Z-2.000 I-7.182 J-3.595 F800.000 
G1 X80.757 Y48.255 Z-2.000 F800.000 
G3 X80.441 Y49.000 Z-2.000 I-423.025 J-178.401 F800.000 
G1 X82.638 Y51.197 Z-2.000 F800.000 
G1 X82.263 Y51.882 Z-2.000 F800.000 
G1 X80.126 Y49.745 Z-2.000 F800.000 
G2 X79.810 Y50.491 Z-2.000 I42.236 J18.304 F800.000 
G1 X81.872 Y52.553 Z-2.000 F800.000 
G2 X81.472 Y53.213 Z-2.000 I40.875 J25.235 F800.000 
G1 X79.500 Y51.241 Z-2.000 F800.000 
G1 X79.190 Y51.991 Z-2.000 F800.000 
G1 X81.062 Y53.864 Z-2.000 F800.000 
G1 X80.637 Y54.499 Z-2.000 F800.000 
