(Exported by FreeCAD)
(Post Processor: linuxcnc_post)
(Output Time:2026-05-01 10:54:20.128424)
(begin preamble)
G17 G54 G40 G49 G80 G90
G21
(begin operation: TC: 6mm Schaftfräser)
(machine units: mm/min)
(TC: 6mm Schaftfräser) 
M5
M6 T3 
G43 H3 
M3 S24000 
(finish operation: TC: 6mm Schaftfräser)
(begin operation: Fixture)
(machine units: mm/min)
G54 
(finish operation: Fixture)
(begin operation: Pocket3D001)
(machine units: mm/min)
(Pocket3D001) 
G0 Z5.000 
G0 X197.677 Y254.384 
G0 Z3.000 
G1 X197.677 Y254.384 Z-1.000 F500.000 
G2 X189.616 Y246.323 Z-1.000 I-10.652 J2.591 F1000.000 
G1 X197.677 Y254.384 Z-1.000 F1000.000 
G3 X197.845 Y258.795 Z-1.000 I-10.431 J2.607 F1000.000 
G1 X185.205 Y246.155 Z-1.000 F1000.000 
G2 X182.013 Y247.205 Z-1.000 I1.628 J10.319 F1000.000 
G1 X196.795 Y261.987 Z-1.000 F1000.000 
G3 X195.054 Y264.489 Z-1.000 I-9.591 J-4.819 F1000.000 
G1 X179.511 Y248.946 Z-1.000 F1000.000 
G2 X177.610 Y251.288 Z-1.000 I7.205 J7.795 F1000.000 
G1 X192.712 Y266.390 Z-1.000 F1000.000 
G3 X189.727 Y267.647 Z-1.000 I-5.475 J-8.832 F1000.000 
G1 X176.353 Y254.273 Z-1.000 F1000.000 
G2 X176.080 Y258.243 Z-1.000 I10.221 J2.696 F1000.000 
G1 X185.757 Y267.920 Z-1.000 F1000.000 
G3 X176.080 Y258.243 Z-1.000 I1.218 J-10.895 F1000.000 
G0 Z5.000 
G0 X159.653 Y246.059 Z5.000 
G0 X159.653 Y246.059 Z3.000 
G1 X159.653 Y246.059 Z-1.000 F500.000 
G3 X169.541 Y255.947 Z-1.000 I-1.034 J10.922 F1000.000 
G1 X159.653 Y246.059 Z-1.000 F1000.000 
G2 X155.740 Y246.388 Z-1.000 I-1.084 J10.527 F1000.000 
G1 X169.212 Y259.860 Z-1.000 F1000.000 
G3 X167.925 Y262.816 Z-1.000 I-9.961 J-2.577 F1000.000 
G1 X152.784 Y247.675 Z-1.000 F1000.000 
G2 X150.468 Y249.601 Z-1.000 I5.444 J8.902 F1000.000 
G1 X165.999 Y265.132 Z-1.000 F1000.000 
G3 X163.477 Y266.853 Z-1.000 I-7.192 J-7.832 F1000.000 
G1 X148.747 Y252.123 Z-1.000 F1000.000 
G2 X147.728 Y255.347 Z-1.000 I9.684 J4.834 F1000.000 
G1 X160.253 Y267.872 Z-1.000 F1000.000 
G3 X155.754 Y267.615 Z-1.000 I-1.648 J-10.664 F1000.000 
G1 X147.985 Y259.846 Z-1.000 F1000.000 
G2 X155.754 Y267.615 Z-1.000 I10.575 J-2.806 F1000.000 
G0 Z5.000 
G0 X135.519 Y247.380 Z5.000 
G0 X135.519 Y247.380 Z3.000 
G1 X135.519 Y247.380 Z-1.000 F500.000 
G3 X139.820 Y251.681 Z-1.000 I-5.214 J9.515 F1000.000 
G1 X135.519 Y247.380 Z-1.000 F1000.000 
G2 X129.909 Y246.013 Z-1.000 I-5.273 J9.445 F1000.000 
G1 X141.187 Y257.291 Z-1.000 F1000.000 
G3 X140.498 Y260.845 Z-1.000 I-10.556 J-0.202 F1000.000 
G1 X126.355 Y246.702 Z-1.000 F1000.000 
G2 X123.613 Y248.202 Z-1.000 I3.551 J9.746 F1000.000 
G1 X138.998 Y263.587 Z-1.000 F1000.000 
G3 X136.890 Y265.722 Z-1.000 I-8.299 J-6.086 F1000.000 
G1 X121.478 Y250.310 Z-1.000 F1000.000 
G2 X119.948 Y253.023 Z-1.000 I8.430 J6.543 F1000.000 
G1 X134.177 Y267.252 Z-1.000 F1000.000 
G3 X130.663 Y267.981 Z-1.000 I-3.867 J-9.811 F1000.000 
G1 X119.219 Y256.537 Z-1.000 F1000.000 
G2 X120.380 Y261.940 Z-1.000 I10.787 J0.509 F1000.000 
G1 X125.260 Y266.820 Z-1.000 F1000.000 
G3 X120.380 Y261.940 Z-1.000 I4.863 J-9.743 F1000.000 
G0 Z5.000 
G0 X112.350 Y253.910 Z5.000 
G0 X112.350 Y253.910 Z3.000 
G1 X112.350 Y253.910 Z-1.000 F500.000 
G2 X104.890 Y246.450 Z-1.000 I-10.522 J3.062 F1000.000 
G1 X112.350 Y253.910 Z-1.000 F1000.000 
G3 X112.691 Y258.494 Z-1.000 I-10.345 J3.075 F1000.000 
G1 X100.306 Y246.109 Z-1.000 F1000.000 
G2 X97.040 Y247.086 Z-1.000 I1.426 J10.708 F1000.000 
G1 X111.714 Y261.760 Z-1.000 F1000.000 
G3 X110.015 Y264.303 Z-1.000 I-9.602 J-4.576 F1000.000 
G1 X94.497 Y248.785 Z-1.000 F1000.000 
G2 X92.544 Y251.074 Z-1.000 I6.751 J7.739 F1000.000 
G1 X107.726 Y266.256 Z-1.000 F1000.000 
G3 X104.801 Y267.574 Z-1.000 I-5.654 J-8.646 F1000.000 
G1 X91.226 Y253.999 Z-1.000 F1000.000 
G2 X90.836 Y257.852 Z-1.000 I10.355 J2.994 F1000.000 
G1 X100.948 Y267.964 Z-1.000 F1000.000 
G3 X90.836 Y257.852 Z-1.000 I0.849 J-10.960 F1000.000 
G0 Z5.000 
G0 X74.844 Y246.103 Z5.000 
G0 X74.844 Y246.103 Z3.000 
G1 X74.844 Y246.103 Z-1.000 F500.000 
G3 X84.297 Y255.556 Z-1.000 I-1.425 J10.878 F1000.000 
G1 X74.844 Y246.103 Z-1.000 F1000.000 
G2 X70.814 Y246.315 Z-1.000 I-1.463 J10.610 F1000.000 
G1 X84.085 Y259.586 Z-1.000 F1000.000 
G3 X82.859 Y262.603 Z-1.000 I-10.287 J-2.422 F1000.000 
G1 X67.797 Y247.541 Z-1.000 F1000.000 
G2 X65.435 Y249.422 Z-1.000 I5.344 J9.132 F1000.000 
G1 X80.978 Y264.965 Z-1.000 F1000.000 
G3 X78.504 Y266.733 Z-1.000 I-7.202 J-7.459 F1000.000 
G1 X63.667 Y251.896 Z-1.000 F1000.000 
G2 X62.583 Y255.055 Z-1.000 I9.139 J4.902 F1000.000 
G1 X75.345 Y267.817 Z-1.000 F1000.000 
G3 X71.021 Y267.735 Z-1.000 I-1.963 J-10.562 F1000.000 
G1 X62.665 Y259.379 Z-1.000 F1000.000 
G2 X71.021 Y267.735 Z-1.000 I10.724 J-2.369 F1000.000 
G0 Z5.000 
G0 X51.208 Y247.923 Z5.000 
G0 X51.208 Y247.923 Z3.000 
G1 X51.208 Y247.923 Z-1.000 F500.000 
G3 X54.077 Y250.792 Z-1.000 I-6.183 J9.053 F1000.000 
G1 X51.208 Y247.923 Z-1.000 F1000.000 
G2 X45.047 Y246.004 Z-1.000 I-6.199 J9.054 F1000.000 
G1 X55.996 Y256.953 Z-1.000 F1000.000 
G3 X55.388 Y260.588 Z-1.000 I-10.695 J0.079 F1000.000 
G1 X41.412 Y246.612 Z-1.000 F1000.000 
G2 X38.613 Y248.055 Z-1.000 I3.268 J9.778 F1000.000 
G1 X53.945 Y263.387 Z-1.000 F1000.000 
G3 X51.887 Y265.572 Z-1.000 I-8.654 J-6.088 F1000.000 
G1 X36.428 Y250.113 Z-1.000 F1000.000 
G2 X34.851 Y252.779 Z-1.000 I8.250 J6.678 F1000.000 
G1 X49.221 Y267.149 Z-1.000 F1000.000 
G3 X45.798 Y267.968 Z-1.000 I-4.178 J-9.900 F1000.000 
G1 X34.032 Y256.202 Z-1.000 F1000.000 
G2 X34.884 Y261.297 Z-1.000 I10.787 J0.814 F1000.000 
G1 X40.703 Y267.116 Z-1.000 F1000.000 
G3 X34.884 Y261.297 Z-1.000 I4.227 J-10.046 F1000.000 
G0 Z5.000 
G0 X42.621 Y239.335 Z5.000 
G0 X42.621 Y239.335 Z3.000 
G1 X42.621 Y239.335 Z-1.000 F500.000 
G3 X34.265 Y230.979 Z-1.000 I2.369 J-10.724 F1000.000 
G1 X42.621 Y239.335 Z-1.000 F1000.000 
G2 X46.945 Y239.417 Z-1.000 I2.362 J-10.480 F1000.000 
G1 X34.183 Y226.655 Z-1.000 F1000.000 
G3 X35.267 Y223.496 Z-1.000 I10.223 J1.743 F1000.000 
G1 X50.104 Y238.333 Z-1.000 F1000.000 
G2 X52.578 Y236.565 Z-1.000 I-4.728 J-9.227 F1000.000 
G1 X37.035 Y221.022 Z-1.000 F1000.000 
G3 X39.397 Y219.141 Z-1.000 I7.706 J7.251 F1000.000 
G1 X54.459 Y234.203 Z-1.000 F1000.000 
G2 X55.685 Y231.186 Z-1.000 I-9.061 J-5.439 F1000.000 
G1 X42.414 Y217.915 Z-1.000 F1000.000 
G3 X46.444 Y217.703 Z-1.000 I2.568 J10.398 F1000.000 
G1 X55.897 Y227.156 Z-1.000 F1000.000 
G2 X46.444 Y217.703 Z-1.000 I-10.878 J1.425 F1000.000 
G0 Z5.000 
G0 X62.436 Y229.452 Z5.000 
G0 X62.436 Y229.452 Z3.000 
G1 X62.436 Y229.452 Z-1.000 F500.000 
G2 X72.548 Y239.564 Z-1.000 I10.960 J-0.849 F1000.000 
G1 X62.436 Y229.452 Z-1.000 F1000.000 
G3 X62.826 Y225.599 Z-1.000 I10.744 J-0.859 F1000.000 
G1 X76.401 Y239.174 Z-1.000 F1000.000 
G2 X79.326 Y237.856 Z-1.000 I-2.728 J-9.963 F1000.000 
G1 X64.144 Y222.674 Z-1.000 F1000.000 
G3 X66.097 Y220.385 Z-1.000 I8.704 J5.450 F1000.000 
G1 X81.615 Y235.903 Z-1.000 F1000.000 
G2 X83.314 Y233.360 Z-1.000 I-7.902 J-7.119 F1000.000 
G1 X68.640 Y218.686 Z-1.000 F1000.000 
G3 X71.906 Y217.709 Z-1.000 I4.691 J9.731 F1000.000 
G1 X84.291 Y230.094 Z-1.000 F1000.000 
G2 X83.950 Y225.510 Z-1.000 I-10.687 J-1.509 F1000.000 
G1 X76.490 Y218.050 Z-1.000 F1000.000 
G3 X83.950 Y225.510 Z-1.000 I-3.062 J10.522 F1000.000 
G0 Z5.000 
G0 X91.980 Y233.540 Z5.000 
G0 X91.980 Y233.540 Z3.000 
G1 X91.980 Y233.540 Z-1.000 F500.000 
G2 X96.860 Y238.420 Z-1.000 I9.743 J-4.863 F1000.000 
G1 X91.980 Y233.540 Z-1.000 F1000.000 
G3 X90.819 Y228.137 Z-1.000 I9.627 J-4.895 F1000.000 
G1 X102.263 Y239.581 Z-1.000 F1000.000 
G2 X105.777 Y238.852 Z-1.000 I-0.353 J-10.540 F1000.000 
G1 X91.548 Y224.623 Z-1.000 F1000.000 
G3 X93.078 Y221.910 Z-1.000 I9.960 J3.830 F1000.000 
G1 X108.490 Y237.322 Z-1.000 F1000.000 
G2 X110.598 Y235.187 Z-1.000 I-6.191 J-8.221 F1000.000 
G1 X95.213 Y219.802 Z-1.000 F1000.000 
G3 X97.955 Y218.302 Z-1.000 I6.293 J8.245 F1000.000 
G1 X112.098 Y232.445 Z-1.000 F1000.000 
G2 X112.787 Y228.891 Z-1.000 I-9.867 J-3.756 F1000.000 
G1 X101.509 Y217.613 Z-1.000 F1000.000 
G3 X107.119 Y218.980 Z-1.000 I0.336 J10.812 F1000.000 
G1 X111.420 Y223.281 Z-1.000 F1000.000 
G2 X107.119 Y218.980 Z-1.000 I-9.515 J5.214 F1000.000 
G0 Z5.000 
G0 X98.954 Y210.815 Z5.000 
G0 X98.954 Y210.815 Z3.000 
G1 X98.954 Y210.815 Z-1.000 F500.000 
G3 X91.185 Y203.046 Z-1.000 I2.806 J-10.575 F1000.000 
G1 X98.954 Y210.815 Z-1.000 F1000.000 
G2 X103.453 Y211.072 Z-1.000 I2.852 J-10.407 F1000.000 
G1 X90.928 Y198.547 Z-1.000 F1000.000 
G3 X91.947 Y195.323 Z-1.000 I10.703 J1.611 F1000.000 
G1 X106.677 Y210.053 Z-1.000 F1000.000 
G2 X109.199 Y208.332 Z-1.000 I-4.670 J-9.552 F1000.000 
G1 X93.668 Y192.801 Z-1.000 F1000.000 
G3 X95.984 Y190.875 Z-1.000 I7.760 J6.975 F1000.000 
G1 X111.125 Y206.016 Z-1.000 F1000.000 
G2 X112.412 Y203.060 Z-1.000 I-8.674 J-5.533 F1000.000 
G1 X98.940 Y189.588 Z-1.000 F1000.000 
G3 X102.853 Y189.259 Z-1.000 I2.829 J10.197 F1000.000 
G1 X112.741 Y199.147 Z-1.000 F1000.000 
G2 X102.853 Y189.259 Z-1.000 I-10.922 J1.034 F1000.000 
G0 Z5.000 
G0 X90.880 Y173.043 Z5.000 
G0 X90.880 Y173.043 Z3.000 
G1 X90.880 Y173.043 Z-1.000 F500.000 
G2 X100.557 Y182.720 Z-1.000 I10.895 J-1.218 F1000.000 
G1 X90.880 Y173.043 Z-1.000 F1000.000 
G3 X91.153 Y169.073 Z-1.000 I10.493 J-1.275 F1000.000 
G1 X104.527 Y182.447 Z-1.000 F1000.000 
G2 X107.512 Y181.190 Z-1.000 I-2.490 J-10.088 F1000.000 
G1 X92.410 Y166.088 Z-1.000 F1000.000 
G3 X94.311 Y163.746 Z-1.000 I9.107 J5.453 F1000.000 
G1 X109.854 Y179.289 Z-1.000 F1000.000 
G2 X111.595 Y176.787 Z-1.000 I-7.850 J-7.321 F1000.000 
G1 X96.813 Y162.005 Z-1.000 F1000.000 
G3 X100.005 Y160.955 Z-1.000 I4.820 J9.268 F1000.000 
G1 X112.645 Y173.595 Z-1.000 F1000.000 
G2 X112.477 Y169.184 Z-1.000 I-10.600 J-1.804 F1000.000 
G1 X104.416 Y161.123 Z-1.000 F1000.000 
G3 X112.477 Y169.184 Z-1.000 I-2.591 J10.652 F1000.000 
G0 Z5.000 
G0 X120.817 Y177.525 Z5.000 
G0 X120.817 Y177.525 Z3.000 
G1 X120.817 Y177.525 Z-1.000 F500.000 
G2 X124.475 Y181.183 Z-1.000 I9.212 J-5.554 F1000.000 
G1 X120.817 Y177.525 Z-1.000 F1000.000 
G3 X119.207 Y171.672 Z-1.000 I9.244 J-5.691 F1000.000 
G1 X130.328 Y182.793 Z-1.000 F1000.000 
G2 X133.920 Y182.142 Z-1.000 I-0.069 J-10.611 F1000.000 
G1 X119.858 Y168.080 Z-1.000 F1000.000 
G3 X121.331 Y165.310 Z-1.000 I9.696 J3.378 F1000.000 
G1 X136.690 Y180.669 Z-1.000 F1000.000 
G2 X138.850 Y178.587 Z-1.000 I-6.074 J-8.463 F1000.000 
G1 X123.413 Y163.150 Z-1.000 F1000.000 
G3 X126.103 Y161.597 Z-1.000 I6.646 J8.406 F1000.000 
G1 X140.403 Y175.897 Z-1.000 F1000.000 
G2 X141.174 Y172.426 Z-1.000 I-9.902 J-4.022 F1000.000 
G1 X129.574 Y160.826 Z-1.000 F1000.000 
G3 X134.813 Y161.822 Z-1.000 I0.661 J10.796 F1000.000 
G1 X140.178 Y167.187 Z-1.000 F1000.000 
G2 X134.813 Y161.822 Z-1.000 I-9.919 J4.554 F1000.000 
G0 Z5.000 
G0 X126.869 Y153.878 Z5.000 
G0 X126.869 Y153.878 Z3.000 
G1 X126.869 Y153.878 Z-1.000 F500.000 
G3 X119.722 Y146.731 Z-1.000 I3.311 J-10.458 F1000.000 
G1 X126.869 Y153.878 Z-1.000 F1000.000 
G2 X131.542 Y154.309 Z-1.000 I3.302 J-10.270 F1000.000 
G1 X119.291 Y142.058 Z-1.000 F1000.000 
G3 X120.235 Y138.758 Z-1.000 I10.382 J1.183 F1000.000 
G1 X134.842 Y153.365 Z-1.000 F1000.000 
G2 X137.412 Y151.693 Z-1.000 I-4.322 J-9.453 F1000.000 
G1 X121.907 Y136.188 Z-1.000 F1000.000 
G3 X124.171 Y134.209 Z-1.000 I7.831 J6.673 F1000.000 
G1 X139.391 Y149.429 Z-1.000 F1000.000 
G2 X140.738 Y146.534 Z-1.000 I-8.799 J-5.855 F1000.000 
G1 X127.066 Y132.862 Z-1.000 F1000.000 
G3 X130.874 Y132.427 Z-1.000 I3.101 J10.276 F1000.000 
G1 X141.173 Y142.726 Z-1.000 F1000.000 
G2 X130.874 Y132.427 Z-1.000 I-10.960 J0.662 F1000.000 
G0 Z5.000 
G0 X119.324 Y116.635 Z5.000 
G0 X119.324 Y116.635 Z3.000 
G1 X119.324 Y116.635 Z-1.000 F500.000 
G2 X128.565 Y125.876 Z-1.000 I10.875 J-1.634 F1000.000 
G1 X119.324 Y116.635 Z-1.000 F1000.000 
G3 X119.479 Y112.547 Z-1.000 I10.864 J-1.635 F1000.000 
G1 X132.653 Y125.721 Z-1.000 F1000.000 
G2 X135.699 Y124.524 Z-1.000 I-2.448 J-10.711 F1000.000 
G1 X120.676 Y109.501 Z-1.000 F1000.000 
G3 X122.538 Y107.120 Z-1.000 I9.219 J5.291 F1000.000 
G1 X138.080 Y122.662 Z-1.000 F1000.000 
G2 X139.875 Y120.215 Z-1.000 I-7.292 J-7.228 F1000.000 
G1 X124.985 Y105.325 Z-1.000 F1000.000 
G3 X128.113 Y104.210 Z-1.000 I4.999 J9.074 F1000.000 
G1 X140.990 Y117.087 Z-1.000 F1000.000 
G2 X140.974 Y112.829 Z-1.000 I-10.419 J-2.090 F1000.000 
G1 X132.371 Y104.226 Z-1.000 F1000.000 
G3 X140.974 Y112.829 Z-1.000 I-2.142 J10.745 F1000.000 
G0 Z5.000 
G0 X149.998 Y121.853 Z5.000 
G0 X149.998 Y121.853 Z3.000 
G1 X149.998 Y121.853 Z-1.000 F500.000 
G2 X151.747 Y123.602 Z-1.000 I8.577 J-6.828 F1000.000 
G1 X149.998 Y121.853 Z-1.000 F1000.000 
G3 X147.610 Y115.222 Z-1.000 I8.553 J-6.826 F1000.000 
G1 X158.378 Y125.990 Z-1.000 F1000.000 
G2 X162.063 Y125.432 Z-1.000 I0.283 J-10.584 F1000.000 
G1 X148.168 Y111.537 Z-1.000 F1000.000 
G3 X149.583 Y108.710 Z-1.000 I10.006 J3.240 F1000.000 
G1 X164.890 Y124.017 Z-1.000 F1000.000 
G2 X167.094 Y121.978 Z-1.000 I-5.993 J-8.690 F1000.000 
G1 X151.622 Y106.506 Z-1.000 F1000.000 
G3 X154.261 Y104.902 Z-1.000 I6.646 J7.967 F1000.000 
G1 X168.698 Y119.339 Z-1.000 F1000.000 
G2 X169.553 Y115.951 Z-1.000 I-9.574 J-4.218 F1000.000 
G1 X157.649 Y104.047 Z-1.000 F1000.000 
G3 X162.600 Y104.756 Z-1.000 I0.976 J10.835 F1000.000 
G1 X168.844 Y111.000 Z-1.000 F1000.000 
G2 X162.600 Y104.756 Z-1.000 I-10.238 J3.994 F1000.000 
G0 Z5.000 
G0 X183.135 Y125.291 Z5.000 
G0 X183.135 Y125.291 Z3.000 
G1 X183.135 Y125.291 Z-1.000 F500.000 
G3 X176.709 Y118.865 Z-1.000 I3.826 J-10.253 F1000.000 
G1 X183.135 Y125.291 Z-1.000 F1000.000 
G2 X188.030 Y125.944 Z-1.000 I3.835 J-10.088 F1000.000 
G1 X176.056 Y113.970 Z-1.000 F1000.000 
G3 X176.929 Y110.600 Z-1.000 I10.443 J0.907 F1000.000 
G1 X191.400 Y125.071 Z-1.000 F1000.000 
G2 X194.026 Y123.454 Z-1.000 I-4.029 J-9.480 F1000.000 
G1 X178.546 Y107.974 Z-1.000 F1000.000 
G3 X180.760 Y105.946 Z-1.000 I8.179 J6.703 F1000.000 
G1 X196.054 Y121.240 Z-1.000 F1000.000 
G2 X197.455 Y118.398 Z-1.000 I-8.771 J-6.089 F1000.000 
G1 X183.602 Y104.545 Z-1.000 F1000.000 
G3 X187.314 Y104.014 Z-1.000 I3.334 J10.061 F1000.000 
G1 X197.986 Y114.686 Z-1.000 F1000.000 
G2 X194.480 Y106.938 Z-1.000 I-10.941 J0.283 F1000.000 
G0 Z5.000 
G0 X191.000 Y133.156 Z5.000 
G0 X191.000 Y133.156 Z3.000 
G1 X191.000 Y133.156 Z-1.000 F500.000 
G3 X197.244 Y139.400 Z-1.000 I-3.994 J10.238 F1000.000 
G1 X191.000 Y133.156 Z-1.000 F1000.000 
G2 X186.049 Y132.447 Z-1.000 I-3.976 J10.126 F1000.000 
G1 X197.953 Y144.351 Z-1.000 F1000.000 
G3 X197.098 Y147.739 Z-1.000 I-10.429 J-0.830 F1000.000 
G1 X182.661 Y133.302 Z-1.000 F1000.000 
G2 X180.022 Y134.906 Z-1.000 I4.007 J9.570 F1000.000 
G1 X195.494 Y150.378 Z-1.000 F1000.000 
G3 X193.290 Y152.417 Z-1.000 I-8.197 J-6.652 F1000.000 
G1 X177.983 Y137.110 Z-1.000 F1000.000 
G2 X176.568 Y139.937 Z-1.000 I8.591 J6.067 F1000.000 
G1 X190.463 Y153.832 Z-1.000 F1000.000 
G3 X186.778 Y154.390 Z-1.000 I-3.402 J-10.026 F1000.000 
G1 X176.010 Y143.622 Z-1.000 F1000.000 
G2 X178.398 Y150.253 Z-1.000 I10.941 J-0.195 F1000.000 
G1 X180.147 Y152.002 Z-1.000 F1000.000 
G3 X178.398 Y150.253 Z-1.000 I6.828 J-8.577 F1000.000 
G0 Z5.000 
G0 X169.374 Y141.229 Z5.000 
G0 X169.374 Y141.229 Z3.000 
G1 X169.374 Y141.229 Z-1.000 F500.000 
G2 X160.771 Y132.626 Z-1.000 I-10.745 J2.142 F1000.000 
G1 X169.374 Y141.229 Z-1.000 F1000.000 
G3 X169.390 Y145.487 Z-1.000 I-10.404 J2.168 F1000.000 
G1 X156.513 Y132.610 Z-1.000 F1000.000 
G2 X153.385 Y133.725 Z-1.000 I1.872 J10.190 F1000.000 
G1 X168.275 Y148.615 Z-1.000 F1000.000 
G3 X166.480 Y151.062 Z-1.000 I-9.086 J-4.780 F1000.000 
G1 X150.938 Y135.520 Z-1.000 F1000.000 
G2 X149.076 Y137.901 Z-1.000 I7.357 J7.672 F1000.000 
G1 X164.099 Y152.924 Z-1.000 F1000.000 
G3 X161.053 Y154.121 Z-1.000 I-5.495 J-9.515 F1000.000 
G1 X147.879 Y140.947 Z-1.000 F1000.000 
G2 X147.724 Y145.035 Z-1.000 I10.709 J2.453 F1000.000 
G1 X156.965 Y154.276 Z-1.000 F1000.000 
G3 X147.724 Y145.035 Z-1.000 I1.634 J-10.875 F1000.000 
G0 Z5.000 
G0 X159.274 Y160.827 Z5.000 
G0 X159.274 Y160.827 Z3.000 
G1 X159.274 Y160.827 Z-1.000 F500.000 
G3 X169.573 Y171.126 Z-1.000 I-0.662 J10.960 F1000.000 
G1 X159.274 Y160.827 Z-1.000 F1000.000 
G2 X155.466 Y161.262 Z-1.000 I-0.707 J10.710 F1000.000 
G1 X169.138 Y174.934 Z-1.000 F1000.000 
G3 X167.791 Y177.829 Z-1.000 I-10.146 J-2.959 F1000.000 
G1 X152.571 Y162.609 Z-1.000 F1000.000 
G2 X150.307 Y164.588 Z-1.000 I5.568 J8.652 F1000.000 
G1 X165.812 Y180.093 Z-1.000 F1000.000 
G3 X163.242 Y181.765 Z-1.000 I-6.892 J-7.781 F1000.000 
G1 X148.635 Y167.158 Z-1.000 F1000.000 
G2 X147.691 Y170.458 Z-1.000 I9.439 J4.482 F1000.000 
G1 X159.942 Y182.709 Z-1.000 F1000.000 
G3 X155.269 Y182.278 Z-1.000 I-1.371 J-10.700 F1000.000 
G1 X148.122 Y175.131 Z-1.000 F1000.000 
G2 X155.269 Y182.278 Z-1.000 I10.458 J-3.311 F1000.000 
G0 Z5.000 
G0 X163.213 Y190.222 Z5.000 
G0 X163.213 Y190.222 Z3.000 
G1 X163.213 Y190.222 Z-1.000 F500.000 
G3 X168.578 Y195.587 Z-1.000 I-4.554 J9.919 F1000.000 
G1 X163.213 Y190.222 Z-1.000 F1000.000 
G2 X157.974 Y189.226 Z-1.000 I-4.578 J9.799 F1000.000 
G1 X169.574 Y200.826 Z-1.000 F1000.000 
G3 X168.803 Y204.297 Z-1.000 I-10.674 J-0.551 F1000.000 
G1 X154.503 Y189.997 Z-1.000 F1000.000 
G2 X151.813 Y191.550 Z-1.000 I3.956 J9.959 F1000.000 
G1 X167.250 Y206.987 Z-1.000 F1000.000 
G3 X165.090 Y209.069 Z-1.000 I-8.235 J-6.380 F1000.000 
G1 X149.731 Y193.710 Z-1.000 F1000.000 
G2 X148.258 Y196.480 Z-1.000 I8.224 J6.148 F1000.000 
G1 X162.320 Y210.542 Z-1.000 F1000.000 
G3 X158.728 Y211.193 Z-1.000 I-3.661 J-9.960 F1000.000 
G1 X147.607 Y200.072 Z-1.000 F1000.000 
G2 X149.217 Y205.925 Z-1.000 I10.854 J0.162 F1000.000 
G1 X152.875 Y209.583 Z-1.000 F1000.000 
G3 X149.217 Y205.925 Z-1.000 I5.554 J-9.212 F1000.000 
G0 Z5.000 
G0 X140.877 Y197.584 Z5.000 
G0 X140.877 Y197.584 Z3.000 
G1 X140.877 Y197.584 Z-1.000 F500.000 
G2 X132.816 Y189.523 Z-1.000 I-10.652 J2.591 F1000.000 
G1 X140.877 Y197.584 Z-1.000 F1000.000 
G3 X141.045 Y201.995 Z-1.000 I-10.431 J2.607 F1000.000 
G1 X128.405 Y189.355 Z-1.000 F1000.000 
G2 X125.213 Y190.405 Z-1.000 I1.628 J10.319 F1000.000 
G1 X139.995 Y205.187 Z-1.000 F1000.000 
G3 X138.254 Y207.689 Z-1.000 I-9.591 J-4.819 F1000.000 
G1 X122.711 Y192.146 Z-1.000 F1000.000 
G2 X120.810 Y194.488 Z-1.000 I7.205 J7.795 F1000.000 
G1 X135.912 Y209.590 Z-1.000 F1000.000 
G3 X132.927 Y210.847 Z-1.000 I-5.475 J-8.832 F1000.000 
G1 X119.553 Y197.473 Z-1.000 F1000.000 
G2 X119.280 Y201.443 Z-1.000 I10.221 J2.696 F1000.000 
G1 X128.957 Y211.120 Z-1.000 F1000.000 
G3 X119.280 Y201.443 Z-1.000 I1.218 J-10.895 F1000.000 
G0 Z5.000 
G0 X131.253 Y217.659 Z5.000 
G0 X131.253 Y217.659 Z3.000 
G1 X131.253 Y217.659 Z-1.000 F500.000 
G3 X141.141 Y227.547 Z-1.000 I-1.034 J10.922 F1000.000 
G1 X131.253 Y217.659 Z-1.000 F1000.000 
G2 X127.340 Y217.988 Z-1.000 I-1.084 J10.527 F1000.000 
G1 X140.812 Y231.460 Z-1.000 F1000.000 
G3 X139.525 Y234.416 Z-1.000 I-9.961 J-2.577 F1000.000 
G1 X124.384 Y219.275 Z-1.000 F1000.000 
G2 X122.068 Y221.201 Z-1.000 I5.444 J8.902 F1000.000 
G1 X137.599 Y236.732 Z-1.000 F1000.000 
G3 X135.077 Y238.453 Z-1.000 I-7.192 J-7.832 F1000.000 
G1 X120.347 Y223.723 Z-1.000 F1000.000 
G2 X119.328 Y226.947 Z-1.000 I9.684 J4.834 F1000.000 
G1 X131.853 Y239.472 Z-1.000 F1000.000 
G3 X127.354 Y239.215 Z-1.000 I-1.648 J-10.664 F1000.000 
G1 X119.585 Y231.446 Z-1.000 F1000.000 
G2 X127.354 Y239.215 Z-1.000 I10.575 J-2.806 F1000.000 
G0 Z5.000 
G0 X147.680 Y229.843 Z5.000 
G0 X147.680 Y229.843 Z3.000 
G1 X147.680 Y229.843 Z-1.000 F500.000 
G2 X157.357 Y239.520 Z-1.000 I10.895 J-1.218 F1000.000 
G1 X147.680 Y229.843 Z-1.000 F1000.000 
G3 X147.953 Y225.873 Z-1.000 I10.493 J-1.275 F1000.000 
G1 X161.327 Y239.247 Z-1.000 F1000.000 
G2 X164.312 Y237.990 Z-1.000 I-2.490 J-10.088 F1000.000 
G1 X149.210 Y222.888 Z-1.000 F1000.000 
G3 X151.111 Y220.546 Z-1.000 I9.107 J5.453 F1000.000 
G1 X166.654 Y236.089 Z-1.000 F1000.000 
G2 X168.395 Y233.587 Z-1.000 I-7.850 J-7.321 F1000.000 
G1 X153.613 Y218.805 Z-1.000 F1000.000 
G3 X156.805 Y217.755 Z-1.000 I4.820 J9.268 F1000.000 
G1 X169.445 Y230.395 Z-1.000 F1000.000 
G2 X169.277 Y225.984 Z-1.000 I-10.600 J-1.804 F1000.000 
G1 X161.216 Y217.923 Z-1.000 F1000.000 
G3 X169.277 Y225.984 Z-1.000 I-2.591 J10.652 F1000.000 
G0 Z5.000 
G0 X177.617 Y234.325 Z5.000 
G0 X177.617 Y234.325 Z3.000 
G1 X177.617 Y234.325 Z-1.000 F500.000 
G2 X181.275 Y237.983 Z-1.000 I9.212 J-5.554 F1000.000 
G1 X177.617 Y234.325 Z-1.000 F1000.000 
G3 X176.007 Y228.472 Z-1.000 I9.244 J-5.691 F1000.000 
G1 X187.128 Y239.593 Z-1.000 F1000.000 
G2 X190.720 Y238.942 Z-1.000 I-0.069 J-10.611 F1000.000 
G1 X176.658 Y224.880 Z-1.000 F1000.000 
G3 X178.131 Y222.110 Z-1.000 I9.696 J3.378 F1000.000 
G1 X193.490 Y237.469 Z-1.000 F1000.000 
G2 X195.650 Y235.387 Z-1.000 I-6.074 J-8.463 F1000.000 
G1 X180.213 Y219.950 Z-1.000 F1000.000 
G3 X182.903 Y218.397 Z-1.000 I6.646 J8.406 F1000.000 
G1 X197.203 Y232.697 Z-1.000 F1000.000 
G2 X197.974 Y229.226 Z-1.000 I-9.902 J-4.022 F1000.000 
G1 X186.374 Y217.626 Z-1.000 F1000.000 
G3 X191.613 Y218.622 Z-1.000 I0.661 J10.796 F1000.000 
G1 X196.978 Y223.987 Z-1.000 F1000.000 
G2 X191.613 Y218.622 Z-1.000 I-9.919 J4.554 F1000.000 
G0 Z5.000 
G0 X183.669 Y210.678 Z5.000 
G0 X183.669 Y210.678 Z3.000 
G1 X183.669 Y210.678 Z-1.000 F500.000 
G3 X176.522 Y203.531 Z-1.000 I3.311 J-10.458 F1000.000 
G1 X183.669 Y210.678 Z-1.000 F1000.000 
G2 X188.342 Y211.109 Z-1.000 I3.302 J-10.270 F1000.000 
G1 X176.091 Y198.858 Z-1.000 F1000.000 
G3 X177.035 Y195.558 Z-1.000 I10.382 J1.183 F1000.000 
G1 X191.642 Y210.165 Z-1.000 F1000.000 
G2 X194.212 Y208.493 Z-1.000 I-4.322 J-9.453 F1000.000 
G1 X178.707 Y192.988 Z-1.000 F1000.000 
G3 X180.971 Y191.009 Z-1.000 I7.831 J6.673 F1000.000 
G1 X196.191 Y206.229 Z-1.000 F1000.000 
G2 X197.538 Y203.334 Z-1.000 I-8.799 J-5.855 F1000.000 
G1 X183.866 Y189.662 Z-1.000 F1000.000 
G3 X187.674 Y189.227 Z-1.000 I3.101 J10.276 F1000.000 
G1 X197.973 Y199.526 Z-1.000 F1000.000 
G2 X187.674 Y189.227 Z-1.000 I-10.960 J0.662 F1000.000 
G0 Z5.000 
G0 X176.124 Y173.435 Z5.000 
G0 X176.124 Y173.435 Z3.000 
G1 X176.124 Y173.435 Z-1.000 F500.000 
G2 X185.365 Y182.676 Z-1.000 I10.875 J-1.634 F1000.000 
G1 X176.124 Y173.435 Z-1.000 F1000.000 
G3 X176.279 Y169.347 Z-1.000 I10.864 J-1.635 F1000.000 
G1 X189.453 Y182.521 Z-1.000 F1000.000 
G2 X192.499 Y181.324 Z-1.000 I-2.449 J-10.711 F1000.000 
G1 X177.476 Y166.301 Z-1.000 F1000.000 
G3 X179.338 Y163.920 Z-1.000 I9.219 J5.291 F1000.000 
G1 X194.880 Y179.462 Z-1.000 F1000.000 
G2 X196.675 Y177.015 Z-1.000 I-7.292 J-7.228 F1000.000 
G1 X181.785 Y162.125 Z-1.000 F1000.000 
G3 X184.913 Y161.010 Z-1.000 I4.999 J9.074 F1000.000 
G1 X197.790 Y173.887 Z-1.000 F1000.000 
G2 X197.774 Y169.629 Z-1.000 I-10.419 J-2.090 F1000.000 
G1 X189.171 Y161.026 Z-1.000 F1000.000 
G3 X197.774 Y169.629 Z-1.000 I-2.142 J10.745 F1000.000 
G0 Z5.000 
G0 X106.413 Y133.422 Z5.000 
G0 X106.413 Y133.422 Z3.000 
G1 X106.413 Y133.422 Z-1.000 F500.000 
G3 X111.778 Y138.787 Z-1.000 I-4.554 J9.919 F1000.000 
G1 X106.413 Y133.422 Z-1.000 F1000.000 
G2 X101.174 Y132.426 Z-1.000 I-4.578 J9.799 F1000.000 
G1 X112.774 Y144.026 Z-1.000 F1000.000 
G3 X112.003 Y147.497 Z-1.000 I-10.673 J-0.550 F1000.000 
G1 X97.703 Y133.197 Z-1.000 F1000.000 
G2 X95.013 Y134.750 Z-1.000 I3.956 J9.959 F1000.000 
G1 X110.450 Y150.187 Z-1.000 F1000.000 
G3 X108.290 Y152.269 Z-1.000 I-8.234 J-6.380 F1000.000 
G1 X92.931 Y136.910 Z-1.000 F1000.000 
G2 X91.458 Y139.680 Z-1.000 I8.224 J6.148 F1000.000 
G1 X105.520 Y153.742 Z-1.000 F1000.000 
G3 X101.928 Y154.393 Z-1.000 I-3.661 J-9.960 F1000.000 
G1 X90.807 Y143.272 Z-1.000 F1000.000 
G2 X92.417 Y149.125 Z-1.000 I10.854 J0.162 F1000.000 
G1 X96.075 Y152.783 Z-1.000 F1000.000 
G3 X92.417 Y149.125 Z-1.000 I5.554 J-9.212 F1000.000 
G0 Z5.000 
G0 X84.077 Y140.784 Z5.000 
G0 X84.077 Y140.784 Z3.000 
G1 X84.077 Y140.784 Z-1.000 F500.000 
G2 X76.016 Y132.723 Z-1.000 I-10.652 J2.591 F1000.000 
G1 X84.077 Y140.784 Z-1.000 F1000.000 
G3 X84.245 Y145.195 Z-1.000 I-10.431 J2.607 F1000.000 
G1 X71.605 Y132.555 Z-1.000 F1000.000 
G2 X68.413 Y133.605 Z-1.000 I1.628 J10.319 F1000.000 
G1 X83.195 Y148.387 Z-1.000 F1000.000 
G3 X81.454 Y150.889 Z-1.000 I-9.591 J-4.819 F1000.000 
G1 X65.911 Y135.346 Z-1.000 F1000.000 
G2 X64.010 Y137.688 Z-1.000 I7.205 J7.795 F1000.000 
G1 X79.112 Y152.790 Z-1.000 F1000.000 
G3 X76.127 Y154.047 Z-1.000 I-5.475 J-8.832 F1000.000 
G1 X62.753 Y140.673 Z-1.000 F1000.000 
G2 X62.480 Y144.643 Z-1.000 I10.221 J2.696 F1000.000 
G1 X72.157 Y154.320 Z-1.000 F1000.000 
G3 X62.480 Y144.643 Z-1.000 I1.218 J-10.895 F1000.000 
G0 Z5.000 
G0 X74.453 Y160.859 Z5.000 
G0 X74.453 Y160.859 Z3.000 
G1 X74.453 Y160.859 Z-1.000 F500.000 
G3 X84.341 Y170.747 Z-1.000 I-1.034 J10.922 F1000.000 
G1 X74.453 Y160.859 Z-1.000 F1000.000 
G2 X70.540 Y161.188 Z-1.000 I-1.084 J10.527 F1000.000 
G1 X84.012 Y174.660 Z-1.000 F1000.000 
G3 X82.725 Y177.616 Z-1.000 I-9.961 J-2.577 F1000.000 
G1 X67.584 Y162.475 Z-1.000 F1000.000 
G2 X65.268 Y164.401 Z-1.000 I5.444 J8.902 F1000.000 
G1 X80.799 Y179.932 Z-1.000 F1000.000 
G3 X78.277 Y181.653 Z-1.000 I-7.192 J-7.832 F1000.000 
G1 X63.547 Y166.923 Z-1.000 F1000.000 
G2 X62.528 Y170.147 Z-1.000 I9.684 J4.834 F1000.000 
G1 X75.053 Y182.672 Z-1.000 F1000.000 
G3 X70.554 Y182.415 Z-1.000 I-1.648 J-10.664 F1000.000 
G1 X62.785 Y174.646 Z-1.000 F1000.000 
G2 X70.554 Y182.415 Z-1.000 I10.575 J-2.806 F1000.000 
G0 Z5.000 
G0 X78.719 Y190.580 Z5.000 
G0 X78.719 Y190.580 Z3.000 
G1 X78.719 Y190.580 Z-1.000 F500.000 
G3 X83.020 Y194.881 Z-1.000 I-5.214 J9.515 F1000.000 
G1 X78.719 Y190.580 Z-1.000 F1000.000 
G2 X73.109 Y189.213 Z-1.000 I-5.273 J9.445 F1000.000 
G1 X84.387 Y200.491 Z-1.000 F1000.000 
G3 X83.698 Y204.045 Z-1.000 I-10.556 J-0.202 F1000.000 
G1 X69.555 Y189.902 Z-1.000 F1000.000 
G2 X66.813 Y191.402 Z-1.000 I3.551 J9.746 F1000.000 
G1 X82.198 Y206.787 Z-1.000 F1000.000 
G3 X80.090 Y208.922 Z-1.000 I-8.299 J-6.086 F1000.000 
G1 X64.678 Y193.510 Z-1.000 F1000.000 
G2 X63.148 Y196.223 Z-1.000 I8.430 J6.543 F1000.000 
G1 X77.377 Y210.452 Z-1.000 F1000.000 
G3 X73.863 Y211.181 Z-1.000 I-3.867 J-9.811 F1000.000 
G1 X62.419 Y199.737 Z-1.000 F1000.000 
G2 X63.580 Y205.140 Z-1.000 I10.787 J0.509 F1000.000 
G1 X68.460 Y210.020 Z-1.000 F1000.000 
G3 X63.580 Y205.140 Z-1.000 I4.863 J-9.743 F1000.000 
G0 Z5.000 
G0 X55.550 Y197.110 Z5.000 
G0 X55.550 Y197.110 Z3.000 
G1 X55.550 Y197.110 Z-1.000 F500.000 
G2 X48.090 Y189.650 Z-1.000 I-10.522 J3.062 F1000.000 
G1 X55.550 Y197.110 Z-1.000 F1000.000 
G3 X55.891 Y201.694 Z-1.000 I-10.345 J3.075 F1000.000 
G1 X43.506 Y189.309 Z-1.000 F1000.000 
G2 X40.240 Y190.286 Z-1.000 I1.426 J10.708 F1000.000 
G1 X54.914 Y204.960 Z-1.000 F1000.000 
G3 X53.215 Y207.503 Z-1.000 I-9.602 J-4.576 F1000.000 
G1 X37.697 Y191.985 Z-1.000 F1000.000 
G2 X35.744 Y194.274 Z-1.000 I6.751 J7.739 F1000.000 
G1 X50.926 Y209.456 Z-1.000 F1000.000 
G3 X48.001 Y210.774 Z-1.000 I-5.654 J-8.646 F1000.000 
G1 X34.426 Y197.199 Z-1.000 F1000.000 
G2 X34.036 Y201.052 Z-1.000 I10.355 J2.994 F1000.000 
G1 X44.148 Y211.164 Z-1.000 F1000.000 
G3 X34.036 Y201.052 Z-1.000 I0.849 J-10.960 F1000.000 
G0 Z5.000 
G0 X35.180 Y176.740 Z5.000 
G0 X35.180 Y176.740 Z3.000 
G1 X35.180 Y176.740 Z-1.000 F500.000 
G2 X40.060 Y181.620 Z-1.000 I9.743 J-4.863 F1000.000 
G1 X35.180 Y176.740 Z-1.000 F1000.000 
G3 X34.019 Y171.337 Z-1.000 I9.627 J-4.895 F1000.000 
G1 X45.463 Y182.781 Z-1.000 F1000.000 
G2 X48.977 Y182.052 Z-1.000 I-0.353 J-10.540 F1000.000 
G1 X34.748 Y167.823 Z-1.000 F1000.000 
G3 X36.278 Y165.110 Z-1.000 I9.960 J3.830 F1000.000 
G1 X51.690 Y180.522 Z-1.000 F1000.000 
G2 X53.798 Y178.387 Z-1.000 I-6.191 J-8.221 F1000.000 
G1 X38.413 Y163.002 Z-1.000 F1000.000 
G3 X41.155 Y161.502 Z-1.000 I6.293 J8.245 F1000.000 
G1 X55.298 Y175.645 Z-1.000 F1000.000 
G2 X55.987 Y172.091 Z-1.000 I-9.867 J-3.756 F1000.000 
G1 X44.709 Y160.813 Z-1.000 F1000.000 
G3 X50.319 Y162.180 Z-1.000 I0.336 J10.812 F1000.000 
G1 X54.620 Y166.481 Z-1.000 F1000.000 
G2 X50.319 Y162.180 Z-1.000 I-9.515 J5.214 F1000.000 
G0 Z5.000 
G0 X42.154 Y154.015 Z5.000 
G0 X42.154 Y154.015 Z3.000 
G1 X42.154 Y154.015 Z-1.000 F500.000 
G3 X34.385 Y146.246 Z-1.000 I2.806 J-10.575 F1000.000 
G1 X42.154 Y154.015 Z-1.000 F1000.000 
G2 X46.653 Y154.272 Z-1.000 I2.852 J-10.407 F1000.000 
G1 X34.128 Y141.747 Z-1.000 F1000.000 
G3 X35.147 Y138.523 Z-1.000 I10.703 J1.611 F1000.000 
G1 X49.877 Y153.253 Z-1.000 F1000.000 
G2 X52.399 Y151.532 Z-1.000 I-4.670 J-9.552 F1000.000 
G1 X36.868 Y136.001 Z-1.000 F1000.000 
G3 X39.184 Y134.075 Z-1.000 I7.760 J6.975 F1000.000 
G1 X54.325 Y149.216 Z-1.000 F1000.000 
G2 X55.612 Y146.260 Z-1.000 I-8.674 J-5.533 F1000.000 
G1 X42.140 Y132.788 Z-1.000 F1000.000 
G3 X46.053 Y132.459 Z-1.000 I2.829 J10.197 F1000.000 
G1 X55.941 Y142.347 Z-1.000 F1000.000 
G2 X46.053 Y132.459 Z-1.000 I-10.922 J1.034 F1000.000 
G0 Z5.000 
G0 X34.080 Y116.243 Z5.000 
G0 X34.080 Y116.243 Z3.000 
G1 X34.080 Y116.243 Z-1.000 F500.000 
G2 X43.757 Y125.920 Z-1.000 I10.895 J-1.218 F1000.000 
G1 X34.080 Y116.243 Z-1.000 F1000.000 
G3 X34.353 Y112.273 Z-1.000 I10.493 J-1.275 F1000.000 
G1 X47.727 Y125.647 Z-1.000 F1000.000 
G2 X50.712 Y124.390 Z-1.000 I-2.490 J-10.088 F1000.000 
G1 X35.610 Y109.288 Z-1.000 F1000.000 
G3 X37.511 Y106.946 Z-1.000 I9.107 J5.453 F1000.000 
G1 X53.054 Y122.489 Z-1.000 F1000.000 
G2 X54.795 Y119.987 Z-1.000 I-7.850 J-7.321 F1000.000 
G1 X40.013 Y105.205 Z-1.000 F1000.000 
G3 X43.205 Y104.155 Z-1.000 I4.820 J9.268 F1000.000 
G1 X55.845 Y116.795 Z-1.000 F1000.000 
G2 X55.677 Y112.384 Z-1.000 I-10.600 J-1.804 F1000.000 
G1 X47.616 Y104.323 Z-1.000 F1000.000 
G3 X55.677 Y112.384 Z-1.000 I-2.591 J10.652 F1000.000 
G0 Z5.000 
G0 X64.017 Y120.725 Z5.000 
G0 X64.017 Y120.725 Z3.000 
G1 X64.017 Y120.725 Z-1.000 F500.000 
G2 X67.675 Y124.383 Z-1.000 I9.212 J-5.554 F1000.000 
G1 X64.017 Y120.725 Z-1.000 F1000.000 
G3 X62.407 Y114.872 Z-1.000 I9.244 J-5.691 F1000.000 
G1 X73.528 Y125.993 Z-1.000 F1000.000 
G2 X77.120 Y125.342 Z-1.000 I-0.069 J-10.611 F1000.000 
G1 X63.058 Y111.280 Z-1.000 F1000.000 
G3 X64.531 Y108.510 Z-1.000 I9.696 J3.378 F1000.000 
G1 X79.890 Y123.869 Z-1.000 F1000.000 
G2 X82.050 Y121.787 Z-1.000 I-6.074 J-8.463 F1000.000 
G1 X66.613 Y106.350 Z-1.000 F1000.000 
G3 X69.303 Y104.797 Z-1.000 I6.646 J8.406 F1000.000 
G1 X83.603 Y119.097 Z-1.000 F1000.000 
G2 X84.374 Y115.626 Z-1.000 I-9.902 J-4.022 F1000.000 
G1 X72.774 Y104.026 Z-1.000 F1000.000 
G3 X78.013 Y105.022 Z-1.000 I0.661 J10.796 F1000.000 
G1 X83.378 Y110.387 Z-1.000 F1000.000 
G2 X78.013 Y105.022 Z-1.000 I-9.919 J4.554 F1000.000 
G0 Z5.000 
G0 X102.474 Y104.027 Z5.000 
G0 X102.474 Y104.027 Z3.000 
G1 X102.474 Y104.027 Z-1.000 F500.000 
G3 X112.773 Y114.326 Z-1.000 I-0.662 J10.960 F1000.000 
G1 X102.474 Y104.027 Z-1.000 F1000.000 
G2 X98.666 Y104.462 Z-1.000 I-0.707 J10.710 F1000.000 
G1 X112.338 Y118.134 Z-1.000 F1000.000 
G3 X110.991 Y121.029 Z-1.000 I-10.146 J-2.959 F1000.000 
G1 X95.771 Y105.809 Z-1.000 F1000.000 
G2 X93.507 Y107.788 Z-1.000 I5.568 J8.652 F1000.000 
G1 X109.012 Y123.293 Z-1.000 F1000.000 
G3 X106.442 Y124.965 Z-1.000 I-6.892 J-7.781 F1000.000 
G1 X91.835 Y110.358 Z-1.000 F1000.000 
G2 X90.891 Y113.658 Z-1.000 I9.439 J4.482 F1000.000 
G1 X103.142 Y125.909 Z-1.000 F1000.000 
G3 X98.469 Y125.478 Z-1.000 I-1.371 J-10.700 F1000.000 
G1 X91.322 Y118.331 Z-1.000 F1000.000 
G2 X98.469 Y125.478 Z-1.000 I10.458 J-3.311 F1000.000 
G0 Z5.000 
G0 X105.843 Y134.258 Z5.000 
G0 X105.843 Y134.258 Z3.000 
G1 X105.843 Y134.258 Z-2.000 F500.000 
G3 X110.931 Y139.346 Z-2.000 I-4.000 J9.087 F1000.000 
G1 X105.843 Y134.258 Z-2.000 F1000.000 
G2 X100.799 Y133.457 Z-2.000 I-4.022 J9.040 F1000.000 
G1 X111.741 Y144.399 Z-2.000 F1000.000 
G3 X110.814 Y147.714 Z-2.000 I-9.617 J-0.902 F1000.000 
G1 X97.487 Y134.387 Z-2.000 F1000.000 
G2 X94.967 Y136.110 Z-2.000 I3.983 J8.530 F1000.000 
G1 X109.091 Y150.234 Z-2.000 F1000.000 
G3 X106.715 Y152.101 Z-2.000 I-7.051 J-6.532 F1000.000 
G1 X93.100 Y138.486 Z-2.000 F1000.000 
G2 X91.972 Y141.600 Z-2.000 I8.252 J4.750 F1000.000 
G1 X103.602 Y153.231 Z-2.000 F1000.000 
G3 X99.175 Y153.046 Z-2.000 I-1.812 J-9.744 F1000.000 
G1 X92.163 Y146.034 Z-2.000 F1000.000 
G2 X99.175 Y153.046 Z-2.000 I9.621 J-2.609 F1000.000 
G0 Z5.000 
G0 X83.165 Y141.279 Z5.000 
G0 X83.165 Y141.279 Z3.000 
G1 X83.165 Y141.279 Z-2.000 F500.000 
G2 X75.523 Y133.636 Z-2.000 I-9.740 J2.098 F1000.000 
G1 X83.165 Y141.279 Z-2.000 F1000.000 
G3 X83.165 Y145.521 Z-2.000 I-9.557 J2.121 F1000.000 
G1 X71.280 Y133.636 Z-2.000 F1000.000 
G2 X68.244 Y134.843 Z-2.000 I1.934 J9.287 F1000.000 
G1 X81.961 Y148.560 Z-2.000 F1000.000 
G3 X80.036 Y150.877 Z-2.000 I-8.467 J-5.075 F1000.000 
G1 X65.928 Y136.769 Z-2.000 F1000.000 
G2 X64.267 Y139.351 Z-2.000 I6.961 J6.303 F1000.000 
G1 X77.454 Y152.538 Z-2.000 F1000.000 
G3 X74.044 Y153.370 Z-2.000 I-3.963 J-8.830 F1000.000 
G1 X63.427 Y142.754 Z-2.000 F1000.000 
G2 X64.647 Y148.216 Z-2.000 I9.837 J0.671 F1000.000 
G1 X68.600 Y152.169 Z-2.000 F1000.000 
G3 X64.647 Y148.216 Z-2.000 I4.732 J-8.684 F1000.000 
G0 Z5.000 
G0 X74.016 Y161.827 Z5.000 
G0 X74.016 Y161.827 Z3.000 
G1 X74.016 Y161.827 Z-2.000 F500.000 
G3 X83.374 Y171.186 Z-2.000 I-0.599 J9.958 F1000.000 
G1 X74.016 Y161.827 Z-2.000 F1000.000 
G2 X70.260 Y162.315 Z-2.000 I-0.659 J9.636 F1000.000 
G1 X82.887 Y174.941 Z-2.000 F1000.000 
G3 X81.438 Y177.735 Z-2.000 I-9.049 J-2.921 F1000.000 
G1 X67.464 Y163.761 Z-2.000 F1000.000 
G2 X65.346 Y165.886 Z-2.000 I5.619 J7.718 F1000.000 
G1 X79.314 Y179.854 Z-2.000 F1000.000 
G3 X76.512 Y181.294 Z-2.000 I-5.664 J-7.577 F1000.000 
G1 X63.903 Y168.686 Z-2.000 F1000.000 
G2 X63.427 Y172.452 Z-2.000 I9.303 J3.089 F1000.000 
G2 X72.744 Y181.770 Z-2.000 I9.956 J-0.639 F1000.000 
G1 X63.427 Y172.452 Z-2.000 F1000.000 
G0 Z5.000 
G0 X49.723 Y162.990 Z5.000 
G0 X49.723 Y162.990 Z3.000 
G1 X49.723 Y162.990 Z-2.000 F500.000 
G3 X53.797 Y167.065 Z-2.000 I-4.649 J8.723 F1000.000 
G1 X49.723 Y162.990 Z-2.000 F1000.000 
G2 X44.322 Y161.832 Z-2.000 I-4.689 J8.694 F1000.000 
G1 X54.972 Y172.482 Z-2.000 F1000.000 
G3 X54.122 Y175.875 Z-2.000 I-9.668 J-0.619 F1000.000 
G1 X40.920 Y162.673 Z-2.000 F1000.000 
G2 X38.344 Y164.340 Z-2.000 I4.066 J9.106 F1000.000 
G1 X52.455 Y178.451 Z-2.000 F1000.000 
G3 X50.133 Y180.371 Z-2.000 I-7.046 J-6.156 F1000.000 
G1 X36.424 Y166.663 Z-2.000 F1000.000 
G2 X35.229 Y169.710 Z-2.000 I8.360 J5.039 F1000.000 
G1 X47.090 Y181.571 Z-2.000 F1000.000 
G3 X42.829 Y181.552 Z-2.000 I-2.089 J-9.501 F1000.000 
G1 X35.244 Y173.967 Z-2.000 F1000.000 
G2 X42.829 Y181.552 Z-2.000 I9.731 J-2.146 F1000.000 
G0 Z5.000 
G0 X54.651 Y197.617 Z5.000 
G0 X54.651 Y197.617 Z3.000 
G1 X54.651 Y197.617 Z-2.000 F500.000 
G2 X47.576 Y190.543 Z-2.000 I-9.630 J2.555 F1000.000 
G1 X54.651 Y197.617 Z-2.000 F1000.000 
G3 X54.822 Y202.030 Z-2.000 I-9.364 J2.572 F1000.000 
G1 X43.166 Y190.374 Z-2.000 F1000.000 
G2 X40.062 Y191.513 Z-2.000 I1.748 J9.565 F1000.000 
G1 X53.687 Y205.138 Z-2.000 F1000.000 
G3 X51.814 Y207.508 Z-2.000 I-8.298 J-4.633 F1000.000 
G1 X37.691 Y193.385 Z-2.000 F1000.000 
G2 X35.974 Y195.911 Z-2.000 I6.922 J6.552 F1000.000 
G1 X49.288 Y209.225 Z-2.000 F1000.000 
G3 X45.966 Y210.146 Z-2.000 I-4.193 J-8.674 F1000.000 
G1 X35.055 Y199.234 Z-2.000 F1000.000 
G2 X35.899 Y204.321 Z-2.000 I9.760 J0.994 F1000.000 
G1 X40.892 Y209.314 Z-2.000 F1000.000 
G3 X35.899 Y204.321 Z-2.000 I4.069 J-9.062 F1000.000 
G0 Z5.000 
G0 X45.992 Y218.656 Z5.000 
G0 X45.992 Y218.656 Z3.000 
G1 X45.992 Y218.656 Z-2.000 F500.000 
G3 X54.942 Y227.607 Z-2.000 I-0.975 J9.926 F1000.000 
G1 X45.992 Y218.656 Z-2.000 F1000.000 
G2 X42.124 Y219.031 Z-2.000 I-1.015 J9.658 F1000.000 
G1 X54.570 Y231.477 Z-2.000 F1000.000 
G3 X53.187 Y234.337 Z-2.000 I-9.403 J-2.783 F1000.000 
G1 X39.268 Y220.418 Z-2.000 F1000.000 
G2 X37.096 Y222.489 Z-2.000 I5.287 J7.717 F1000.000 
G1 X51.114 Y236.507 Z-2.000 F1000.000 
G3 X48.375 Y238.011 Z-2.000 I-6.072 J-7.814 F1000.000 
G1 X35.595 Y225.230 Z-2.000 F1000.000 
G2 X35.013 Y228.891 Z-2.000 I9.015 J3.309 F1000.000 
G2 X44.713 Y238.590 Z-2.000 I9.975 J-0.276 F1000.000 
G1 X35.013 Y228.891 Z-2.000 F1000.000 
G0 Z5.000 
G0 X50.614 Y248.734 Z5.000 
G0 X50.614 Y248.734 Z3.000 
G1 X50.614 Y248.734 Z-2.000 F500.000 
G3 X53.269 Y251.390 Z-2.000 I-5.399 J8.055 F1000.000 
G1 X50.614 Y248.734 Z-2.000 F1000.000 
G2 X44.646 Y247.010 Z-2.000 I-5.602 J8.197 F1000.000 
G1 X54.984 Y257.348 Z-2.000 F1000.000 
G3 X54.229 Y260.835 Z-2.000 I-9.676 J-0.270 F1000.000 
G1 X41.167 Y247.773 Z-2.000 F1000.000 
G2 X38.534 Y249.383 Z-2.000 I3.555 J8.776 F1000.000 
G1 X52.619 Y263.467 Z-2.000 F1000.000 
G3 X50.351 Y265.442 Z-2.000 I-7.377 J-6.184 F1000.000 
G1 X36.561 Y251.652 Z-2.000 F1000.000 
G2 X35.292 Y254.625 Z-2.000 I8.101 J5.216 F1000.000 
G1 X47.372 Y266.705 Z-2.000 F1000.000 
G3 X43.265 Y266.841 Z-2.000 I-2.367 J-9.433 F1000.000 
G1 X35.160 Y258.737 Z-2.000 F1000.000 
G2 X43.265 Y266.841 Z-2.000 I9.819 J-1.715 F1000.000 
G0 Z5.000 
G0 X63.413 Y257.291 Z5.000 
G0 X63.413 Y257.291 Z3.000 
G1 X63.413 Y257.291 Z-2.000 F500.000 
G1 X73.113 Y266.990 Z-2.000 F1000.000 
G3 X63.413 Y257.291 Z-2.000 I0.276 J-9.975 F1000.000 
G3 X63.995 Y253.630 Z-2.000 I9.597 J-0.352 F1000.000 
G1 X76.775 Y266.411 Z-2.000 F1000.000 
G2 X79.514 Y264.907 Z-2.000 I-3.333 J-9.318 F1000.000 
G1 X65.496 Y250.889 Z-2.000 F1000.000 
G3 X67.668 Y248.818 Z-2.000 I7.459 J5.646 F1000.000 
G1 X81.587 Y262.737 Z-2.000 F1000.000 
G2 X82.970 Y259.877 Z-2.000 I-8.020 J-5.643 F1000.000 
G1 X70.524 Y247.431 Z-2.000 F1000.000 
G3 X74.392 Y247.056 Z-2.000 I2.852 J9.283 F1000.000 
G1 X83.342 Y256.007 Z-2.000 F1000.000 
G2 X74.392 Y247.056 Z-2.000 I-9.926 J0.975 F1000.000 
G0 Z5.000 
G0 X64.299 Y232.721 Z5.000 
G0 X64.299 Y232.721 Z3.000 
G1 X64.299 Y232.721 Z-2.000 F500.000 
G2 X69.292 Y237.714 Z-2.000 I9.062 J-4.069 F1000.000 
G1 X64.299 Y232.721 Z-2.000 F1000.000 
G3 X63.455 Y227.634 Z-2.000 I8.916 J-4.093 F1000.000 
G1 X74.366 Y238.546 Z-2.000 F1000.000 
G2 X77.688 Y237.625 Z-2.000 I-0.871 J-9.595 F1000.000 
G1 X64.374 Y224.311 Z-2.000 F1000.000 
G3 X66.091 Y221.785 Z-2.000 I8.639 J4.026 F1000.000 
G1 X80.214 Y235.908 Z-2.000 F1000.000 
G2 X82.087 Y233.538 Z-2.000 I-6.425 J-7.003 F1000.000 
G1 X68.462 Y219.913 Z-2.000 F1000.000 
G3 X71.566 Y218.774 Z-2.000 I4.852 J8.426 F1000.000 
G1 X83.222 Y230.430 Z-2.000 F1000.000 
G2 X83.051 Y226.017 Z-2.000 I-9.535 J-1.841 F1000.000 
G1 X75.976 Y218.943 Z-2.000 F1000.000 
G3 X83.051 Y226.017 Z-2.000 I-2.555 J9.630 F1000.000 
G0 Z5.000 
G0 X71.229 Y209.952 Z5.000 
G0 X71.229 Y209.952 Z3.000 
G1 X71.229 Y209.952 Z-2.000 F500.000 
G3 X63.644 Y202.367 Z-2.000 I2.146 J-9.731 F1000.000 
G1 X71.229 Y209.952 Z-2.000 F1000.000 
G2 X75.490 Y209.971 Z-2.000 I2.173 J-9.482 F1000.000 
G1 X63.629 Y198.110 Z-2.000 F1000.000 
G3 X64.824 Y195.063 Z-2.000 I9.556 J1.992 F1000.000 
G1 X78.533 Y208.771 Z-2.000 F1000.000 
G2 X80.855 Y206.851 Z-2.000 I-4.724 J-8.076 F1000.000 
G1 X66.744 Y192.740 Z-2.000 F1000.000 
G3 X69.320 Y191.073 Z-2.000 I6.641 J7.439 F1000.000 
G1 X82.522 Y204.275 Z-2.000 F1000.000 
G2 X83.372 Y200.882 Z-2.000 I-8.818 J-4.012 F1000.000 
G1 X72.722 Y190.232 Z-2.000 F1000.000 
G3 X78.123 Y191.390 Z-2.000 I0.712 J9.852 F1000.000 
G1 X82.197 Y195.465 Z-2.000 F1000.000 
G2 X78.123 Y191.390 Z-2.000 I-8.723 J4.649 F1000.000 
G0 Z5.000 
G0 X91.827 Y200.852 Z5.000 
G0 X91.827 Y200.852 Z3.000 
G1 X91.827 Y200.852 Z-2.000 F500.000 
G1 X101.144 Y210.170 Z-2.000 F1000.000 
G3 X91.827 Y200.852 Z-2.000 I0.639 J-9.956 F1000.000 
G3 X92.303 Y197.086 Z-2.000 I9.779 J-0.677 F1000.000 
G1 X104.912 Y209.694 Z-2.000 F1000.000 
G2 X107.714 Y208.254 Z-2.000 I-2.861 J-9.017 F1000.000 
G1 X93.746 Y194.286 Z-2.000 F1000.000 
G3 X95.864 Y192.161 Z-2.000 I7.737 J5.594 F1000.000 
G1 X109.838 Y206.135 Z-2.000 F1000.000 
G2 X111.287 Y203.341 Z-2.000 I-7.600 J-5.715 F1000.000 
G1 X98.660 Y190.715 Z-2.000 F1000.000 
G3 X102.416 Y190.227 Z-2.000 I3.097 J9.148 F1000.000 
G1 X111.774 Y199.586 Z-2.000 F1000.000 
G2 X102.416 Y190.227 Z-2.000 I-9.958 J0.599 F1000.000 
G0 Z5.000 
G0 X93.047 Y176.616 Z5.000 
G0 X93.047 Y176.616 Z3.000 
G1 X93.047 Y176.616 Z-2.000 F500.000 
G2 X97.000 Y180.569 Z-2.000 I8.684 J-4.732 F1000.000 
G1 X93.047 Y176.616 Z-2.000 F1000.000 
G3 X91.827 Y171.154 Z-2.000 I8.617 J-4.792 F1000.000 
G1 X102.444 Y181.770 Z-2.000 F1000.000 
G2 X105.854 Y180.938 Z-2.000 I-0.553 J-9.663 F1000.000 
G1 X92.667 Y167.751 Z-2.000 F1000.000 
G3 X94.328 Y165.169 Z-2.000 I8.622 J3.721 F1000.000 
G1 X108.436 Y179.277 Z-2.000 F1000.000 
G2 X110.361 Y176.960 Z-2.000 I-6.541 J-7.393 F1000.000 
G1 X96.644 Y163.243 Z-2.000 F1000.000 
G3 X99.680 Y162.036 Z-2.000 I4.970 J8.080 F1000.000 
G1 X111.565 Y173.921 Z-2.000 F1000.000 
G2 X111.565 Y169.679 Z-2.000 I-9.557 J-2.121 F1000.000 
G1 X103.923 Y162.036 Z-2.000 F1000.000 
G3 X111.565 Y169.679 Z-2.000 I-2.098 J9.740 F1000.000 
G0 Z5.000 
G0 X127.575 Y181.446 Z5.000 
G0 X127.575 Y181.446 Z3.000 
G1 X127.575 Y181.446 Z-2.000 F500.000 
G3 X120.563 Y174.434 Z-2.000 I2.609 J-9.621 F1000.000 
G1 X127.575 Y181.446 Z-2.000 F1000.000 
G2 X132.002 Y181.631 Z-2.000 I2.615 J-9.559 F1000.000 
G1 X120.372 Y170.000 Z-2.000 F1000.000 
G3 X121.500 Y166.886 Z-2.000 I9.380 J1.635 F1000.000 
G1 X135.115 Y180.501 Z-2.000 F1000.000 
G2 X137.491 Y178.634 Z-2.000 I-4.675 J-8.398 F1000.000 
G1 X123.367 Y164.510 Z-2.000 F1000.000 
G3 X125.887 Y162.787 Z-2.000 I6.503 J6.807 F1000.000 
G1 X139.214 Y176.114 Z-2.000 F1000.000 
G2 X140.141 Y172.799 Z-2.000 I-8.690 J-4.218 F1000.000 
G1 X129.199 Y161.857 Z-2.000 F1000.000 
G3 X134.243 Y162.658 Z-2.000 I1.022 J9.841 F1000.000 
G1 X139.331 Y167.746 Z-2.000 F1000.000 
G2 X134.243 Y162.658 Z-2.000 I-9.087 J4.000 F1000.000 
G0 Z5.000 
G0 X148.663 Y172.835 Z5.000 
G0 X148.663 Y172.835 Z3.000 
G1 X148.663 Y172.835 Z-2.000 F500.000 
G1 X157.568 Y181.741 Z-2.000 F1000.000 
G3 X148.663 Y172.835 Z-2.000 I1.017 J-9.922 F1000.000 
G3 X149.022 Y168.952 Z-2.000 I9.634 J-1.067 F1000.000 
G1 X161.448 Y181.378 Z-2.000 F1000.000 
G2 X164.311 Y179.998 Z-2.000 I-2.638 J-9.132 F1000.000 
G1 X150.398 Y166.085 Z-2.000 F1000.000 
G3 X152.465 Y163.910 Z-2.000 I8.036 J5.565 F1000.000 
G1 X166.488 Y177.932 Z-2.000 F1000.000 
G2 X167.995 Y175.197 Z-2.000 I-7.393 J-5.858 F1000.000 
G1 X155.198 Y162.400 Z-2.000 F1000.000 
G3 X158.851 Y161.810 Z-2.000 I3.372 J9.270 F1000.000 
G1 X168.588 Y171.547 Z-2.000 F1000.000 
G2 X158.851 Y161.810 Z-2.000 I-9.975 J0.238 F1000.000 
G0 Z5.000 
G0 X150.399 Y149.115 Z5.000 
G0 X150.399 Y149.115 Z3.000 
G1 X150.399 Y149.115 Z-2.000 F500.000 
G2 X152.862 Y151.578 Z-2.000 I8.000 J-5.537 F1000.000 
G1 X150.399 Y149.115 Z-2.000 F1000.000 
G3 X148.614 Y143.088 Z-2.000 I8.125 J-5.683 F1000.000 
G1 X158.917 Y153.390 Z-2.000 F1000.000 
G2 X162.406 Y152.637 Z-2.000 I-0.273 J-9.723 F1000.000 
G1 X149.359 Y139.590 Z-2.000 F1000.000 
G3 X150.964 Y136.952 Z-2.000 I9.015 J3.677 F1000.000 
G1 X165.046 Y151.034 Z-2.000 F1000.000 
G2 X167.025 Y148.770 Z-2.000 I-5.977 J-7.223 F1000.000 
G1 X153.226 Y134.972 Z-2.000 F1000.000 
G3 X156.198 Y133.702 Z-2.000 I5.237 J8.140 F1000.000 
G1 X168.300 Y145.804 Z-2.000 F1000.000 
G2 X168.449 Y141.709 Z-2.000 I-9.485 J-2.394 F1000.000 
G1 X160.292 Y133.552 Z-2.000 F1000.000 
G3 X168.449 Y141.709 Z-2.000 I-1.670 J9.827 F1000.000 
G0 Z5.000 
G0 X183.871 Y152.888 Z5.000 
G0 X183.871 Y152.888 Z3.000 
G1 X183.871 Y152.888 Z-2.000 F500.000 
G3 X177.507 Y146.525 Z-2.000 I3.091 J-9.455 F1000.000 
G1 X183.871 Y152.888 Z-2.000 F1000.000 
G2 X188.502 Y153.277 Z-2.000 I3.107 J-9.239 F1000.000 
G1 X177.117 Y141.892 Z-2.000 F1000.000 
G3 X178.178 Y138.711 Z-2.000 I9.644 J1.447 F1000.000 
G1 X191.692 Y152.225 Z-2.000 F1000.000 
G2 X194.122 Y150.412 Z-2.000 I-4.490 J-8.550 F1000.000 
G1 X179.990 Y136.280 Z-2.000 F1000.000 
G3 X182.455 Y134.502 Z-2.000 I6.685 J6.669 F1000.000 
G1 X195.900 Y147.947 Z-2.000 F1000.000 
G2 X196.906 Y144.710 Z-2.000 I-8.584 J-4.443 F1000.000 
G1 X185.689 Y133.494 Z-2.000 F1000.000 
G3 X190.462 Y134.024 Z-2.000 I1.330 J9.773 F1000.000 
G1 X196.370 Y139.932 Z-2.000 F1000.000 
G2 X190.462 Y134.024 Z-2.000 I-9.334 J3.426 F1000.000 
G0 Z5.000 
G0 X177.108 Y116.427 Z5.000 
G0 X177.108 Y116.427 Z3.000 
G1 X177.108 Y116.427 Z-2.000 F500.000 
G1 X185.568 Y124.888 Z-2.000 F1000.000 
G3 X177.108 Y116.427 Z-2.000 I1.412 J-9.872 F1000.000 
G3 X177.347 Y112.424 Z-2.000 I9.633 J-1.433 F1000.000 
G1 X189.580 Y124.657 Z-2.000 F1000.000 
G2 X192.507 Y123.341 Z-2.000 I-2.497 J-9.468 F1000.000 
G1 X178.662 Y109.496 Z-2.000 F1000.000 
G3 X180.675 Y107.267 Z-2.000 I7.864 J5.077 F1000.000 
G1 X194.738 Y121.329 Z-2.000 F1000.000 
G2 X196.304 Y118.652 Z-2.000 I-7.584 J-6.233 F1000.000 
G1 X183.351 Y105.699 Z-2.000 F1000.000 
G3 X186.903 Y105.010 Z-2.000 I3.573 J8.908 F1000.000 
G1 X196.994 Y115.100 Z-2.000 F1000.000 
G2 X194.204 Y108.067 Z-2.000 I-9.970 J-0.114 F1000.000 
G0 Z5.000 
G0 X162.062 Y105.624 Z5.000 
G0 X162.062 Y105.624 Z3.000 
G1 X162.062 Y105.624 Z-2.000 F500.000 
G3 X167.970 Y111.532 Z-2.000 I-3.426 J9.334 F1000.000 
G1 X162.062 Y105.624 Z-2.000 F1000.000 
G2 X157.289 Y105.094 Z-2.000 I-3.443 J9.243 F1000.000 
G1 X168.506 Y116.310 Z-2.000 F1000.000 
G3 X167.500 Y119.547 Z-2.000 I-9.590 J-1.206 F1000.000 
G1 X154.055 Y106.102 Z-2.000 F1000.000 
G2 X151.590 Y107.880 Z-2.000 I4.220 J8.447 F1000.000 
G1 X165.722 Y122.012 Z-2.000 F1000.000 
G3 X163.292 Y123.825 Z-2.000 I-6.919 J-6.737 F1000.000 
G1 X149.778 Y110.311 Z-2.000 F1000.000 
G2 X148.717 Y113.492 Z-2.000 I8.583 J4.629 F1000.000 
G1 X160.102 Y124.877 Z-2.000 F1000.000 
G3 X155.471 Y124.488 Z-2.000 I-1.524 J-9.628 F1000.000 
G1 X149.107 Y118.125 Z-2.000 F1000.000 
G2 X155.471 Y124.488 Z-2.000 I9.455 J-3.091 F1000.000 
G0 Z5.000 
G0 X140.049 Y113.309 Z5.000 
G0 X140.049 Y113.309 Z3.000 
G1 X140.049 Y113.309 Z-2.000 F500.000 
G2 X131.892 Y105.152 Z-2.000 I-9.827 J1.670 F1000.000 
G1 X140.049 Y113.309 Z-2.000 F1000.000 
G3 X139.900 Y117.404 Z-2.000 I-9.634 J1.701 F1000.000 
G1 X127.798 Y105.302 Z-2.000 F1000.000 
G2 X124.826 Y106.572 Z-2.000 I2.265 J9.411 F1000.000 
G1 X138.625 Y120.370 Z-2.000 F1000.000 
G3 X136.646 Y122.634 Z-2.000 I-7.956 J-4.959 F1000.000 
G1 X122.564 Y108.552 Z-2.000 F1000.000 
G2 X120.959 Y111.190 Z-2.000 I7.411 J6.315 F1000.000 
G1 X134.006 Y124.237 Z-2.000 F1000.000 
G3 X130.517 Y124.990 Z-2.000 I-3.762 J-8.970 F1000.000 
G1 X120.214 Y114.688 Z-2.000 F1000.000 
G2 X121.999 Y120.715 Z-2.000 I9.910 J0.344 F1000.000 
G1 X124.462 Y123.178 Z-2.000 F1000.000 
G3 X121.999 Y120.715 Z-2.000 I5.537 J-8.000 F1000.000 
G0 Z5.000 
G0 X130.451 Y133.410 Z5.000 
G0 X130.451 Y133.410 Z3.000 
G1 X130.451 Y133.410 Z-2.000 F500.000 
G3 X140.188 Y143.147 Z-2.000 I-0.238 J9.975 F1000.000 
G1 X130.451 Y133.410 Z-2.000 F1000.000 
G2 X126.798 Y134.000 Z-2.000 I-0.281 J9.860 F1000.000 
G1 X139.595 Y146.797 Z-2.000 F1000.000 
G3 X138.088 Y149.532 Z-2.000 I-8.900 J-3.122 F1000.000 
G1 X124.065 Y135.510 Z-2.000 F1000.000 
G2 X121.998 Y137.685 Z-2.000 I5.969 J7.741 F1000.000 
G1 X135.911 Y151.598 Z-2.000 F1000.000 
G3 X133.048 Y152.978 Z-2.000 I-5.501 J-7.752 F1000.000 
G1 X120.622 Y140.552 Z-2.000 F1000.000 
G2 X120.263 Y144.435 Z-2.000 I9.275 J2.816 F1000.000 
G2 X129.168 Y153.341 Z-2.000 I9.922 J-1.017 F1000.000 
G1 X120.263 Y144.435 Z-2.000 F1000.000 
G0 Z5.000 
G0 X91.863 Y116.035 Z5.000 
G0 X91.863 Y116.035 Z3.000 
G1 X91.863 Y116.035 Z-2.000 F500.000 
G1 X100.768 Y124.941 Z-2.000 F1000.000 
G3 X91.863 Y116.035 Z-2.000 I1.017 J-9.922 F1000.000 
G3 X92.222 Y112.152 Z-2.000 I9.634 J-1.067 F1000.000 
G1 X104.648 Y124.578 Z-2.000 F1000.000 
G2 X107.511 Y123.198 Z-2.000 I-2.638 J-9.132 F1000.000 
G1 X93.598 Y109.285 Z-2.000 F1000.000 
G3 X95.665 Y107.110 Z-2.000 I8.036 J5.565 F1000.000 
G1 X109.688 Y121.132 Z-2.000 F1000.000 
G2 X111.195 Y118.397 Z-2.000 I-7.393 J-5.858 F1000.000 
G1 X98.398 Y105.600 Z-2.000 F1000.000 
G3 X102.051 Y105.010 Z-2.000 I3.372 J9.270 F1000.000 
G1 X111.788 Y114.747 Z-2.000 F1000.000 
G2 X102.051 Y105.010 Z-2.000 I-9.975 J0.238 F1000.000 
G0 Z5.000 
G0 X77.443 Y105.858 Z5.000 
G0 X77.443 Y105.858 Z3.000 
G1 X77.443 Y105.858 Z-2.000 F500.000 
G3 X82.531 Y110.946 Z-2.000 I-4.000 J9.087 F1000.000 
G1 X77.443 Y105.858 Z-2.000 F1000.000 
G2 X72.399 Y105.057 Z-2.000 I-4.022 J9.040 F1000.000 
G1 X83.341 Y115.999 Z-2.000 F1000.000 
G3 X82.414 Y119.314 Z-2.000 I-9.617 J-0.902 F1000.000 
G1 X69.087 Y105.987 Z-2.000 F1000.000 
G2 X66.567 Y107.710 Z-2.000 I3.983 J8.530 F1000.000 
G1 X80.691 Y121.834 Z-2.000 F1000.000 
G3 X78.315 Y123.701 Z-2.000 I-7.051 J-6.532 F1000.000 
G1 X64.700 Y110.086 Z-2.000 F1000.000 
G2 X63.572 Y113.200 Z-2.000 I8.252 J4.750 F1000.000 
G1 X75.202 Y124.831 Z-2.000 F1000.000 
G3 X70.775 Y124.646 Z-2.000 I-1.812 J-9.744 F1000.000 
G1 X63.763 Y117.634 Z-2.000 F1000.000 
G2 X70.775 Y124.646 Z-2.000 I9.621 J-2.609 F1000.000 
G0 Z5.000 
G0 X54.765 Y112.879 Z5.000 
G0 X54.765 Y112.879 Z3.000 
G1 X54.765 Y112.879 Z-2.000 F500.000 
G2 X47.123 Y105.236 Z-2.000 I-9.740 J2.098 F1000.000 
G1 X54.765 Y112.879 Z-2.000 F1000.000 
G3 X54.765 Y117.121 Z-2.000 I-9.557 J2.121 F1000.000 
G1 X42.880 Y105.236 Z-2.000 F1000.000 
G2 X39.844 Y106.443 Z-2.000 I1.934 J9.287 F1000.000 
G1 X53.561 Y120.160 Z-2.000 F1000.000 
G3 X51.636 Y122.477 Z-2.000 I-8.467 J-5.075 F1000.000 
G1 X37.528 Y108.369 Z-2.000 F1000.000 
G2 X35.867 Y110.951 Z-2.000 I6.961 J6.303 F1000.000 
G1 X49.054 Y124.138 Z-2.000 F1000.000 
G3 X45.644 Y124.970 Z-2.000 I-3.963 J-8.830 F1000.000 
G1 X35.027 Y114.354 Z-2.000 F1000.000 
G2 X36.247 Y119.816 Z-2.000 I9.837 J0.671 F1000.000 
G1 X40.200 Y123.769 Z-2.000 F1000.000 
G3 X36.247 Y119.816 Z-2.000 I4.732 J-8.684 F1000.000 
G0 Z5.000 
G0 X45.616 Y133.427 Z5.000 
G0 X45.616 Y133.427 Z3.000 
G1 X45.616 Y133.427 Z-2.000 F500.000 
G3 X54.974 Y142.786 Z-2.000 I-0.599 J9.958 F1000.000 
G1 X45.616 Y133.427 Z-2.000 F1000.000 
G2 X41.860 Y133.915 Z-2.000 I-0.659 J9.636 F1000.000 
G1 X54.487 Y146.541 Z-2.000 F1000.000 
G3 X53.038 Y149.335 Z-2.000 I-9.049 J-2.921 F1000.000 
G1 X39.064 Y135.361 Z-2.000 F1000.000 
G2 X36.946 Y137.486 Z-2.000 I5.619 J7.718 F1000.000 
G1 X50.914 Y151.454 Z-2.000 F1000.000 
G3 X48.112 Y152.894 Z-2.000 I-5.664 J-7.577 F1000.000 
G1 X35.503 Y140.286 Z-2.000 F1000.000 
G2 X35.027 Y144.052 Z-2.000 I9.303 J3.089 F1000.000 
G2 X44.344 Y153.370 Z-2.000 I9.956 J-0.639 F1000.000 
G1 X35.027 Y144.052 Z-2.000 F1000.000 
G0 Z5.000 
G0 X106.523 Y219.790 Z5.000 
G0 X106.523 Y219.790 Z3.000 
G1 X106.523 Y219.790 Z-2.000 F500.000 
G3 X110.597 Y223.865 Z-2.000 I-4.649 J8.723 F1000.000 
G1 X106.523 Y219.790 Z-2.000 F1000.000 
G2 X101.122 Y218.632 Z-2.000 I-4.689 J8.694 F1000.000 
G1 X111.772 Y229.282 Z-2.000 F1000.000 
G3 X110.922 Y232.675 Z-2.000 I-9.668 J-0.619 F1000.000 
G1 X97.720 Y219.473 Z-2.000 F1000.000 
G2 X95.144 Y221.140 Z-2.000 I4.066 J9.106 F1000.000 
G1 X109.255 Y235.251 Z-2.000 F1000.000 
G3 X106.933 Y237.171 Z-2.000 I-7.046 J-6.156 F1000.000 
G1 X93.224 Y223.463 Z-2.000 F1000.000 
G2 X92.029 Y226.510 Z-2.000 I8.360 J5.039 F1000.000 
G1 X103.890 Y238.371 Z-2.000 F1000.000 
G3 X99.629 Y238.352 Z-2.000 I-2.089 J-9.501 F1000.000 
G1 X92.044 Y230.767 Z-2.000 F1000.000 
G2 X99.629 Y238.352 Z-2.000 I9.731 J-2.146 F1000.000 
G0 Z5.000 
G0 X111.451 Y254.417 Z5.000 
G0 X111.451 Y254.417 Z3.000 
G1 X111.451 Y254.417 Z-2.000 F500.000 
G2 X104.376 Y247.343 Z-2.000 I-9.630 J2.555 F1000.000 
G1 X111.451 Y254.417 Z-2.000 F1000.000 
G3 X111.622 Y258.830 Z-2.000 I-9.364 J2.572 F1000.000 
G1 X99.966 Y247.174 Z-2.000 F1000.000 
G2 X96.862 Y248.313 Z-2.000 I1.748 J9.565 F1000.000 
G1 X110.487 Y261.938 Z-2.000 F1000.000 
G3 X108.614 Y264.308 Z-2.000 I-8.298 J-4.633 F1000.000 
G1 X94.491 Y250.185 Z-2.000 F1000.000 
G2 X92.774 Y252.711 Z-2.000 I6.922 J6.552 F1000.000 
G1 X106.088 Y266.025 Z-2.000 F1000.000 
G3 X102.766 Y266.946 Z-2.000 I-4.193 J-8.674 F1000.000 
G1 X91.855 Y256.034 Z-2.000 F1000.000 
G2 X92.699 Y261.121 Z-2.000 I9.760 J0.994 F1000.000 
G1 X97.692 Y266.114 Z-2.000 F1000.000 
G3 X92.699 Y261.121 Z-2.000 I4.069 J-9.062 F1000.000 
G0 Z5.000 
G0 X128.029 Y266.752 Z5.000 
G0 X128.029 Y266.752 Z3.000 
G1 X128.029 Y266.752 Z-2.000 F500.000 
G3 X120.444 Y259.167 Z-2.000 I2.146 J-9.731 F1000.000 
G1 X128.029 Y266.752 Z-2.000 F1000.000 
G2 X132.290 Y266.771 Z-2.000 I2.173 J-9.482 F1000.000 
G1 X120.429 Y254.910 Z-2.000 F1000.000 
G3 X121.624 Y251.863 Z-2.000 I9.556 J1.992 F1000.000 
G1 X135.333 Y265.571 Z-2.000 F1000.000 
G2 X137.655 Y263.651 Z-2.000 I-4.724 J-8.076 F1000.000 
G1 X123.544 Y249.540 Z-2.000 F1000.000 
G3 X126.120 Y247.873 Z-2.000 I6.641 J7.439 F1000.000 
G1 X139.322 Y261.075 Z-2.000 F1000.000 
G2 X140.172 Y257.682 Z-2.000 I-8.818 J-4.012 F1000.000 
G1 X129.522 Y247.032 Z-2.000 F1000.000 
G3 X134.923 Y248.190 Z-2.000 I0.712 J9.852 F1000.000 
G1 X138.997 Y252.265 Z-2.000 F1000.000 
G2 X134.923 Y248.190 Z-2.000 I-8.723 J4.649 F1000.000 
G0 Z5.000 
G0 X148.627 Y257.652 Z5.000 
G0 X148.627 Y257.652 Z3.000 
G1 X148.627 Y257.652 Z-2.000 F500.000 
G1 X157.944 Y266.970 Z-2.000 F1000.000 
G3 X148.627 Y257.652 Z-2.000 I0.639 J-9.956 F1000.000 
G3 X149.103 Y253.886 Z-2.000 I9.779 J-0.677 F1000.000 
G1 X161.712 Y266.494 Z-2.000 F1000.000 
G2 X164.514 Y265.054 Z-2.000 I-2.861 J-9.017 F1000.000 
G1 X150.546 Y251.086 Z-2.000 F1000.000 
G3 X152.664 Y248.961 Z-2.000 I7.737 J5.594 F1000.000 
G1 X166.638 Y262.935 Z-2.000 F1000.000 
G2 X168.087 Y260.141 Z-2.000 I-7.600 J-5.715 F1000.000 
G1 X155.460 Y247.515 Z-2.000 F1000.000 
G3 X159.216 Y247.027 Z-2.000 I3.097 J9.148 F1000.000 
G1 X168.574 Y256.386 Z-2.000 F1000.000 
G2 X159.216 Y247.027 Z-2.000 I-9.958 J0.599 F1000.000 
G0 Z5.000 
G0 X149.847 Y233.416 Z5.000 
G0 X149.847 Y233.416 Z3.000 
G1 X149.847 Y233.416 Z-2.000 F500.000 
G2 X153.800 Y237.369 Z-2.000 I8.684 J-4.732 F1000.000 
G1 X149.847 Y233.416 Z-2.000 F1000.000 
G3 X148.627 Y227.954 Z-2.000 I8.617 J-4.792 F1000.000 
G1 X159.244 Y238.570 Z-2.000 F1000.000 
G2 X162.654 Y237.738 Z-2.000 I-0.553 J-9.663 F1000.000 
G1 X149.467 Y224.551 Z-2.000 F1000.000 
G3 X151.128 Y221.969 Z-2.000 I8.622 J3.721 F1000.000 
G1 X165.236 Y236.077 Z-2.000 F1000.000 
G2 X167.161 Y233.760 Z-2.000 I-6.542 J-7.393 F1000.000 
G1 X153.444 Y220.043 Z-2.000 F1000.000 
G3 X156.480 Y218.836 Z-2.000 I4.970 J8.080 F1000.000 
G1 X168.365 Y230.721 Z-2.000 F1000.000 
G2 X168.365 Y226.479 Z-2.000 I-9.557 J-2.121 F1000.000 
G1 X160.723 Y218.836 Z-2.000 F1000.000 
G3 X168.365 Y226.479 Z-2.000 I-2.098 J9.740 F1000.000 
G0 Z5.000 
G0 X184.375 Y238.246 Z5.000 
G0 X184.375 Y238.246 Z3.000 
G1 X184.375 Y238.246 Z-2.000 F500.000 
G3 X177.363 Y231.234 Z-2.000 I2.609 J-9.621 F1000.000 
G1 X184.375 Y238.246 Z-2.000 F1000.000 
G2 X188.802 Y238.431 Z-2.000 I2.615 J-9.559 F1000.000 
G1 X177.172 Y226.800 Z-2.000 F1000.000 
G3 X178.300 Y223.686 Z-2.000 I9.380 J1.635 F1000.000 
G1 X191.915 Y237.301 Z-2.000 F1000.000 
G2 X194.291 Y235.434 Z-2.000 I-4.675 J-8.398 F1000.000 
G1 X180.167 Y221.310 Z-2.000 F1000.000 
G3 X182.687 Y219.587 Z-2.000 I6.503 J6.807 F1000.000 
G1 X196.014 Y232.914 Z-2.000 F1000.000 
G2 X196.941 Y229.599 Z-2.000 I-8.690 J-4.218 F1000.000 
G1 X185.999 Y218.657 Z-2.000 F1000.000 
G3 X191.043 Y219.458 Z-2.000 I1.022 J9.841 F1000.000 
G1 X196.131 Y224.546 Z-2.000 F1000.000 
G2 X191.043 Y219.458 Z-2.000 I-9.087 J4.000 F1000.000 
G0 Z5.000 
G0 X177.063 Y201.235 Z5.000 
G0 X177.063 Y201.235 Z3.000 
G1 X177.063 Y201.235 Z-2.000 F500.000 
G1 X185.968 Y210.141 Z-2.000 F1000.000 
G3 X177.063 Y201.235 Z-2.000 I1.017 J-9.922 F1000.000 
G3 X177.422 Y197.352 Z-2.000 I9.634 J-1.067 F1000.000 
G1 X189.848 Y209.778 Z-2.000 F1000.000 
G2 X192.711 Y208.398 Z-2.000 I-2.638 J-9.132 F1000.000 
G1 X178.798 Y194.485 Z-2.000 F1000.000 
G3 X180.865 Y192.310 Z-2.000 I8.036 J5.565 F1000.000 
G1 X194.888 Y206.332 Z-2.000 F1000.000 
G2 X196.395 Y203.597 Z-2.000 I-7.393 J-5.858 F1000.000 
G1 X183.598 Y190.800 Z-2.000 F1000.000 
G3 X187.251 Y190.210 Z-2.000 I3.372 J9.270 F1000.000 
G1 X196.988 Y199.947 Z-2.000 F1000.000 
G2 X187.251 Y190.210 Z-2.000 I-9.975 J0.238 F1000.000 
G0 Z5.000 
G0 X178.799 Y177.515 Z5.000 
G0 X178.799 Y177.515 Z3.000 
G1 X178.799 Y177.515 Z-2.000 F500.000 
G2 X181.262 Y179.978 Z-2.000 I8.000 J-5.537 F1000.000 
G1 X178.799 Y177.515 Z-2.000 F1000.000 
G3 X177.014 Y171.488 Z-2.000 I8.125 J-5.683 F1000.000 
G1 X187.317 Y181.790 Z-2.000 F1000.000 
G2 X190.806 Y181.037 Z-2.000 I-0.273 J-9.723 F1000.000 
G1 X177.759 Y167.990 Z-2.000 F1000.000 
G3 X179.364 Y165.352 Z-2.000 I9.015 J3.677 F1000.000 
G1 X193.446 Y179.434 Z-2.000 F1000.000 
G2 X195.425 Y177.170 Z-2.000 I-5.977 J-7.223 F1000.000 
G1 X181.626 Y163.372 Z-2.000 F1000.000 
G3 X184.598 Y162.102 Z-2.000 I5.237 J8.140 F1000.000 
G1 X196.700 Y174.204 Z-2.000 F1000.000 
G2 X196.849 Y170.109 Z-2.000 I-9.485 J-2.394 F1000.000 
G1 X188.692 Y161.952 Z-2.000 F1000.000 
G3 X196.849 Y170.109 Z-2.000 I-1.670 J9.827 F1000.000 
G0 Z5.000 
G0 X162.643 Y191.058 Z5.000 
G0 X162.643 Y191.058 Z3.000 
G1 X162.643 Y191.058 Z-2.000 F500.000 
G3 X167.731 Y196.146 Z-2.000 I-4.000 J9.087 F1000.000 
G1 X162.643 Y191.058 Z-2.000 F1000.000 
G2 X157.599 Y190.257 Z-2.000 I-4.022 J9.040 F1000.000 
G1 X168.541 Y201.199 Z-2.000 F1000.000 
G3 X167.614 Y204.514 Z-2.000 I-9.617 J-0.902 F1000.000 
G1 X154.287 Y191.187 Z-2.000 F1000.000 
G2 X151.767 Y192.910 Z-2.000 I3.983 J8.530 F1000.000 
G1 X165.891 Y207.034 Z-2.000 F1000.000 
G3 X163.515 Y208.901 Z-2.000 I-7.051 J-6.532 F1000.000 
G1 X149.900 Y195.286 Z-2.000 F1000.000 
G2 X148.772 Y198.400 Z-2.000 I8.252 J4.750 F1000.000 
G1 X160.402 Y210.031 Z-2.000 F1000.000 
G3 X155.975 Y209.846 Z-2.000 I-1.812 J-9.744 F1000.000 
G1 X148.963 Y202.834 Z-2.000 F1000.000 
G2 X155.975 Y209.846 Z-2.000 I9.621 J-2.609 F1000.000 
G0 Z5.000 
G0 X139.965 Y198.079 Z5.000 
G0 X139.965 Y198.079 Z3.000 
G1 X139.965 Y198.079 Z-2.000 F500.000 
G2 X132.323 Y190.436 Z-2.000 I-9.740 J2.098 F1000.000 
G1 X139.965 Y198.079 Z-2.000 F1000.000 
G3 X139.965 Y202.321 Z-2.000 I-9.557 J2.121 F1000.000 
G1 X128.080 Y190.436 Z-2.000 F1000.000 
G2 X125.044 Y191.643 Z-2.000 I1.934 J9.287 F1000.000 
G1 X138.761 Y205.360 Z-2.000 F1000.000 
G3 X136.836 Y207.677 Z-2.000 I-8.467 J-5.075 F1000.000 
G1 X122.728 Y193.569 Z-2.000 F1000.000 
G2 X121.067 Y196.151 Z-2.000 I6.961 J6.303 F1000.000 
G1 X134.254 Y209.338 Z-2.000 F1000.000 
G3 X130.844 Y210.170 Z-2.000 I-3.963 J-8.830 F1000.000 
G1 X120.227 Y199.554 Z-2.000 F1000.000 
G2 X121.447 Y205.016 Z-2.000 I9.837 J0.671 F1000.000 
G1 X125.400 Y208.969 Z-2.000 F1000.000 
G3 X121.447 Y205.016 Z-2.000 I4.732 J-8.684 F1000.000 
G0 Z5.000 
G0 X130.816 Y218.627 Z5.000 
G0 X130.816 Y218.627 Z3.000 
G1 X130.816 Y218.627 Z-2.000 F500.000 
G3 X140.174 Y227.986 Z-2.000 I-0.599 J9.958 F1000.000 
G1 X130.816 Y218.627 Z-2.000 F1000.000 
G2 X127.060 Y219.115 Z-2.000 I-0.659 J9.636 F1000.000 
G1 X139.687 Y231.741 Z-2.000 F1000.000 
G3 X138.238 Y234.535 Z-2.000 I-9.049 J-2.921 F1000.000 
G1 X124.264 Y220.561 Z-2.000 F1000.000 
G2 X122.146 Y222.686 Z-2.000 I5.619 J7.718 F1000.000 
G1 X136.114 Y236.654 Z-2.000 F1000.000 
G3 X133.312 Y238.094 Z-2.000 I-5.664 J-7.577 F1000.000 
G1 X120.703 Y225.486 Z-2.000 F1000.000 
G2 X120.227 Y229.252 Z-2.000 I9.303 J3.089 F1000.000 
G2 X129.544 Y238.570 Z-2.000 I9.956 J-0.639 F1000.000 
G1 X120.227 Y229.252 Z-2.000 F1000.000 
G0 Z5.000 
G0 X178.247 Y261.816 Z5.000 
G0 X178.247 Y261.816 Z3.000 
G1 X178.247 Y261.816 Z-2.000 F500.000 
G2 X182.200 Y265.769 Z-2.000 I8.684 J-4.732 F1000.000 
G1 X178.247 Y261.816 Z-2.000 F1000.000 
G3 X177.027 Y256.354 Z-2.000 I8.617 J-4.792 F1000.000 
G1 X187.644 Y266.970 Z-2.000 F1000.000 
G2 X191.054 Y266.138 Z-2.000 I-0.553 J-9.663 F1000.000 
G1 X177.867 Y252.951 Z-2.000 F1000.000 
G3 X179.528 Y250.369 Z-2.000 I8.622 J3.721 F1000.000 
G1 X193.636 Y264.477 Z-2.000 F1000.000 
G2 X195.561 Y262.160 Z-2.000 I-6.542 J-7.393 F1000.000 
G1 X181.844 Y248.443 Z-2.000 F1000.000 
G3 X184.880 Y247.236 Z-2.000 I4.970 J8.080 F1000.000 
G1 X196.765 Y259.121 Z-2.000 F1000.000 
G2 X196.765 Y254.879 Z-2.000 I-9.557 J-2.121 F1000.000 
G1 X189.123 Y247.236 Z-2.000 F1000.000 
G3 X196.765 Y254.879 Z-2.000 I-2.098 J9.740 F1000.000 
G0 Z5.000 
G0 X195.843 Y255.371 Z5.000 
G0 X195.843 Y255.371 Z3.000 
G1 X195.843 Y255.371 Z-3.000 F500.000 
G2 X188.629 Y248.156 Z-3.000 I-8.821 J1.607 F1000.000 
G1 X195.843 Y255.371 Z-3.000 F1000.000 
G3 X195.657 Y259.427 Z-3.000 I-8.596 J1.637 F1000.000 
G1 X184.569 Y248.340 Z-3.000 F1000.000 
G2 X181.714 Y249.727 Z-3.000 I2.322 J8.414 F1000.000 
G1 X194.274 Y262.287 Z-3.000 F1000.000 
G3 X192.133 Y264.389 Z-3.000 I-7.148 J-5.143 F1000.000 
G1 X179.616 Y251.872 Z-3.000 F1000.000 
G2 X178.283 Y254.781 Z-3.000 I7.123 J5.024 F1000.000 
G1 X189.215 Y265.713 Z-3.000 F1000.000 
G3 X185.034 Y265.775 Z-3.000 I-2.215 J-8.489 F1000.000 
G3 X178.226 Y258.967 Z-3.000 I1.942 J-8.750 F1000.000 
G1 X185.034 Y265.775 Z-3.000 F1000.000 
G0 Z5.000 
G0 X158.783 Y248.010 Z5.000 
G0 X158.783 Y248.010 Z3.000 
G1 X158.783 Y248.010 Z-3.000 F500.000 
G3 X167.590 Y256.817 Z-3.000 I-0.170 J8.976 F1000.000 
G1 X158.783 Y248.010 Z-3.000 F1000.000 
G2 X155.205 Y248.674 Z-3.000 I-0.232 J8.718 F1000.000 
G1 X166.927 Y260.396 Z-3.000 F1000.000 
G3 X165.296 Y263.007 Z-3.000 I-8.146 J-3.275 F1000.000 
G1 X152.596 Y250.308 Z-3.000 F1000.000 
G2 X150.718 Y252.672 Z-3.000 I5.675 J6.438 F1000.000 
G1 X162.928 Y264.882 Z-3.000 F1000.000 
G3 X159.728 Y265.925 Z-3.000 I-4.279 J-7.697 F1000.000 
G1 X149.680 Y255.877 Z-3.000 F1000.000 
G2 X150.535 Y260.974 Z-3.000 I8.765 J1.151 F1000.000 
G2 X154.630 Y265.070 Z-3.000 I7.993 J-3.898 F1000.000 
G1 X150.535 Y260.974 Z-3.000 F1000.000 
G0 Z5.000 
G0 X134.334 Y249.017 Z5.000 
G0 X134.334 Y249.017 Z3.000 
G1 X134.334 Y249.017 Z-3.000 F500.000 
G3 X138.195 Y252.877 Z-3.000 I-4.063 J7.923 F1000.000 
G1 X134.334 Y249.017 Z-3.000 F1000.000 
G2 X129.141 Y248.066 Z-3.000 I-4.127 J7.886 F1000.000 
G1 X139.128 Y258.053 Z-3.000 F1000.000 
G3 X138.111 Y261.278 Z-3.000 I-8.651 J-0.956 F1000.000 
G1 X125.924 Y249.091 Z-3.000 F1000.000 
G2 X123.543 Y250.953 Z-3.000 I4.057 J7.641 F1000.000 
G1 X136.245 Y263.655 Z-3.000 F1000.000 
G3 X133.650 Y265.302 Z-3.000 I-5.794 J-6.262 F1000.000 
G1 X121.894 Y253.547 Z-3.000 F1000.000 
G2 X121.207 Y257.102 Z-3.000 I8.150 J3.421 F1000.000 
G2 X130.095 Y265.990 Z-3.000 I8.979 J-0.091 F1000.000 
G1 X121.207 Y257.102 Z-3.000 F1000.000 
G0 Z5.000 
G0 X110.554 Y254.935 Z5.000 
G0 X110.554 Y254.935 Z3.000 
G1 X110.554 Y254.935 Z-3.000 F500.000 
G2 X103.870 Y248.251 Z-3.000 I-8.727 J2.044 F1000.000 
G1 X110.554 Y254.935 Z-3.000 F1000.000 
G3 X110.535 Y259.158 Z-3.000 I-8.706 J2.072 F1000.000 
G1 X99.648 Y248.271 Z-3.000 F1000.000 
G2 X96.714 Y249.580 Z-3.000 I2.040 J8.520 F1000.000 
G1 X109.216 Y262.082 Z-3.000 F1000.000 
G3 X107.131 Y264.240 Z-3.000 I-7.059 J-4.736 F1000.000 
G1 X94.558 Y251.666 Z-3.000 F1000.000 
G2 X93.161 Y254.512 Z-3.000 I6.894 J5.149 F1000.000 
G1 X104.293 Y265.645 Z-3.000 F1000.000 
G3 X100.265 Y265.859 Z-3.000 I-2.471 J-8.498 F1000.000 
G3 X92.937 Y258.531 Z-3.000 I1.513 J-8.841 F1000.000 
G1 X100.265 Y265.859 Z-3.000 F1000.000 
G0 Z5.000 
G0 X73.945 Y248.025 Z5.000 
G0 X73.945 Y248.025 Z3.000 
G1 X73.945 Y248.025 Z-3.000 F500.000 
G3 X82.376 Y256.455 Z-3.000 I-0.530 J8.960 F1000.000 
G1 X73.945 Y248.025 Z-3.000 F1000.000 
G2 X70.251 Y248.573 Z-3.000 I-0.580 J8.802 F1000.000 
G1 X81.823 Y260.144 Z-3.000 F1000.000 
G3 X80.255 Y262.819 Z-3.000 I-8.067 J-2.931 F1000.000 
G1 X67.580 Y250.145 Z-3.000 F1000.000 
G2 X65.645 Y252.452 Z-3.000 I5.452 J6.539 F1000.000 
G1 X77.952 Y264.759 Z-3.000 F1000.000 
G3 X74.827 Y265.876 Z-3.000 I-4.451 J-7.518 F1000.000 
G1 X64.518 Y255.567 Z-3.000 F1000.000 
G2 X65.054 Y260.346 Z-3.000 I8.782 J1.434 F1000.000 
G2 X70.054 Y265.347 Z-3.000 I8.297 J-3.297 F1000.000 
G1 X65.054 Y260.346 Z-3.000 F1000.000 
G0 Z5.000 
G0 X49.972 Y249.507 Z5.000 
G0 X49.972 Y249.507 Z3.000 
G1 X49.972 Y249.507 Z-3.000 F500.000 
G3 X52.490 Y252.025 Z-3.000 I-4.783 J7.300 F1000.000 
G1 X49.972 Y249.507 Z-3.000 F1000.000 
G2 X44.262 Y248.040 Z-3.000 I-4.940 J7.381 F1000.000 
G1 X53.966 Y257.744 Z-3.000 F1000.000 
G3 X53.029 Y261.050 Z-3.000 I-8.788 J-0.704 F1000.000 
G1 X40.951 Y248.972 Z-3.000 F1000.000 
G2 X38.513 Y250.776 Z-3.000 I3.758 J7.630 F1000.000 
G1 X51.229 Y263.492 Z-3.000 F1000.000 
G3 X48.693 Y265.199 Z-3.000 I-6.043 J-6.243 F1000.000 
G1 X36.801 Y253.307 Z-3.000 F1000.000 
G2 X36.012 Y256.760 Z-3.000 I7.910 J3.625 F1000.000 
G2 X45.242 Y265.990 Z-3.000 I8.977 J0.253 F1000.000 
G1 X36.012 Y256.760 Z-3.000 F1000.000 
G0 Z5.000 
G0 X36.654 Y231.946 Z5.000 
G0 X36.654 Y231.946 Z3.000 
G1 X36.654 Y231.946 Z-3.000 F500.000 
G1 X41.654 Y236.947 Z-3.000 F1000.000 
G3 X36.654 Y231.946 Z-3.000 I3.297 J-8.297 F1000.000 
G3 X36.118 Y227.167 Z-3.000 I8.245 J-3.345 F1000.000 
G1 X46.427 Y237.476 Z-3.000 F1000.000 
G2 X49.552 Y236.359 Z-3.000 I-1.326 J-8.636 F1000.000 
G1 X37.245 Y224.052 Z-3.000 F1000.000 
G3 X39.180 Y221.745 Z-3.000 I7.387 J4.232 F1000.000 
G1 X51.855 Y234.419 Z-3.000 F1000.000 
G2 X53.423 Y231.744 Z-3.000 I-6.500 J-5.606 F1000.000 
G1 X41.851 Y220.173 Z-3.000 F1000.000 
G3 X45.545 Y219.625 Z-3.000 I3.114 J8.254 F1000.000 
G1 X53.976 Y228.055 Z-3.000 F1000.000 
G2 X45.545 Y219.625 Z-3.000 I-8.960 J0.530 F1000.000 
G0 Z5.000 
G0 X43.465 Y209.059 Z5.000 
G0 X43.465 Y209.059 Z3.000 
G1 X43.465 Y209.059 Z-3.000 F500.000 
G1 X36.137 Y201.731 Z-3.000 F1000.000 
G2 X43.465 Y209.059 Z-3.000 I8.841 J-1.513 F1000.000 
G2 X47.493 Y208.845 Z-3.000 I1.557 J-8.712 F1000.000 
G1 X36.361 Y197.712 Z-3.000 F1000.000 
G3 X37.758 Y194.866 Z-3.000 I8.290 J2.303 F1000.000 
G1 X50.331 Y207.440 Z-3.000 F1000.000 
G2 X52.416 Y205.282 Z-3.000 I-4.974 J-6.893 F1000.000 
G1 X39.914 Y192.780 Z-3.000 F1000.000 
G3 X42.848 Y191.471 Z-3.000 I4.975 J7.212 F1000.000 
G1 X53.735 Y202.358 Z-3.000 F1000.000 
G2 X53.754 Y198.135 Z-3.000 I-8.687 J-2.152 F1000.000 
G1 X47.070 Y191.451 Z-3.000 F1000.000 
G3 X53.754 Y198.135 Z-3.000 I-2.044 J8.727 F1000.000 
G0 Z5.000 
G0 X64.407 Y200.302 Z5.000 
G0 X64.407 Y200.302 Z3.000 
G1 X64.407 Y200.302 Z-3.000 F500.000 
G1 X73.295 Y209.190 Z-3.000 F1000.000 
G3 X64.407 Y200.302 Z-3.000 I0.091 J-8.979 F1000.000 
G3 X65.094 Y196.747 Z-3.000 I8.838 J-0.134 F1000.000 
G1 X76.850 Y208.502 Z-3.000 F1000.000 
G2 X79.445 Y206.855 Z-3.000 I-3.199 J-7.909 F1000.000 
G1 X66.743 Y194.153 Z-3.000 F1000.000 
G3 X69.124 Y192.291 Z-3.000 I6.438 J5.780 F1000.000 
G1 X81.311 Y204.478 Z-3.000 F1000.000 
G2 X82.328 Y201.253 Z-3.000 I-7.633 J-4.181 F1000.000 
G1 X72.341 Y191.266 Z-3.000 F1000.000 
G3 X77.534 Y192.217 Z-3.000 I1.066 J8.836 F1000.000 
G1 X81.395 Y196.077 Z-3.000 F1000.000 
G2 X77.534 Y192.217 Z-3.000 I-7.923 J4.063 F1000.000 
G0 Z5.000 
G0 X93.735 Y204.174 Z5.000 
G0 X93.735 Y204.174 Z3.000 
G1 X93.735 Y204.174 Z-3.000 F500.000 
G1 X97.830 Y208.270 Z-3.000 F1000.000 
G3 X93.735 Y204.174 Z-3.000 I3.898 J-7.993 F1000.000 
G3 X92.880 Y199.077 Z-3.000 I7.910 J-3.947 F1000.000 
G1 X102.928 Y209.125 Z-3.000 F1000.000 
G2 X106.128 Y208.082 Z-3.000 I-1.079 J-8.740 F1000.000 
G1 X93.918 Y195.872 Z-3.000 F1000.000 
G3 X95.796 Y193.508 Z-3.000 I7.554 J4.074 F1000.000 
G1 X108.496 Y206.207 Z-3.000 F1000.000 
G2 X110.127 Y203.596 Z-3.000 I-6.515 J-5.886 F1000.000 
G1 X98.405 Y191.874 Z-3.000 F1000.000 
G3 X101.983 Y191.210 Z-3.000 I3.346 J8.054 F1000.000 
G1 X110.790 Y200.017 Z-3.000 F1000.000 
G2 X101.983 Y191.210 Z-3.000 I-8.976 J0.170 F1000.000 
G0 Z5.000 
G0 X99.834 Y180.575 Z5.000 
G0 X99.834 Y180.575 Z3.000 
G1 X99.834 Y180.575 Z-3.000 F500.000 
G1 X93.026 Y173.767 Z-3.000 F1000.000 
G2 X99.834 Y180.575 Z-3.000 I8.750 J-1.942 F1000.000 
G2 X104.015 Y180.513 Z-3.000 I1.966 J-8.550 F1000.000 
G1 X93.083 Y169.581 Z-3.000 F1000.000 
G3 X94.416 Y166.672 Z-3.000 I8.456 J2.114 F1000.000 
G1 X106.933 Y179.189 Z-3.000 F1000.000 
G2 X109.074 Y177.087 Z-3.000 I-5.006 J-7.244 F1000.000 
G1 X96.514 Y164.527 Z-3.000 F1000.000 
G3 X99.369 Y163.140 Z-3.000 I5.178 J7.027 F1000.000 
G1 X110.457 Y174.227 Z-3.000 F1000.000 
G2 X110.643 Y170.171 Z-3.000 I-8.410 J-2.419 F1000.000 
G1 X103.429 Y162.956 Z-3.000 F1000.000 
G3 X110.643 Y170.171 Z-3.000 I-1.607 J8.821 F1000.000 
G0 Z5.000 
G0 X121.221 Y172.264 Z5.000 
G0 X121.221 Y172.264 Z3.000 
G1 X121.221 Y172.264 Z-3.000 F500.000 
G1 X129.740 Y180.782 Z-3.000 F1000.000 
G3 X121.221 Y172.264 Z-3.000 I0.448 J-8.966 F1000.000 
G3 X121.799 Y168.599 Z-3.000 I8.668 J-0.511 F1000.000 
G1 X133.406 Y180.206 Z-3.000 F1000.000 
G2 X136.061 Y178.618 Z-3.000 I-3.110 J-8.213 F1000.000 
G1 X123.380 Y165.938 Z-3.000 F1000.000 
G3 X125.696 Y164.011 Z-3.000 I6.655 J5.645 F1000.000 
G1 X137.984 Y176.299 Z-3.000 F1000.000 
G2 X139.091 Y173.163 Z-3.000 I-7.518 J-4.417 F1000.000 
G1 X128.841 Y162.913 Z-3.000 F1000.000 
G3 X133.682 Y163.511 Z-3.000 I1.381 J8.705 F1000.000 
G1 X138.498 Y168.328 Z-3.000 F1000.000 
G2 X133.682 Y163.511 Z-3.000 I-8.252 J3.436 F1000.000 
G0 Z5.000 
G0 X122.559 Y148.146 Z5.000 
G0 X122.559 Y148.146 Z3.000 
G1 X122.559 Y148.146 Z-3.000 F500.000 
G1 X125.440 Y151.027 Z-3.000 F1000.000 
G3 X122.559 Y148.146 Z-3.000 I4.629 J-7.511 F1000.000 
G3 X121.242 Y142.587 Z-3.000 I7.587 J-4.732 F1000.000 
G1 X131.010 Y152.354 Z-3.000 F1000.000 
G2 X134.300 Y151.401 Z-3.000 I-0.710 J-8.608 F1000.000 
G1 X122.196 Y139.297 Z-3.000 F1000.000 
G3 X124.012 Y136.871 Z-3.000 I7.860 J3.992 F1000.000 
G1 X136.726 Y149.584 Z-3.000 F1000.000 
G2 X138.424 Y147.040 Z-3.000 I-6.147 J-5.942 F1000.000 
G1 X126.562 Y135.178 Z-3.000 F1000.000 
G3 X130.036 Y134.410 Z-3.000 I3.575 J7.929 F1000.000 
G1 X139.191 Y143.564 Z-3.000 F1000.000 
G2 X130.036 Y134.410 Z-3.000 I-8.978 J-0.177 F1000.000 
G0 Z5.000 
G0 X127.773 Y123.661 Z5.000 
G0 X127.773 Y123.661 Z3.000 
G1 X127.773 Y123.661 Z-3.000 F500.000 
G1 X121.545 Y117.433 Z-3.000 F1000.000 
G2 X127.773 Y123.661 Z-3.000 I8.631 J-2.404 F1000.000 
G2 X132.136 Y123.782 Z-3.000 I2.420 J-8.541 F1000.000 
G1 X121.419 Y113.065 Z-3.000 F1000.000 
G3 X122.674 Y110.077 Z-3.000 I8.492 J1.809 F1000.000 
G1 X135.122 Y122.525 Z-3.000 F1000.000 
G2 X137.326 Y120.487 Z-3.000 I-4.626 J-7.217 F1000.000 
G1 X124.715 Y107.876 Z-3.000 F1000.000 
G3 X127.504 Y106.422 Z-3.000 I5.292 J6.750 F1000.000 
G1 X138.779 Y117.696 Z-3.000 F1000.000 
G2 X139.109 Y113.784 Z-3.000 I-8.351 J-2.674 F1000.000 
G1 X131.414 Y106.089 Z-3.000 F1000.000 
G3 X139.109 Y113.784 Z-3.000 I-1.197 J8.891 F1000.000 
G0 Z5.000 
G0 X149.645 Y115.835 Z5.000 
G0 X149.645 Y115.835 Z3.000 
G1 X149.645 Y115.835 Z-3.000 F500.000 
G1 X157.762 Y123.952 Z-3.000 F1000.000 
G3 X149.645 Y115.835 Z-3.000 I0.820 J-8.937 F1000.000 
G3 X150.103 Y112.051 Z-3.000 I8.788 J-0.855 F1000.000 
G1 X161.547 Y123.494 Z-3.000 F1000.000 
G2 X164.276 Y121.980 Z-3.000 I-2.760 J-8.192 F1000.000 
G1 X151.624 Y109.329 Z-3.000 F1000.000 
G3 X153.884 Y107.345 Z-3.000 I6.641 J5.287 F1000.000 
G1 X166.257 Y119.719 Z-3.000 F1000.000 
G2 X167.437 Y116.657 Z-3.000 I-7.401 J-4.613 F1000.000 
G1 X156.942 Y106.161 Z-3.000 F1000.000 
G3 X161.520 Y106.497 Z-3.000 I1.666 J8.669 F1000.000 
G1 X167.110 Y112.087 Z-3.000 F1000.000 
G2 X161.520 Y106.497 Z-3.000 I-8.473 J2.883 F1000.000 
G0 Z5.000 
G0 X187.489 Y123.980 Z5.000 
G0 X187.489 Y123.980 Z3.000 
G1 X187.489 Y123.980 Z-3.000 F500.000 
G3 X178.022 Y114.513 Z-3.000 I-0.499 J-8.968 F1000.000 
G1 X187.489 Y123.980 Z-3.000 F1000.000 
G2 X190.872 Y123.121 Z-3.000 I-0.452 J-8.871 F1000.000 
G1 X178.884 Y111.133 Z-3.000 F1000.000 
G3 X180.639 Y108.645 Z-3.000 I7.725 J3.586 F1000.000 
G1 X193.355 Y121.361 Z-3.000 F1000.000 
G2 X195.112 Y118.875 Z-3.000 I-6.016 J-6.115 F1000.000 
G1 X183.120 Y106.883 Z-3.000 F1000.000 
G3 X186.500 Y106.021 Z-3.000 I3.839 J7.991 F1000.000 
G1 X195.977 Y115.498 Z-3.000 F1000.000 
G2 X193.233 Y108.511 Z-3.000 I-8.944 J-0.520 F1000.000 
G0 Z5.000 
G0 X189.920 Y134.897 Z5.000 
G0 X189.920 Y134.897 Z3.000 
G1 X189.920 Y134.897 Z-3.000 F500.000 
G3 X195.510 Y140.487 Z-3.000 I-2.883 J8.473 F1000.000 
G1 X189.920 Y134.897 Z-3.000 F1000.000 
G2 X185.342 Y134.561 Z-3.000 I-2.912 J8.333 F1000.000 
G1 X195.837 Y145.057 Z-3.000 F1000.000 
G3 X194.657 Y148.119 Z-3.000 I-8.582 J-1.551 F1000.000 
G1 X182.284 Y135.745 Z-3.000 F1000.000 
G2 X180.024 Y137.729 Z-3.000 I4.381 J7.270 F1000.000 
G1 X192.676 Y150.380 Z-3.000 F1000.000 
G3 X189.947 Y151.894 Z-3.000 I-5.489 J-6.678 F1000.000 
G1 X178.503 Y140.451 Z-3.000 F1000.000 
G2 X178.045 Y144.235 Z-3.000 I8.330 J2.929 F1000.000 
G2 X186.162 Y152.352 Z-3.000 I8.937 J-0.820 F1000.000 
G1 X178.045 Y144.235 Z-3.000 F1000.000 
G0 Z5.000 
G0 X167.509 Y142.184 Z5.000 
G0 X167.509 Y142.184 Z3.000 
G1 X167.509 Y142.184 Z-3.000 F500.000 
G2 X159.814 Y134.489 Z-3.000 I-8.891 J1.197 F1000.000 
G1 X167.509 Y142.184 Z-3.000 F1000.000 
G3 X167.179 Y146.096 Z-3.000 I-8.681 J1.239 F1000.000 
G1 X155.904 Y134.822 Z-3.000 F1000.000 
G2 X153.115 Y136.276 Z-3.000 I2.503 J8.204 F1000.000 
G1 X165.726 Y148.887 Z-3.000 F1000.000 
G3 X163.522 Y150.925 Z-3.000 I-6.831 J-5.179 F1000.000 
G1 X151.074 Y138.477 Z-3.000 F1000.000 
G2 X149.819 Y141.465 Z-3.000 I7.237 J4.797 F1000.000 
G1 X160.536 Y152.182 Z-3.000 F1000.000 
G3 X156.173 Y152.061 Z-3.000 I-1.943 J-8.662 F1000.000 
G3 X149.945 Y145.833 Z-3.000 I2.404 J-8.631 F1000.000 
G1 X156.173 Y152.061 Z-3.000 F1000.000 
G0 Z5.000 
G0 X158.436 Y162.810 Z5.000 
G0 X158.436 Y162.810 Z3.000 
G1 X158.436 Y162.810 Z-3.000 F500.000 
G3 X167.591 Y171.964 Z-3.000 I0.177 J8.978 F1000.000 
G1 X158.436 Y162.810 Z-3.000 F1000.000 
G2 X154.962 Y163.578 Z-3.000 I0.101 J8.697 F1000.000 
G1 X166.824 Y175.440 Z-3.000 F1000.000 
G3 X165.126 Y177.984 Z-3.000 I-7.846 J-3.398 F1000.000 
G1 X152.412 Y165.271 Z-3.000 F1000.000 
G2 X150.596 Y167.697 Z-3.000 I6.044 J6.418 F1000.000 
G1 X162.700 Y179.801 Z-3.000 F1000.000 
G3 X159.410 Y180.754 Z-3.000 I-4.000 J-7.655 F1000.000 
G1 X149.642 Y170.987 Z-3.000 F1000.000 
G2 X150.959 Y176.546 Z-3.000 I8.903 J0.827 F1000.000 
G2 X153.840 Y179.427 Z-3.000 I7.511 J-4.629 F1000.000 
G1 X150.959 Y176.546 Z-3.000 F1000.000 
G0 Z5.000 
G0 X162.082 Y191.911 Z5.000 
G0 X162.082 Y191.911 Z3.000 
G1 X162.082 Y191.911 Z-3.000 F500.000 
G3 X166.898 Y196.728 Z-3.000 I-3.436 J8.252 F1000.000 
G1 X162.082 Y191.911 Z-3.000 F1000.000 
G2 X157.241 Y191.313 Z-3.000 I-3.460 J8.106 F1000.000 
G1 X167.491 Y201.563 Z-3.000 F1000.000 
G3 X166.384 Y204.699 Z-3.000 I-8.625 J-1.282 F1000.000 
G1 X154.096 Y192.411 Z-3.000 F1000.000 
G2 X151.780 Y194.338 Z-3.000 I4.339 J7.571 F1000.000 
G1 X164.461 Y207.018 Z-3.000 F1000.000 
G3 X161.806 Y208.606 Z-3.000 I-5.765 J-6.626 F1000.000 
G1 X150.199 Y196.999 Z-3.000 F1000.000 
G2 X149.621 Y200.664 Z-3.000 I8.090 J3.153 F1000.000 
G2 X158.140 Y209.182 Z-3.000 I8.966 J-0.448 F1000.000 
G1 X149.621 Y200.664 Z-3.000 F1000.000 
G0 Z5.000 
G0 X139.043 Y198.571 Z5.000 
G0 X139.043 Y198.571 Z3.000 
G1 X139.043 Y198.571 Z-3.000 F500.000 
G2 X131.829 Y191.356 Z-3.000 I-8.821 J1.607 F1000.000 
G1 X139.043 Y198.571 Z-3.000 F1000.000 
G3 X138.857 Y202.627 Z-3.000 I-8.596 J1.637 F1000.000 
G1 X127.769 Y191.540 Z-3.000 F1000.000 
G2 X124.914 Y192.927 Z-3.000 I2.322 J8.414 F1000.000 
G1 X137.474 Y205.487 Z-3.000 F1000.000 
G3 X135.333 Y207.589 Z-3.000 I-7.148 J-5.143 F1000.000 
G1 X122.816 Y195.072 Z-3.000 F1000.000 
G2 X121.483 Y197.981 Z-3.000 I7.123 J5.024 F1000.000 
G1 X132.415 Y208.913 Z-3.000 F1000.000 
G3 X128.234 Y208.975 Z-3.000 I-2.215 J-8.489 F1000.000 
G3 X121.426 Y202.167 Z-3.000 I1.942 J-8.750 F1000.000 
G1 X128.234 Y208.975 Z-3.000 F1000.000 
G0 Z5.000 
G0 X130.383 Y219.610 Z5.000 
G0 X130.383 Y219.610 Z3.000 
G1 X130.383 Y219.610 Z-3.000 F500.000 
G3 X139.190 Y228.417 Z-3.000 I-0.170 J8.976 F1000.000 
G1 X130.383 Y219.610 Z-3.000 F1000.000 
G2 X126.805 Y220.274 Z-3.000 I-0.232 J8.718 F1000.000 
G1 X138.527 Y231.996 Z-3.000 F1000.000 
G3 X136.896 Y234.607 Z-3.000 I-8.146 J-3.275 F1000.000 
G1 X124.196 Y221.908 Z-3.000 F1000.000 
G2 X122.318 Y224.272 Z-3.000 I5.675 J6.438 F1000.000 
G1 X134.528 Y236.482 Z-3.000 F1000.000 
G3 X131.328 Y237.525 Z-3.000 I-4.279 J-7.697 F1000.000 
G1 X121.280 Y227.477 Z-3.000 F1000.000 
G2 X122.135 Y232.574 Z-3.000 I8.765 J1.151 F1000.000 
G2 X126.230 Y236.670 Z-3.000 I7.993 J-3.898 F1000.000 
G1 X122.135 Y232.574 Z-3.000 F1000.000 
G0 Z5.000 
G0 X105.934 Y220.617 Z5.000 
G0 X105.934 Y220.617 Z3.000 
G1 X105.934 Y220.617 Z-3.000 F500.000 
G3 X109.795 Y224.477 Z-3.000 I-4.063 J7.923 F1000.000 
G1 X105.934 Y220.617 Z-3.000 F1000.000 
G2 X100.741 Y219.666 Z-3.000 I-4.127 J7.886 F1000.000 
G1 X110.728 Y229.653 Z-3.000 F1000.000 
G3 X109.711 Y232.878 Z-3.000 I-8.651 J-0.956 F1000.000 
G1 X97.524 Y220.691 Z-3.000 F1000.000 
G2 X95.143 Y222.553 Z-3.000 I4.057 J7.641 F1000.000 
G1 X107.845 Y235.255 Z-3.000 F1000.000 
G3 X105.250 Y236.902 Z-3.000 I-5.794 J-6.262 F1000.000 
G1 X93.494 Y225.147 Z-3.000 F1000.000 
G2 X92.807 Y228.702 Z-3.000 I8.150 J3.421 F1000.000 
G2 X101.695 Y237.590 Z-3.000 I8.979 J-0.091 F1000.000 
G1 X92.807 Y228.702 Z-3.000 F1000.000 
G0 Z5.000 
G0 X82.154 Y226.535 Z5.000 
G0 X82.154 Y226.535 Z3.000 
G1 X82.154 Y226.535 Z-3.000 F500.000 
G2 X75.470 Y219.851 Z-3.000 I-8.727 J2.044 F1000.000 
G1 X82.154 Y226.535 Z-3.000 F1000.000 
G3 X82.135 Y230.758 Z-3.000 I-8.706 J2.072 F1000.000 
G1 X71.248 Y219.871 Z-3.000 F1000.000 
G2 X68.314 Y221.180 Z-3.000 I2.040 J8.520 F1000.000 
G1 X80.816 Y233.682 Z-3.000 F1000.000 
G3 X78.731 Y235.840 Z-3.000 I-7.059 J-4.736 F1000.000 
G1 X66.158 Y223.266 Z-3.000 F1000.000 
G2 X64.761 Y226.112 Z-3.000 I6.894 J5.149 F1000.000 
G1 X75.893 Y237.245 Z-3.000 F1000.000 
G3 X71.865 Y237.459 Z-3.000 I-2.471 J-8.498 F1000.000 
G3 X64.537 Y230.131 Z-3.000 I1.513 J-8.841 F1000.000 
G1 X71.865 Y237.459 Z-3.000 F1000.000 
G0 Z5.000 
G0 X65.335 Y175.774 Z5.000 
G0 X65.335 Y175.774 Z3.000 
G1 X65.335 Y175.774 Z-3.000 F500.000 
G1 X69.430 Y179.870 Z-3.000 F1000.000 
G3 X65.335 Y175.774 Z-3.000 I3.898 J-7.993 F1000.000 
G3 X64.480 Y170.677 Z-3.000 I7.910 J-3.947 F1000.000 
G1 X74.528 Y180.725 Z-3.000 F1000.000 
G2 X77.728 Y179.682 Z-3.000 I-1.079 J-8.740 F1000.000 
G1 X65.518 Y167.472 Z-3.000 F1000.000 
G3 X67.396 Y165.108 Z-3.000 I7.554 J4.074 F1000.000 
G1 X80.096 Y177.807 Z-3.000 F1000.000 
G2 X81.727 Y175.196 Z-3.000 I-6.515 J-5.886 F1000.000 
G1 X70.005 Y163.474 Z-3.000 F1000.000 
G3 X73.583 Y162.810 Z-3.000 I3.346 J8.054 F1000.000 
G1 X82.390 Y171.617 Z-3.000 F1000.000 
G2 X73.583 Y162.810 Z-3.000 I-8.976 J0.170 F1000.000 
G0 Z5.000 
G0 X71.434 Y152.175 Z5.000 
G0 X71.434 Y152.175 Z3.000 
G1 X71.434 Y152.175 Z-3.000 F500.000 
G1 X64.626 Y145.367 Z-3.000 F1000.000 
G2 X71.434 Y152.175 Z-3.000 I8.750 J-1.942 F1000.000 
G2 X75.615 Y152.113 Z-3.000 I1.966 J-8.550 F1000.000 
G1 X64.683 Y141.181 Z-3.000 F1000.000 
G3 X66.016 Y138.272 Z-3.000 I8.456 J2.114 F1000.000 
G1 X78.533 Y150.789 Z-3.000 F1000.000 
G2 X80.674 Y148.687 Z-3.000 I-5.006 J-7.244 F1000.000 
G1 X68.114 Y136.127 Z-3.000 F1000.000 
G3 X70.969 Y134.740 Z-3.000 I5.178 J7.027 F1000.000 
G1 X82.057 Y145.827 Z-3.000 F1000.000 
G2 X82.243 Y141.771 Z-3.000 I-8.410 J-2.419 F1000.000 
G1 X75.029 Y134.556 Z-3.000 F1000.000 
G3 X82.243 Y141.771 Z-3.000 I-1.607 J8.821 F1000.000 
G0 Z5.000 
G0 X92.821 Y143.864 Z5.000 
G0 X92.821 Y143.864 Z3.000 
G1 X92.821 Y143.864 Z-3.000 F500.000 
G1 X101.340 Y152.382 Z-3.000 F1000.000 
G3 X92.821 Y143.864 Z-3.000 I0.448 J-8.966 F1000.000 
G3 X93.399 Y140.199 Z-3.000 I8.668 J-0.511 F1000.000 
G1 X105.006 Y151.806 Z-3.000 F1000.000 
G2 X107.661 Y150.218 Z-3.000 I-3.110 J-8.213 F1000.000 
G1 X94.980 Y137.538 Z-3.000 F1000.000 
G3 X97.296 Y135.611 Z-3.000 I6.655 J5.645 F1000.000 
G1 X109.584 Y147.899 Z-3.000 F1000.000 
G2 X110.691 Y144.763 Z-3.000 I-7.518 J-4.417 F1000.000 
G1 X100.441 Y134.513 Z-3.000 F1000.000 
G3 X105.282 Y135.111 Z-3.000 I1.381 J8.705 F1000.000 
G1 X110.098 Y139.928 Z-3.000 F1000.000 
G2 X105.282 Y135.111 Z-3.000 I-8.252 J3.436 F1000.000 
G0 Z5.000 
G0 X94.159 Y119.746 Z5.000 
G0 X94.159 Y119.746 Z3.000 
G1 X94.159 Y119.746 Z-3.000 F500.000 
G1 X97.040 Y122.627 Z-3.000 F1000.000 
G3 X94.159 Y119.746 Z-3.000 I4.629 J-7.511 F1000.000 
G3 X92.842 Y114.187 Z-3.000 I7.587 J-4.732 F1000.000 
G1 X102.610 Y123.954 Z-3.000 F1000.000 
G2 X105.900 Y123.001 Z-3.000 I-0.710 J-8.608 F1000.000 
G1 X93.796 Y110.897 Z-3.000 F1000.000 
G3 X95.612 Y108.471 Z-3.000 I7.860 J3.992 F1000.000 
G1 X108.326 Y121.184 Z-3.000 F1000.000 
G2 X110.024 Y118.640 Z-3.000 I-6.147 J-5.942 F1000.000 
G1 X98.162 Y106.778 Z-3.000 F1000.000 
G3 X101.636 Y106.010 Z-3.000 I3.575 J7.929 F1000.000 
G1 X110.791 Y115.164 Z-3.000 F1000.000 
G2 X101.636 Y106.010 Z-3.000 I-8.978 J-0.177 F1000.000 
G0 Z5.000 
G0 X76.882 Y106.711 Z5.000 
G0 X76.882 Y106.711 Z3.000 
G1 X76.882 Y106.711 Z-3.000 F500.000 
G3 X81.698 Y111.528 Z-3.000 I-3.436 J8.252 F1000.000 
G1 X76.882 Y106.711 Z-3.000 F1000.000 
G2 X72.041 Y106.113 Z-3.000 I-3.460 J8.106 F1000.000 
G1 X82.291 Y116.363 Z-3.000 F1000.000 
G3 X81.184 Y119.499 Z-3.000 I-8.625 J-1.282 F1000.000 
G1 X68.896 Y107.211 Z-3.000 F1000.000 
G2 X66.580 Y109.138 Z-3.000 I4.339 J7.571 F1000.000 
G1 X79.261 Y121.818 Z-3.000 F1000.000 
G3 X76.606 Y123.406 Z-3.000 I-5.765 J-6.626 F1000.000 
G1 X64.999 Y111.799 Z-3.000 F1000.000 
G2 X64.421 Y115.464 Z-3.000 I8.090 J3.153 F1000.000 
G2 X72.940 Y123.982 Z-3.000 I8.966 J-0.448 F1000.000 
G1 X64.421 Y115.464 Z-3.000 F1000.000 
G0 Z5.000 
G0 X53.843 Y113.371 Z5.000 
G0 X53.843 Y113.371 Z3.000 
G1 X53.843 Y113.371 Z-3.000 F500.000 
G2 X46.629 Y106.156 Z-3.000 I-8.821 J1.607 F1000.000 
G1 X53.843 Y113.371 Z-3.000 F1000.000 
G3 X53.657 Y117.427 Z-3.000 I-8.596 J1.637 F1000.000 
G1 X42.569 Y106.340 Z-3.000 F1000.000 
G2 X39.714 Y107.727 Z-3.000 I2.322 J8.414 F1000.000 
G1 X52.274 Y120.287 Z-3.000 F1000.000 
G3 X50.133 Y122.389 Z-3.000 I-7.148 J-5.143 F1000.000 
G1 X37.616 Y109.872 Z-3.000 F1000.000 
G2 X36.283 Y112.781 Z-3.000 I7.123 J5.024 F1000.000 
G1 X47.215 Y123.713 Z-3.000 F1000.000 
G3 X43.034 Y123.775 Z-3.000 I-2.215 J-8.489 F1000.000 
G3 X36.226 Y116.967 Z-3.000 I1.942 J-8.750 F1000.000 
G1 X43.034 Y123.775 Z-3.000 F1000.000 
G0 Z5.000 
G0 X45.183 Y134.410 Z5.000 
G0 X45.183 Y134.410 Z3.000 
G1 X45.183 Y134.410 Z-3.000 F500.000 
G3 X53.990 Y143.217 Z-3.000 I-0.170 J8.976 F1000.000 
G1 X45.183 Y134.410 Z-3.000 F1000.000 
G2 X41.605 Y135.074 Z-3.000 I-0.232 J8.718 F1000.000 
G1 X53.327 Y146.796 Z-3.000 F1000.000 
G3 X51.696 Y149.407 Z-3.000 I-8.146 J-3.275 F1000.000 
G1 X38.996 Y136.708 Z-3.000 F1000.000 
G2 X37.118 Y139.072 Z-3.000 I5.675 J6.438 F1000.000 
G1 X49.328 Y151.282 Z-3.000 F1000.000 
G3 X46.128 Y152.325 Z-3.000 I-4.279 J-7.697 F1000.000 
G1 X36.080 Y142.277 Z-3.000 F1000.000 
G2 X36.935 Y147.374 Z-3.000 I8.765 J1.151 F1000.000 
G2 X41.030 Y151.470 Z-3.000 I7.993 J-3.898 F1000.000 
G1 X36.935 Y147.374 Z-3.000 F1000.000 
G0 Z5.000 
G0 X49.134 Y163.817 Z5.000 
G0 X49.134 Y163.817 Z3.000 
G1 X49.134 Y163.817 Z-3.000 F500.000 
G3 X52.995 Y167.677 Z-3.000 I-4.063 J7.923 F1000.000 
G1 X49.134 Y163.817 Z-3.000 F1000.000 
G2 X43.941 Y162.866 Z-3.000 I-4.127 J7.886 F1000.000 
G1 X53.928 Y172.853 Z-3.000 F1000.000 
G3 X52.911 Y176.078 Z-3.000 I-8.651 J-0.956 F1000.000 
G1 X40.724 Y163.891 Z-3.000 F1000.000 
G2 X38.343 Y165.753 Z-3.000 I4.057 J7.641 F1000.000 
G1 X51.045 Y178.455 Z-3.000 F1000.000 
G3 X48.450 Y180.102 Z-3.000 I-5.794 J-6.262 F1000.000 
G1 X36.694 Y168.347 Z-3.000 F1000.000 
G2 X36.007 Y171.902 Z-3.000 I8.150 J3.421 F1000.000 
G2 X44.895 Y180.790 Z-3.000 I8.979 J-0.091 F1000.000 
G1 X36.007 Y171.902 Z-3.000 F1000.000 
G0 Z5.000 
G0 X156.634 Y237.375 Z5.000 
G0 X156.634 Y237.375 Z3.000 
G1 X156.634 Y237.375 Z-3.000 F500.000 
G1 X149.826 Y230.567 Z-3.000 F1000.000 
G2 X156.634 Y237.375 Z-3.000 I8.750 J-1.942 F1000.000 
G2 X160.815 Y237.313 Z-3.000 I1.966 J-8.550 F1000.000 
G1 X149.883 Y226.381 Z-3.000 F1000.000 
G3 X151.216 Y223.472 Z-3.000 I8.456 J2.114 F1000.000 
G1 X163.733 Y235.989 Z-3.000 F1000.000 
G2 X165.874 Y233.887 Z-3.000 I-5.006 J-7.244 F1000.000 
G1 X153.314 Y221.327 Z-3.000 F1000.000 
G3 X156.169 Y219.940 Z-3.000 I5.178 J7.027 F1000.000 
G1 X167.257 Y231.027 Z-3.000 F1000.000 
G2 X167.443 Y226.971 Z-3.000 I-8.410 J-2.419 F1000.000 
G1 X160.229 Y219.756 Z-3.000 F1000.000 
G3 X167.443 Y226.971 Z-3.000 I-1.607 J8.821 F1000.000 
G0 Z5.000 
G0 X178.021 Y229.064 Z5.000 
G0 X178.021 Y229.064 Z3.000 
G1 X178.021 Y229.064 Z-3.000 F500.000 
G1 X186.540 Y237.582 Z-3.000 F1000.000 
G3 X178.021 Y229.064 Z-3.000 I0.448 J-8.966 F1000.000 
G3 X178.599 Y225.399 Z-3.000 I8.668 J-0.511 F1000.000 
G1 X190.206 Y237.006 Z-3.000 F1000.000 
G2 X192.861 Y235.418 Z-3.000 I-3.110 J-8.213 F1000.000 
G1 X180.180 Y222.738 Z-3.000 F1000.000 
G3 X182.496 Y220.811 Z-3.000 I6.655 J5.645 F1000.000 
G1 X194.784 Y233.099 Z-3.000 F1000.000 
G2 X195.891 Y229.963 Z-3.000 I-7.518 J-4.417 F1000.000 
G1 X185.641 Y219.713 Z-3.000 F1000.000 
G3 X190.482 Y220.311 Z-3.000 I1.381 J8.705 F1000.000 
G1 X195.298 Y225.128 Z-3.000 F1000.000 
G2 X190.482 Y220.311 Z-3.000 I-8.252 J3.436 F1000.000 
G0 Z5.000 
G0 X179.359 Y204.946 Z5.000 
G0 X179.359 Y204.946 Z3.000 
G1 X179.359 Y204.946 Z-3.000 F500.000 
G1 X182.240 Y207.827 Z-3.000 F1000.000 
G3 X179.359 Y204.946 Z-3.000 I4.629 J-7.511 F1000.000 
G3 X178.042 Y199.387 Z-3.000 I7.587 J-4.732 F1000.000 
G1 X187.810 Y209.154 Z-3.000 F1000.000 
G2 X191.100 Y208.201 Z-3.000 I-0.710 J-8.608 F1000.000 
G1 X178.996 Y196.097 Z-3.000 F1000.000 
G3 X180.812 Y193.671 Z-3.000 I7.860 J3.992 F1000.000 
G1 X193.526 Y206.384 Z-3.000 F1000.000 
G2 X195.224 Y203.840 Z-3.000 I-6.147 J-5.942 F1000.000 
G1 X183.362 Y191.978 Z-3.000 F1000.000 
G3 X186.836 Y191.210 Z-3.000 I3.575 J7.929 F1000.000 
G1 X195.991 Y200.364 Z-3.000 F1000.000 
G2 X186.836 Y191.210 Z-3.000 I-8.978 J-0.177 F1000.000 
G0 Z5.000 
G0 X184.573 Y180.461 Z5.000 
G0 X184.573 Y180.461 Z3.000 
G1 X184.573 Y180.461 Z-3.000 F500.000 
G1 X178.345 Y174.233 Z-3.000 F1000.000 
G2 X184.573 Y180.461 Z-3.000 I8.631 J-2.404 F1000.000 
G2 X188.936 Y180.582 Z-3.000 I2.420 J-8.541 F1000.000 
G1 X178.219 Y169.865 Z-3.000 F1000.000 
G3 X179.474 Y166.877 Z-3.000 I8.492 J1.809 F1000.000 
G1 X191.922 Y179.325 Z-3.000 F1000.000 
G2 X194.126 Y177.287 Z-3.000 I-4.626 J-7.217 F1000.000 
G1 X181.515 Y164.676 Z-3.000 F1000.000 
G3 X184.304 Y163.222 Z-3.000 I5.292 J6.750 F1000.000 
G1 X195.579 Y174.496 Z-3.000 F1000.000 
G2 X195.909 Y170.584 Z-3.000 I-8.351 J-2.674 F1000.000 
G1 X188.214 Y162.889 Z-3.000 F1000.000 
G3 X195.909 Y170.584 Z-3.000 I-1.197 J8.891 F1000.000 
G0 Z5.000 
G0 X194.959 Y171.049 Z5.000 
G0 X194.959 Y171.049 Z3.000 
G1 X194.959 Y171.049 Z-4.000 F500.000 
G2 X187.756 Y163.845 Z-4.000 I-7.941 J0.738 F1000.000 
G1 X194.959 Y171.049 Z-4.000 F1000.000 
G3 X194.423 Y174.756 Z-4.000 I-7.774 J0.769 F1000.000 
G1 X184.040 Y164.372 Z-4.000 F1000.000 
G2 X181.464 Y166.039 Z-4.000 I2.867 J7.253 F1000.000 
G1 X192.766 Y177.341 Z-4.000 F1000.000 
G3 X190.272 Y179.089 Z-4.000 I-5.586 J-5.315 F1000.000 
G1 X179.706 Y168.523 Z-4.000 F1000.000 
G2 X179.014 Y172.075 Z-4.000 I7.140 J3.233 F1000.000 
G1 X186.730 Y179.790 Z-4.000 F1000.000 
G3 X179.014 Y172.075 Z-4.000 I0.260 J-7.975 F1000.000 
G0 Z5.000 
G0 X186.441 Y192.229 Z5.000 
G0 X186.441 Y192.229 Z3.000 
G1 X186.441 Y192.229 Z-4.000 F500.000 
G3 X194.973 Y200.762 Z-4.000 I0.571 J7.962 F1000.000 
G1 X186.441 Y192.229 Z-4.000 F1000.000 
G2 X183.161 Y193.192 Z-4.000 I0.482 J7.704 F1000.000 
G1 X194.011 Y204.042 Z-4.000 F1000.000 
G3 X192.088 Y206.361 Z-4.000 I-6.817 J-3.695 F1000.000 
G1 X180.836 Y195.110 Z-4.000 F1000.000 
G2 X179.356 Y197.872 Z-4.000 I5.944 J4.961 F1000.000 
G1 X189.333 Y207.849 Z-4.000 F1000.000 
G3 X185.239 Y207.998 Z-4.000 I-2.326 J-7.582 F1000.000 
G1 X179.207 Y201.966 Z-4.000 F1000.000 
G2 X185.239 Y207.998 Z-4.000 I7.773 J-1.741 F1000.000 
G0 Z5.000 
G0 X189.910 Y221.154 Z5.000 
G0 X189.910 Y221.154 Z3.000 
G1 X189.910 Y221.154 Z-4.000 F500.000 
G3 X194.439 Y225.683 Z-4.000 I-2.872 J7.400 F1000.000 
G1 X189.910 Y221.154 Z-4.000 F1000.000 
G2 X185.300 Y220.786 Z-4.000 I-2.911 J7.407 F1000.000 
G1 X194.808 Y230.295 Z-4.000 F1000.000 
G3 X193.508 Y233.237 Z-4.000 I-7.528 J-1.567 F1000.000 
G1 X182.362 Y222.091 Z-4.000 F1000.000 
G2 X180.289 Y224.261 Z-4.000 I4.443 J6.320 F1000.000 
G1 X191.339 Y235.311 Z-4.000 F1000.000 
G3 X188.274 Y236.488 Z-4.000 I-4.236 J-6.452 F1000.000 
G1 X179.108 Y227.323 Z-4.000 F1000.000 
G2 X179.993 Y232.450 Z-4.000 I7.847 J1.286 F1000.000 
G2 X183.137 Y235.594 Z-4.000 I6.921 J-3.777 F1000.000 
G1 X179.993 Y232.450 Z-4.000 F1000.000 
G0 Z5.000 
G0 X166.508 Y227.451 Z5.000 
G0 X166.508 Y227.451 Z3.000 
G1 X166.508 Y227.451 Z-4.000 F500.000 
G2 X159.748 Y220.690 Z-4.000 I-7.890 J1.130 F1000.000 
G1 X166.508 Y227.451 Z-4.000 F1000.000 
G3 X166.123 Y231.308 Z-4.000 I-7.789 J1.170 F1000.000 
G1 X155.896 Y221.081 Z-4.000 F1000.000 
G2 X153.241 Y222.669 Z-4.000 I2.557 J7.289 F1000.000 
G1 X164.529 Y233.957 Z-4.000 F1000.000 
G3 X162.111 Y235.781 Z-4.000 I-5.775 J-5.140 F1000.000 
G1 X151.421 Y225.091 Z-4.000 F1000.000 
G2 X150.606 Y228.519 Z-4.000 I6.983 J3.470 F1000.000 
G1 X158.677 Y236.590 Z-4.000 F1000.000 
G3 X150.606 Y228.519 Z-4.000 I-0.090 J-7.980 F1000.000 
G0 Z5.000 
G0 X158.369 Y249.010 Z5.000 
G0 X158.369 Y249.010 Z3.000 
G1 X158.369 Y249.010 Z-4.000 F500.000 
G3 X166.588 Y257.229 Z-4.000 I0.241 J7.977 F1000.000 
G1 X158.369 Y249.010 Z-4.000 F1000.000 
G2 X154.984 Y249.868 Z-4.000 I0.203 J7.910 F1000.000 
G1 X165.728 Y260.611 Z-4.000 F1000.000 
G3 X163.880 Y263.006 Z-4.000 I-6.995 J-3.485 F1000.000 
G1 X152.599 Y251.725 Z-4.000 F1000.000 
G2 X151.038 Y254.407 Z-4.000 I5.782 J5.160 F1000.000 
G1 X161.190 Y264.559 Z-4.000 F1000.000 
G3 X157.267 Y264.878 Z-4.000 I-2.571 J-7.332 F1000.000 
G1 X150.714 Y258.326 Z-4.000 F1000.000 
G2 X157.267 Y264.878 Z-4.000 I7.866 J-1.314 F1000.000 
G0 Z5.000 
G0 X179.006 Y256.919 Z5.000 
G0 X179.006 Y256.919 Z3.000 
G1 X179.006 Y256.919 Z-4.000 F500.000 
G2 X187.077 Y264.990 Z-4.000 I7.980 J0.090 F1000.000 
G1 X179.006 Y256.919 Z-4.000 F1000.000 
G3 X179.821 Y253.491 Z-4.000 I7.797 J0.042 F1000.000 
G1 X190.511 Y264.181 Z-4.000 F1000.000 
G2 X192.929 Y262.357 Z-4.000 I-3.357 J-6.964 F1000.000 
G1 X181.641 Y251.069 Z-4.000 F1000.000 
G3 X184.296 Y249.481 Z-4.000 I5.212 J5.702 F1000.000 
G1 X194.523 Y259.708 Z-4.000 F1000.000 
G2 X194.908 Y255.851 Z-4.000 I-7.404 J-2.687 F1000.000 
G1 X188.148 Y249.090 Z-4.000 F1000.000 
G3 X194.908 Y255.851 Z-4.000 I-1.130 J7.890 F1000.000 
G0 Z5.000 
G0 X133.731 Y249.828 Z5.000 
G0 X133.731 Y249.828 Z3.000 
G1 X133.731 Y249.828 Z-4.000 F500.000 
G3 X137.364 Y253.460 Z-4.000 I-3.468 J7.101 F1000.000 
G1 X133.731 Y249.828 Z-4.000 F1000.000 
G2 X128.795 Y249.134 Z-4.000 I-3.510 J7.075 F1000.000 
G1 X138.070 Y258.409 Z-4.000 F1000.000 
G3 X136.853 Y261.435 Z-4.000 I-7.774 J-1.370 F1000.000 
G1 X125.769 Y250.351 Z-4.000 F1000.000 
G2 X123.626 Y252.451 Z-4.000 I4.235 J6.463 F1000.000 
G1 X134.746 Y263.571 Z-4.000 F1000.000 
G3 X131.770 Y264.837 Z-4.000 I-4.455 J-6.339 F1000.000 
G1 X122.364 Y255.432 Z-4.000 F1000.000 
G2 X122.865 Y260.175 Z-4.000 I7.718 J1.584 F1000.000 
G2 X127.022 Y264.332 Z-4.000 I7.281 J-3.123 F1000.000 
G1 X122.865 Y260.175 Z-4.000 F1000.000 
G0 Z5.000 
G0 X109.635 Y255.431 Z5.000 
G0 X109.635 Y255.431 Z3.000 
G1 X109.635 Y255.431 Z-4.000 F500.000 
G2 X103.367 Y249.162 Z-4.000 I-7.815 J1.546 F1000.000 
G1 X109.635 Y255.431 Z-4.000 F1000.000 
G3 X109.407 Y259.445 Z-4.000 I-7.639 J1.580 F1000.000 
G1 X99.353 Y249.391 Z-4.000 F1000.000 
G2 X96.627 Y250.907 Z-4.000 I2.334 J7.401 F1000.000 
G1 X107.892 Y262.172 Z-4.000 F1000.000 
G3 X105.540 Y264.063 Z-4.000 I-5.901 J-4.932 F1000.000 
G1 X94.737 Y253.260 Z-4.000 F1000.000 
G2 X93.820 Y256.586 Z-4.000 I6.814 J3.668 F1000.000 
G1 X102.218 Y264.983 Z-4.000 F1000.000 
G3 X93.820 Y256.586 Z-4.000 I-0.426 J-7.971 F1000.000 
G0 Z5.000 
G0 X73.516 Y249.010 Z5.000 
G0 X73.516 Y249.010 Z3.000 
G1 X73.516 Y249.010 Z-4.000 F500.000 
G3 X81.392 Y256.886 Z-4.000 I-0.102 J7.978 F1000.000 
G1 X73.516 Y249.010 Z-4.000 F1000.000 
G2 X70.022 Y249.758 Z-4.000 I-0.168 J7.747 F1000.000 
G1 X80.644 Y260.380 Z-4.000 F1000.000 
G3 X78.858 Y262.837 Z-4.000 I-6.987 J-3.204 F1000.000 
G1 X67.561 Y251.540 Z-4.000 F1000.000 
G2 X65.933 Y254.154 Z-4.000 I5.607 J5.308 F1000.000 
G1 X76.247 Y264.468 Z-4.000 F1000.000 
G3 X72.476 Y264.940 Z-4.000 I-2.832 J-7.328 F1000.000 
G1 X65.463 Y257.928 Z-4.000 F1000.000 
G2 X72.476 Y264.940 Z-4.000 I7.922 J-0.910 F1000.000 
G0 Z5.000 
G0 X49.339 Y250.289 Z5.000 
G0 X49.339 Y250.289 Z3.000 
G1 X49.339 Y250.289 Z-4.000 F500.000 
G3 X51.712 Y252.661 Z-4.000 I-4.171 J6.543 F1000.000 
G1 X49.339 Y250.289 Z-4.000 F1000.000 
G2 X43.891 Y249.083 Z-4.000 I-4.327 J6.641 F1000.000 
G1 X52.914 Y258.106 Z-4.000 F1000.000 
G3 X51.785 Y261.220 Z-4.000 I-7.626 J-1.003 F1000.000 
G1 X40.776 Y250.211 Z-4.000 F1000.000 
G2 X38.574 Y252.252 Z-4.000 I4.019 J6.545 F1000.000 
G1 X49.754 Y263.431 Z-4.000 F1000.000 
G3 X46.854 Y264.774 Z-4.000 I-4.664 J-6.270 F1000.000 
G1 X37.226 Y255.146 Z-4.000 F1000.000 
G2 X37.441 Y259.604 Z-4.000 I7.681 J1.863 F1000.000 
G2 X42.389 Y264.552 Z-4.000 I7.523 J-2.575 F1000.000 
G1 X37.441 Y259.604 Z-4.000 F1000.000 
G0 Z5.000 
G0 X44.076 Y236.540 Z5.000 
G0 X44.076 Y236.540 Z3.000 
G1 X44.076 Y236.540 Z-4.000 F500.000 
G3 X37.063 Y229.528 Z-4.000 I0.910 J-7.922 F1000.000 
G1 X44.076 Y236.540 Z-4.000 F1000.000 
G2 X47.847 Y236.068 Z-4.000 I0.938 J-7.800 F1000.000 
G1 X37.533 Y225.754 Z-4.000 F1000.000 
G3 X39.161 Y223.140 Z-4.000 I7.236 J2.694 F1000.000 
G1 X50.458 Y234.437 Z-4.000 F1000.000 
G2 X52.244 Y231.980 Z-4.000 I-5.201 J-5.660 F1000.000 
G1 X41.622 Y221.358 Z-4.000 F1000.000 
G3 X45.116 Y220.610 Z-4.000 I3.326 J6.998 F1000.000 
G1 X52.992 Y228.486 Z-4.000 F1000.000 
G2 X45.116 Y220.610 Z-4.000 I-7.978 J0.102 F1000.000 
G0 Z5.000 
G0 X65.420 Y228.186 Z5.000 
G0 X65.420 Y228.186 Z3.000 
G1 X65.420 Y228.186 Z-4.000 F500.000 
G2 X73.818 Y236.583 Z-4.000 I7.971 J0.426 F1000.000 
G1 X65.420 Y228.186 Z-4.000 F1000.000 
G3 X66.337 Y224.860 Z-4.000 I7.731 J0.342 F1000.000 
G1 X77.140 Y235.663 Z-4.000 F1000.000 
G2 X79.492 Y233.772 Z-4.000 I-3.549 J-6.822 F1000.000 
G1 X68.227 Y222.507 Z-4.000 F1000.000 
G3 X70.953 Y220.991 Z-4.000 I5.060 J5.884 F1000.000 
G1 X81.007 Y231.045 Z-4.000 F1000.000 
G2 X81.235 Y227.031 Z-4.000 I-7.411 J-2.434 F1000.000 
G1 X74.967 Y220.762 Z-4.000 F1000.000 
G3 X81.235 Y227.031 Z-4.000 I-1.546 J7.815 F1000.000 
G0 Z5.000 
G0 X94.465 Y231.775 Z5.000 
G0 X94.465 Y231.775 Z3.000 
G1 X94.465 Y231.775 Z-4.000 F500.000 
G1 X98.622 Y235.932 Z-4.000 F1000.000 
G3 X94.465 Y231.775 Z-4.000 I3.123 J-7.281 F1000.000 
G3 X93.964 Y227.032 Z-4.000 I7.218 J-3.159 F1000.000 
G1 X103.370 Y236.437 Z-4.000 F1000.000 
G2 X106.346 Y235.171 Z-4.000 I-1.478 J-7.605 F1000.000 
G1 X95.226 Y224.051 Z-4.000 F1000.000 
G3 X97.369 Y221.951 Z-4.000 I6.377 J4.363 F1000.000 
G1 X108.453 Y233.035 Z-4.000 F1000.000 
G2 X109.670 Y230.009 Z-4.000 I-6.557 J-4.395 F1000.000 
G1 X100.395 Y220.734 Z-4.000 F1000.000 
G3 X105.331 Y221.428 Z-4.000 I1.426 J7.768 F1000.000 
G1 X108.964 Y225.060 Z-4.000 F1000.000 
G2 X105.331 Y221.428 Z-4.000 I-7.101 J3.468 F1000.000 
G0 Z5.000 
G0 X100.467 Y208.078 Z5.000 
G0 X100.467 Y208.078 Z3.000 
G1 X100.467 Y208.078 Z-4.000 F500.000 
G3 X93.914 Y201.526 Z-4.000 I1.314 J-7.866 F1000.000 
G1 X100.467 Y208.078 Z-4.000 F1000.000 
G2 X104.390 Y207.759 Z-4.000 I1.353 J-7.651 F1000.000 
G1 X94.238 Y197.607 Z-4.000 F1000.000 
G3 X95.799 Y194.925 Z-4.000 I7.343 J2.479 F1000.000 
G1 X107.080 Y206.206 Z-4.000 F1000.000 
G2 X108.928 Y203.811 Z-4.000 I-5.147 J-5.881 F1000.000 
G1 X98.184 Y193.068 Z-4.000 F1000.000 
G3 X101.569 Y192.210 Z-4.000 I3.588 J7.052 F1000.000 
G1 X109.788 Y200.429 Z-4.000 F1000.000 
G2 X101.569 Y192.210 Z-4.000 I-7.977 J-0.241 F1000.000 
G0 Z5.000 
G0 X93.806 Y171.719 Z5.000 
G0 X93.806 Y171.719 Z3.000 
G1 X93.806 Y171.719 Z-4.000 F500.000 
G2 X101.877 Y179.790 Z-4.000 I7.980 J0.090 F1000.000 
G1 X93.806 Y171.719 Z-4.000 F1000.000 
G3 X94.621 Y168.291 Z-4.000 I7.797 J0.042 F1000.000 
G1 X105.311 Y178.981 Z-4.000 F1000.000 
G2 X107.729 Y177.157 Z-4.000 I-3.357 J-6.964 F1000.000 
G1 X96.441 Y165.869 Z-4.000 F1000.000 
G3 X99.096 Y164.281 Z-4.000 I5.212 J5.702 F1000.000 
G1 X109.323 Y174.508 Z-4.000 F1000.000 
G2 X109.708 Y170.651 Z-4.000 I-7.404 J-2.687 F1000.000 
G1 X102.948 Y163.890 Z-4.000 F1000.000 
G3 X109.708 Y170.651 Z-4.000 I-1.130 J7.890 F1000.000 
G0 Z5.000 
G0 X123.193 Y175.650 Z5.000 
G0 X123.193 Y175.650 Z3.000 
G1 X123.193 Y175.650 Z-4.000 F500.000 
G1 X126.337 Y178.794 Z-4.000 F1000.000 
G3 X123.193 Y175.650 Z-4.000 I3.777 J-6.921 F1000.000 
G3 X122.308 Y170.523 Z-4.000 I6.962 J-3.841 F1000.000 
G1 X131.474 Y179.688 Z-4.000 F1000.000 
G2 X134.539 Y178.511 Z-4.000 I-1.171 J-7.629 F1000.000 
G1 X123.489 Y167.461 Z-4.000 F1000.000 
G3 X125.562 Y165.291 Z-4.000 I6.516 J4.151 F1000.000 
G1 X136.708 Y176.437 Z-4.000 F1000.000 
G2 X138.008 Y173.495 Z-4.000 I-6.227 J-4.510 F1000.000 
G1 X128.500 Y163.986 Z-4.000 F1000.000 
G3 X133.110 Y164.354 Z-4.000 I1.700 J7.775 F1000.000 
G1 X137.639 Y168.883 Z-4.000 F1000.000 
G2 X133.110 Y164.354 Z-4.000 I-7.400 J2.872 F1000.000 
G0 Z5.000 
G0 X128.439 Y151.198 Z5.000 
G0 X128.439 Y151.198 Z3.000 
G1 X128.439 Y151.198 Z-4.000 F500.000 
G3 X122.407 Y145.166 Z-4.000 I1.741 J-7.773 F1000.000 
G1 X128.439 Y151.198 Z-4.000 F1000.000 
G2 X132.533 Y151.049 Z-4.000 I1.768 J-7.731 F1000.000 
G1 X122.556 Y141.072 Z-4.000 F1000.000 
G3 X124.036 Y138.310 Z-4.000 I7.424 J2.199 F1000.000 
G1 X135.288 Y149.561 Z-4.000 F1000.000 
G2 X137.211 Y147.242 Z-4.000 I-4.893 J-6.015 F1000.000 
G1 X126.361 Y136.392 Z-4.000 F1000.000 
G3 X129.641 Y135.429 Z-4.000 I3.762 J6.741 F1000.000 
G1 X138.173 Y143.962 Z-4.000 F1000.000 
G2 X129.641 Y135.429 Z-4.000 I-7.962 J-0.571 F1000.000 
G0 Z5.000 
G0 X122.214 Y115.275 Z5.000 
G0 X122.214 Y115.275 Z3.000 
G1 X122.214 Y115.275 Z-4.000 F500.000 
G2 X129.930 Y122.990 Z-4.000 I7.975 J-0.260 F1000.000 
G1 X122.214 Y115.275 Z-4.000 F1000.000 
G3 X122.906 Y111.723 Z-4.000 I7.831 J-0.319 F1000.000 
G1 X133.472 Y122.289 Z-4.000 F1000.000 
G2 X135.966 Y120.541 Z-4.000 I-3.092 J-7.064 F1000.000 
G1 X124.664 Y109.239 Z-4.000 F1000.000 
G3 X127.240 Y107.572 Z-4.000 I5.442 J5.586 F1000.000 
G1 X137.623 Y117.956 Z-4.000 F1000.000 
G2 X138.159 Y114.249 Z-4.000 I-7.238 J-2.938 F1000.000 
G1 X130.956 Y107.045 Z-4.000 F1000.000 
G3 X138.159 Y114.249 Z-4.000 I-0.738 J7.941 F1000.000 
G0 Z5.000 
G0 X152.259 Y119.863 Z5.000 
G0 X152.259 Y119.863 Z3.000 
G1 X152.259 Y119.863 Z-4.000 F500.000 
G1 X153.745 Y121.350 Z-4.000 F1000.000 
G3 X152.259 Y119.863 Z-4.000 I4.445 J-5.932 F1000.000 
G3 X150.669 Y114.031 Z-4.000 I6.257 J-4.839 F1000.000 
G1 X159.574 Y122.936 Z-4.000 F1000.000 
G2 X162.727 Y121.847 Z-4.000 I-0.945 J-7.841 F1000.000 
G1 X151.756 Y110.875 Z-4.000 F1000.000 
G3 X153.761 Y108.638 Z-4.000 I6.599 J3.895 F1000.000 
G1 X164.961 Y119.837 Z-4.000 F1000.000 
G2 X166.347 Y116.981 Z-4.000 I-6.192 J-4.769 F1000.000 
G1 X156.624 Y107.258 Z-4.000 F1000.000 
G3 X160.973 Y107.364 Z-4.000 I1.989 J7.636 F1000.000 
G1 X166.227 Y112.618 Z-4.000 F1000.000 
G2 X160.973 Y107.364 Z-4.000 I-7.605 J2.351 F1000.000 
G0 Z5.000 
G0 X184.770 Y122.676 Z5.000 
G0 X184.770 Y122.676 Z3.000 
G1 X184.770 Y122.676 Z-4.000 F500.000 
G1 X179.328 Y117.233 Z-4.000 F1000.000 
G2 X184.770 Y122.676 Z-4.000 I7.645 J-2.202 F1000.000 
G2 X189.058 Y122.721 Z-4.000 I2.223 J-7.529 F1000.000 
G1 X179.275 Y112.938 Z-4.000 F1000.000 
G3 X180.683 Y110.104 Z-4.000 I7.572 J1.995 F1000.000 
G1 X191.896 Y121.316 Z-4.000 F1000.000 
G2 X193.883 Y119.061 Z-4.000 I-4.655 J-6.103 F1000.000 
G1 X182.939 Y108.117 Z-4.000 F1000.000 
G3 X186.121 Y107.056 Z-4.000 I3.995 J6.682 F1000.000 
G1 X194.943 Y115.878 Z-4.000 F1000.000 
G2 X192.774 Y109.466 Z-4.000 I-7.909 J-0.897 F1000.000 
G0 Z5.000 
G0 X189.373 Y135.764 Z5.000 
G0 X189.373 Y135.764 Z3.000 
G1 X189.373 Y135.764 Z-4.000 F500.000 
G3 X194.627 Y141.018 Z-4.000 I-2.351 J7.605 F1000.000 
G1 X189.373 Y135.764 Z-4.000 F1000.000 
G2 X185.024 Y135.658 Z-4.000 I-2.360 J7.530 F1000.000 
G1 X194.747 Y145.381 Z-4.000 F1000.000 
G3 X193.361 Y148.237 Z-4.000 I-7.578 J-1.913 F1000.000 
G1 X182.161 Y137.038 Z-4.000 F1000.000 
G2 X180.156 Y139.275 Z-4.000 I4.595 J6.133 F1000.000 
G1 X191.127 Y150.247 Z-4.000 F1000.000 
G3 X187.974 Y151.336 Z-4.000 I-4.098 J-6.752 F1000.000 
G1 X179.069 Y142.431 Z-4.000 F1000.000 
G2 X180.659 Y148.263 Z-4.000 I7.847 J0.994 F1000.000 
G2 X182.145 Y149.750 Z-4.000 I5.932 J-4.445 F1000.000 
G1 X180.659 Y148.263 Z-4.000 F1000.000 
G0 Z5.000 
G0 X166.559 Y142.649 Z5.000 
G0 X166.559 Y142.649 Z3.000 
G1 X166.559 Y142.649 Z-4.000 F500.000 
G2 X159.356 Y135.445 Z-4.000 I-7.941 J0.738 F1000.000 
G1 X166.559 Y142.649 Z-4.000 F1000.000 
G3 X166.023 Y146.356 Z-4.000 I-7.774 J0.769 F1000.000 
G1 X155.640 Y135.972 Z-4.000 F1000.000 
