(Exported by FreeCAD)
(Post Processor: linuxcnc_post)
(Output Time:2026-04-29 14:38:35.625497)
(begin preamble)
G17 G54 G40 G49 G80 G90
G21
(begin operation: TC: 6mm Schaftfräser)
(machine units: mm/min)
(TC: 6mm Schaftfräser) 
M5
M6 T3 
G43 H3 
(finish operation: TC: 6mm Schaftfräser)
(begin operation: Fixture)
(machine units: mm/min)
G54 
(finish operation: Fixture)
(begin operation: Adaptive)
(machine units: mm/min)
(Adaptive) 
(Helix to depth: -3.000000) 
G0 Z5.000 
G0 X184.483 Y159.493 Z5.000 
G0 X184.483 Y159.493 Z3.000 
G1 X184.483 Y159.493 Z0.000 
G1 X184.483 Y159.493 Z0.000 
G1 X184.113 Y159.257 Z-0.039 
G1 X183.795 Y158.954 Z-0.077 
G1 X183.543 Y158.595 Z-0.116 
G1 X183.366 Y158.193 Z-0.155 
G1 X183.270 Y157.764 Z-0.193 
G1 X183.260 Y157.325 Z-0.232 
G1 X183.336 Y156.893 Z-0.271 
G1 X183.495 Y156.483 Z-0.309 
G1 X183.730 Y156.113 Z-0.348 
G1 X184.033 Y155.795 Z-0.387 
G1 X184.393 Y155.543 Z-0.425 
G1 X184.794 Y155.366 Z-0.464 
G1 X185.223 Y155.270 Z-0.502 
G1 X185.662 Y155.260 Z-0.541 
G1 X186.095 Y155.336 Z-0.580 
G1 X186.504 Y155.495 Z-0.618 
G1 X186.875 Y155.730 Z-0.657 
G1 X187.192 Y156.033 Z-0.696 
G1 X187.444 Y156.393 Z-0.734 
G1 X187.622 Y156.794 Z-0.773 
G1 X187.717 Y157.223 Z-0.812 
G1 X187.727 Y157.662 Z-0.850 
G1 X187.652 Y158.095 Z-0.889 
G1 X187.493 Y158.504 Z-0.928 
G1 X187.257 Y158.875 Z-0.966 
G1 X186.954 Y159.192 Z-1.005 
G1 X186.595 Y159.444 Z-1.044 
G1 X186.193 Y159.622 Z-1.082 
G1 X185.764 Y159.717 Z-1.121 
G1 X185.325 Y159.727 Z-1.160 
G1 X184.893 Y159.652 Z-1.198 
G1 X184.483 Y159.493 Z-1.237 
G1 X184.113 Y159.257 Z-1.275 
G1 X183.795 Y158.954 Z-1.314 
G1 X183.543 Y158.595 Z-1.353 
G1 X183.366 Y158.193 Z-1.391 
G1 X183.270 Y157.764 Z-1.430 
G1 X183.260 Y157.325 Z-1.469 
G1 X183.336 Y156.893 Z-1.507 
G1 X183.495 Y156.483 Z-1.546 
G1 X183.730 Y156.113 Z-1.585 
G1 X184.033 Y155.795 Z-1.623 
G1 X184.393 Y155.543 Z-1.662 
G1 X184.794 Y155.366 Z-1.701 
G1 X185.223 Y155.270 Z-1.739 
G1 X185.662 Y155.260 Z-1.778 
G1 X186.095 Y155.336 Z-1.817 
G1 X186.504 Y155.495 Z-1.855 
G1 X186.875 Y155.730 Z-1.894 
G1 X187.192 Y156.033 Z-1.933 
G1 X187.444 Y156.393 Z-1.971 
G1 X187.622 Y156.794 Z-2.010 
G1 X187.717 Y157.223 Z-2.049 
G1 X187.727 Y157.662 Z-2.087 
G1 X187.652 Y158.095 Z-2.126 
G1 X187.493 Y158.504 Z-2.164 
G1 X187.257 Y158.875 Z-2.203 
G1 X186.954 Y159.192 Z-2.242 
G1 X186.595 Y159.444 Z-2.280 
G1 X186.193 Y159.622 Z-2.319 
G1 X185.764 Y159.717 Z-2.358 
G1 X185.325 Y159.727 Z-2.396 
G1 X184.893 Y159.652 Z-2.435 
G1 X184.483 Y159.493 Z-2.474 
G1 X184.113 Y159.257 Z-2.512 
G1 X183.795 Y158.954 Z-2.551 
G1 X183.543 Y158.595 Z-2.590 
G1 X183.366 Y158.193 Z-2.628 
G1 X183.270 Y157.764 Z-2.667 
G1 X183.260 Y157.325 Z-2.706 
G1 X183.336 Y156.893 Z-2.744 
G1 X183.495 Y156.483 Z-2.783 
G1 X183.730 Y156.113 Z-2.822 
G1 X184.033 Y155.795 Z-2.860 
G1 X184.393 Y155.543 Z-2.899 
G1 X184.794 Y155.366 Z-2.937 
G1 X185.223 Y155.270 Z-2.976 
G1 X185.494 Y155.254 Z-3.000 
G1 X185.931 Y155.297 Z-3.000 
G1 X186.351 Y155.424 Z-3.000 
G1 X186.738 Y155.631 Z-3.000 
G1 X187.078 Y155.910 Z-3.000 
G1 X187.356 Y156.249 Z-3.000 
G1 X187.563 Y156.637 Z-3.000 
G1 X187.691 Y157.057 Z-3.000 
G1 X187.734 Y157.494 Z-3.000 
G1 X187.691 Y157.931 Z-3.000 
G1 X187.563 Y158.351 Z-3.000 
G1 X187.356 Y158.738 Z-3.000 
G1 X187.078 Y159.078 Z-3.000 
G1 X186.738 Y159.356 Z-3.000 
G1 X186.351 Y159.563 Z-3.000 
G1 X185.931 Y159.691 Z-3.000 
G1 X185.494 Y159.734 Z-3.000 
G1 X185.057 Y159.691 Z-3.000 
G1 X184.637 Y159.563 Z-3.000 
G1 X184.249 Y159.356 Z-3.000 
G1 X183.910 Y159.078 Z-3.000 
G1 X183.631 Y158.738 Z-3.000 
G1 X183.424 Y158.351 Z-3.000 
G1 X183.297 Y157.931 Z-3.000 
G1 X183.254 Y157.494 Z-3.000 
G1 X183.297 Y157.057 Z-3.000 
G1 X183.424 Y156.637 Z-3.000 
G1 X183.631 Y156.249 Z-3.000 
G1 X183.910 Y155.910 Z-3.000 
G1 X184.249 Y155.631 Z-3.000 
G1 X184.637 Y155.424 Z-3.000 
G1 X185.057 Y155.297 Z-3.000 
G1 X185.494 Y155.254 Z-3.000 
(Adaptive - depth: -3.000000) 
G1 X185.494 Y155.244 
G1 X185.562 Y155.169 
G1 X185.838 Y155.050 
G1 X186.119 Y155.006 
G1 X186.306 Y155.012 
G1 X186.956 Y155.200 
G1 X187.287 Y155.406 
G1 X187.475 Y155.556 
G1 X187.662 Y155.750 
G1 X187.863 Y156.012 
G1 X188.069 Y156.369 
G1 X188.206 Y156.738 
G1 X188.287 Y157.069 
G1 X188.331 Y157.444 
G1 X188.319 Y157.812 
G1 X188.250 Y158.175 
G1 X188.144 Y158.500 
G1 X187.988 Y158.825 
G1 X187.800 Y159.125 
G1 X187.544 Y159.438 
G1 X187.244 Y159.719 
G1 X186.919 Y159.938 
G1 X186.606 Y160.088 
G1 X186.300 Y160.200 
G1 X185.912 Y160.287 
G1 X185.494 Y160.319 
G1 X185.119 Y160.294 
G1 X184.769 Y160.231 
G1 X184.406 Y160.106 
G1 X184.069 Y159.950 
G1 X183.725 Y159.725 
G1 X183.438 Y159.469 
G1 X183.213 Y159.213 
G1 X183.006 Y158.900 
G1 X182.850 Y158.569 
G1 X182.738 Y158.225 
G1 X182.662 Y157.869 
G1 X182.631 Y157.463 
G1 X182.656 Y157.044 
G1 X182.744 Y156.656 
G1 X182.863 Y156.344 
G1 X183.012 Y156.044 
G1 X183.225 Y155.725 
G1 X183.500 Y155.419 
G1 X183.781 Y155.175 
G1 X184.094 Y154.950 
G1 X184.488 Y154.719 
G1 X184.975 Y154.512 
G1 X185.406 Y154.400 
G1 X185.762 Y154.356 
G1 X186.106 Y154.350 
G1 X186.525 Y154.406 
G1 X186.881 Y154.506 
G1 X187.231 Y154.650 
G1 X187.569 Y154.844 
G1 X187.869 Y155.075 
G1 X188.144 Y155.344 
G1 X188.381 Y155.644 
G1 X188.581 Y155.969 
G1 X188.750 Y156.356 
G1 X188.875 Y156.731 
G1 X188.956 Y157.156 
G1 X188.981 Y157.569 
G1 X188.944 Y157.981 
G1 X188.875 Y158.319 
G1 X188.756 Y158.694 
G1 X188.575 Y159.094 
G1 X188.344 Y159.475 
G1 X188.088 Y159.812 
G1 X187.775 Y160.119 
G1 X187.475 Y160.356 
G1 X187.119 Y160.569 
G1 X186.738 Y160.738 
G1 X186.356 Y160.856 
G1 X185.956 Y160.938 
G1 X185.500 Y160.969 
G1 X185.081 Y160.950 
G1 X184.662 Y160.869 
G1 X184.300 Y160.769 
G1 X183.875 Y160.588 
G1 X183.506 Y160.375 
G1 X183.169 Y160.131 
G1 X182.863 Y159.825 
G1 X182.631 Y159.537 
G1 X182.419 Y159.194 
G1 X182.244 Y158.838 
G1 X182.094 Y158.394 
G1 X182.006 Y157.981 
G1 X181.963 Y157.556 
G1 X181.969 Y157.125 
G1 X182.025 Y156.700 
G1 X182.144 Y156.287 
G1 X182.281 Y155.950 
G1 X182.469 Y155.594 
G1 X182.713 Y155.231 
G1 X183.025 Y154.875 
G1 X183.344 Y154.575 
G1 X183.706 Y154.306 
G1 X184.094 Y154.069 
G1 X184.544 Y153.863 
G1 X184.988 Y153.725 
G1 X185.381 Y153.644 
G1 X185.831 Y153.606 
G1 X186.269 Y153.637 
G1 X186.644 Y153.700 
G1 X187.050 Y153.819 
G1 X187.431 Y153.969 
G1 X187.869 Y154.213 
G1 X188.231 Y154.463 
G1 X188.556 Y154.762 
G1 X188.819 Y155.062 
G1 X189.062 Y155.412 
G1 X189.269 Y155.781 
G1 X189.450 Y156.231 
G1 X189.569 Y156.656 
G1 X189.644 Y157.094 
G1 X189.669 Y157.550 
G1 X189.644 Y157.994 
G1 X189.569 Y158.444 
G1 X189.450 Y158.881 
G1 X189.281 Y159.306 
G1 X189.069 Y159.706 
G1 X188.812 Y160.081 
G1 X188.519 Y160.425 
G1 X188.175 Y160.725 
G1 X187.863 Y160.944 
G1 X187.494 Y161.162 
G1 X187.031 Y161.375 
G1 X186.537 Y161.544 
G1 X186.062 Y161.631 
G1 X185.669 Y161.669 
G1 X185.213 Y161.669 
G1 X184.725 Y161.606 
G1 X184.287 Y161.506 
G1 X183.844 Y161.363 
G1 X183.363 Y161.144 
G1 X182.963 Y160.881 
G1 X182.669 Y160.637 
G1 X182.387 Y160.356 
G1 X182.081 Y159.994 
G1 X181.794 Y159.544 
G1 X181.581 Y159.137 
G1 X181.400 Y158.688 
G1 X181.281 Y158.213 
G1 X181.219 Y157.806 
G1 X181.200 Y157.350 
G1 X181.238 Y156.900 
G1 X181.319 Y156.469 
G1 X181.438 Y156.037 
G1 X181.637 Y155.556 
G1 X181.856 Y155.144 
G1 X182.119 Y154.750 
G1 X182.431 Y154.375 
G1 X182.769 Y154.044 
G1 X183.144 Y153.744 
G1 X183.544 Y153.475 
G1 X184.031 Y153.225 
G1 X184.494 Y153.037 
G1 X184.981 Y152.919 
G1 X185.369 Y152.863 
G1 X185.825 Y152.838 
G1 X186.331 Y152.875 
G1 X186.769 Y152.950 
G1 X187.225 Y153.075 
G1 X187.662 Y153.244 
G1 X188.119 Y153.475 
G1 X188.525 Y153.738 
G1 X188.906 Y154.044 
G1 X189.250 Y154.400 
G1 X189.506 Y154.725 
G1 X189.762 Y155.113 
G1 X190.000 Y155.562 
G1 X190.188 Y156.044 
G1 X190.325 Y156.519 
G1 X190.394 Y157.019 
G1 X190.425 Y157.425 
G1 X190.412 Y157.938 
G1 X190.338 Y158.469 
G1 X190.231 Y158.938 
G1 X190.069 Y159.419 
G1 X189.856 Y159.881 
G1 X189.581 Y160.300 
G1 X189.338 Y160.613 
G1 X189.019 Y160.950 
G1 X188.644 Y161.287 
G1 X188.181 Y161.619 
G1 X187.744 Y161.875 
G1 X187.269 Y162.100 
G1 X186.756 Y162.256 
G1 X186.350 Y162.344 
G1 X185.869 Y162.406 
G1 X185.338 Y162.425 
G1 X184.787 Y162.394 
G1 X184.275 Y162.300 
G1 X183.831 Y162.181 
G1 X183.356 Y161.994 
G1 X182.912 Y161.762 
G1 X182.506 Y161.500 
G1 X182.119 Y161.188 
G1 X181.769 Y160.844 
G1 X181.450 Y160.469 
G1 X181.175 Y160.062 
G1 X180.944 Y159.631 
G1 X180.744 Y159.181 
G1 X180.575 Y158.650 
G1 X180.469 Y158.150 
G1 X180.419 Y157.631 
G1 X180.412 Y157.175 
G1 X180.463 Y156.681 
G1 X180.562 Y156.200 
G1 X180.694 Y155.738 
G1 X180.900 Y155.231 
G1 X181.131 Y154.787 
G1 X181.406 Y154.363 
G1 X181.725 Y153.950 
G1 X182.119 Y153.537 
G1 X182.519 Y153.188 
G1 X182.950 Y152.869 
G1 X183.419 Y152.594 
G1 X183.912 Y152.381 
G1 X184.350 Y152.231 
G1 X184.844 Y152.113 
G1 X185.338 Y152.050 
G1 X185.819 Y152.025 
G1 X186.375 Y152.056 
G1 X186.875 Y152.137 
G1 X187.375 Y152.262 
G1 X187.869 Y152.444 
G1 X188.338 Y152.662 
G1 X188.787 Y152.925 
G1 X189.206 Y153.231 
G1 X189.594 Y153.575 
G1 X189.950 Y153.956 
G1 X190.269 Y154.369 
G1 X190.544 Y154.812 
G1 X190.775 Y155.281 
G1 X190.963 Y155.769 
G1 X191.106 Y156.269 
G1 X191.200 Y156.781 
G1 X191.244 Y157.300 
G1 X191.238 Y157.819 
G1 X191.181 Y158.338 
G1 X191.075 Y158.850 
G1 X190.931 Y159.350 
G1 X190.713 Y159.900 
G1 X190.450 Y160.375 
G1 X190.200 Y160.756 
G1 X189.881 Y161.169 
G1 X189.475 Y161.588 
G1 X189.081 Y161.931 
G1 X188.644 Y162.250 
G1 X188.175 Y162.525 
G1 X187.694 Y162.750 
G1 X187.188 Y162.931 
G1 X186.662 Y163.069 
G1 X186.131 Y163.156 
G1 X185.594 Y163.206 
G1 X184.988 Y163.200 
G1 X184.431 Y163.150 
G1 X183.881 Y163.019 
G1 X183.463 Y162.887 
G1 X182.981 Y162.700 
G1 X182.463 Y162.431 
G1 X181.975 Y162.125 
G1 X181.550 Y161.762 
G1 X181.256 Y161.469 
G1 X180.925 Y161.094 
G1 X180.562 Y160.600 
G1 X180.244 Y160.069 
G1 X180.006 Y159.544 
G1 X179.844 Y159.100 
G1 X179.706 Y158.569 
G1 X179.625 Y158.044 
G1 X179.594 Y157.531 
G1 X179.600 Y157.006 
G1 X179.669 Y156.412 
G1 X179.775 Y155.875 
G1 X179.931 Y155.344 
G1 X180.144 Y154.819 
G1 X180.394 Y154.325 
G1 X180.688 Y153.850 
G1 X181.025 Y153.406 
G1 X181.400 Y152.994 
G1 X181.806 Y152.619 
G1 X182.250 Y152.281 
G1 X182.719 Y151.981 
G1 X183.213 Y151.725 
G1 X183.725 Y151.519 
G1 X184.256 Y151.356 
G1 X184.800 Y151.244 
G1 X185.350 Y151.181 
G1 X185.900 Y151.169 
G1 X186.450 Y151.206 
G1 X186.994 Y151.294 
G1 X187.531 Y151.425 
G1 X188.050 Y151.606 
G1 X188.556 Y151.825 
G1 X189.100 Y152.125 
G1 X189.575 Y152.438 
G1 X190.012 Y152.812 
G1 X190.350 Y153.150 
G1 X190.706 Y153.556 
G1 X191.062 Y154.050 
G1 X191.381 Y154.581 
G1 X191.619 Y155.119 
G1 X191.781 Y155.562 
G1 X191.919 Y156.100 
G1 X192.012 Y156.625 
G1 X192.062 Y157.225 
G1 X192.056 Y157.781 
G1 X192.006 Y158.344 
G1 X191.906 Y158.906 
G1 X191.756 Y159.450 
G1 X191.562 Y159.981 
G1 X191.319 Y160.500 
G1 X191.031 Y160.988 
G1 X190.700 Y161.456 
G1 X190.331 Y161.894 
G1 X189.925 Y162.300 
G1 X189.481 Y162.669 
G1 X189.006 Y163.000 
G1 X188.506 Y163.287 
G1 X187.981 Y163.531 
G1 X187.438 Y163.725 
G1 X186.881 Y163.875 
G1 X186.312 Y163.975 
G1 X185.738 Y164.025 
G1 X185.162 Y164.025 
G1 X184.588 Y163.988 
G1 X183.944 Y163.887 
G1 X183.369 Y163.725 
G1 X182.900 Y163.562 
G1 X182.375 Y163.331 
G1 X181.825 Y163.019 
G1 X181.363 Y162.706 
G1 X180.912 Y162.319 
G1 X180.575 Y161.975 
G1 X180.219 Y161.569 
G1 X179.838 Y161.050 
G1 X179.488 Y160.475 
G1 X179.238 Y159.919 
G1 X179.069 Y159.475 
G1 X178.919 Y158.919 
G1 X178.819 Y158.387 
G1 X178.744 Y157.750 
G1 X178.725 Y157.094 
G1 X178.775 Y156.488 
G1 X178.850 Y155.994 
G1 X178.994 Y155.431 
G1 X179.162 Y154.900 
G1 X179.425 Y154.281 
G1 X179.700 Y153.756 
G1 X180.019 Y153.250 
G1 X180.394 Y152.756 
G1 X180.800 Y152.306 
G1 X181.256 Y151.894 
G1 X181.669 Y151.569 
G1 X182.156 Y151.256 
G1 X182.662 Y150.994 
G1 X183.169 Y150.769 
G1 X183.787 Y150.562 
G1 X184.363 Y150.419 
G1 X184.950 Y150.319 
G1 X185.556 Y150.275 
G1 X186.150 Y150.275 
G1 X186.750 Y150.325 
G1 X187.344 Y150.425 
G1 X187.919 Y150.594 
G1 X188.387 Y150.756 
G1 X188.969 Y151.025 
G1 X189.469 Y151.300 
G1 X190.000 Y151.656 
G1 X190.481 Y152.037 
G1 X190.925 Y152.450 
G1 X191.344 Y152.912 
G1 X191.719 Y153.400 
G1 X192.037 Y153.925 
G1 X192.269 Y154.381 
G1 X192.481 Y154.919 
G1 X192.656 Y155.456 
G1 X192.806 Y156.113 
G1 X192.894 Y156.706 
G1 X192.938 Y157.312 
G1 X192.925 Y157.938 
G1 X192.869 Y158.544 
G1 X192.744 Y159.144 
G1 X192.600 Y159.631 
G1 X192.412 Y160.181 
G1 X192.106 Y160.825 
G1 X191.819 Y161.344 
G1 X191.475 Y161.863 
G1 X191.075 Y162.363 
G1 X190.656 Y162.812 
G1 X190.181 Y163.219 
G1 X189.775 Y163.512 
G1 X189.287 Y163.825 
G1 X188.706 Y164.137 
G1 X188.075 Y164.412 
G1 X187.475 Y164.625 
G1 X186.825 Y164.775 
G1 X186.306 Y164.856 
G1 X185.706 Y164.900 
G1 X185.119 Y164.900 
G1 X184.456 Y164.844 
G1 X183.844 Y164.744 
G1 X183.231 Y164.594 
G1 X182.625 Y164.394 
G1 X182.044 Y164.150 
G1 X181.500 Y163.838 
G1 X181.094 Y163.569 
G1 X180.637 Y163.225 
G1 X180.119 Y162.762 
G1 X179.637 Y162.256 
G1 X179.238 Y161.744 
G1 X178.931 Y161.287 
G1 X178.625 Y160.744 
G1 X178.375 Y160.194 
G1 X178.175 Y159.637 
G1 X178.019 Y159.056 
G1 X177.912 Y158.469 
G1 X177.844 Y157.875 
G1 X177.825 Y157.194 
G1 X177.856 Y156.569 
G1 X177.938 Y155.938 
G1 X178.069 Y155.306 
G1 X178.244 Y154.700 
G1 X178.469 Y154.100 
G1 X178.744 Y153.519 
G1 X179.062 Y152.963 
G1 X179.444 Y152.450 
G1 X179.756 Y152.062 
G1 X180.219 Y151.575 
G1 X180.731 Y151.131 
G1 X181.206 Y150.769 
G1 X181.750 Y150.425 
G1 X182.312 Y150.125 
G1 X182.887 Y149.875 
G1 X183.488 Y149.669 
G1 X184.100 Y149.512 
G1 X184.719 Y149.400 
G1 X185.350 Y149.338 
G1 X185.981 Y149.325 
G1 X186.613 Y149.363 
G1 X187.238 Y149.450 
G1 X187.856 Y149.588 
G1 X188.463 Y149.775 
G1 X189.050 Y150.006 
G1 X189.619 Y150.287 
G1 X190.162 Y150.613 
G1 X190.681 Y150.975 
G1 X191.169 Y151.381 
G1 X191.625 Y151.825 
G1 X192.044 Y152.300 
G1 X192.425 Y152.806 
G1 X192.762 Y153.344 
G1 X193.056 Y153.906 
G1 X193.306 Y154.488 
G1 X193.506 Y155.088 
G1 X193.662 Y155.700 
G1 X193.769 Y156.325 
G1 X193.825 Y156.956 
G1 X193.831 Y157.588 
G1 X193.787 Y158.219 
G1 X193.706 Y158.850 
G1 X193.556 Y159.556 
G1 X193.369 Y160.188 
G1 X193.113 Y160.806 
G1 X192.875 Y161.281 
G1 X192.569 Y161.819 
G1 X192.175 Y162.406 
G1 X191.713 Y162.988 
G1 X191.219 Y163.469 
G1 X190.856 Y163.787 
G1 X190.375 Y164.162 
G1 X189.750 Y164.581 
G1 X189.094 Y164.950 
G1 X188.444 Y165.219 
G1 X187.963 Y165.387 
G1 X187.350 Y165.562 
G1 X186.650 Y165.688 
G1 X186.044 Y165.756 
G1 X185.400 Y165.781 
G1 X184.750 Y165.750 
G1 X184.119 Y165.675 
G1 X183.481 Y165.569 
G1 X182.750 Y165.381 
G1 X182.094 Y165.125 
G1 X181.613 Y164.912 
G1 X181.031 Y164.588 
G1 X180.519 Y164.244 
G1 X180.037 Y163.887 
G1 X179.488 Y163.387 
G1 X179.037 Y162.919 
G1 X178.619 Y162.419 
G1 X178.225 Y161.863 
G1 X177.887 Y161.294 
G1 X177.588 Y160.700 
G1 X177.363 Y160.075 
G1 X177.219 Y159.588 
G1 X177.081 Y159.000 
G1 X176.969 Y158.262 
G1 X176.906 Y157.512 
G1 X176.894 Y156.825 
G1 X176.969 Y156.100 
G1 X177.050 Y155.581 
G1 X177.188 Y154.963 
G1 X177.394 Y154.269 
G1 X177.662 Y153.569 
G1 X177.981 Y152.944 
G1 X178.256 Y152.469 
G1 X178.631 Y151.931 
G1 X179.037 Y151.450 
G1 X179.456 Y151.012 
G1 X179.912 Y150.581 
G1 X180.506 Y150.119 
G1 X181.062 Y149.738 
G1 X181.662 Y149.381 
G1 X182.312 Y149.062 
G1 X183.812 Y148.569 
G1 X184.938 Y148.369 
G1 X186.250 Y148.319 
G1 X187.750 Y148.506 
G1 X188.956 Y148.875 
G1 X189.637 Y149.188 
G1 X190.294 Y149.544 
G1 X190.919 Y149.950 
G1 X191.450 Y150.369 
G1 X191.887 Y150.762 
G1 X192.381 Y151.256 
G1 X192.856 Y151.831 
G1 X193.262 Y152.381 
G1 X193.625 Y153.000 
G1 X193.881 Y153.512 
G1 X194.131 Y154.119 
G1 X194.412 Y155.006 
G1 X194.650 Y156.319 
G1 X194.656 Y158.194 
G1 X194.494 Y159.225 
G1 X194.113 Y160.444 
G1 X193.869 Y161.150 
G1 X193.562 Y161.831 
G1 X193.194 Y162.481 
G1 X192.819 Y163.019 
G1 X192.469 Y163.438 
G1 X192.094 Y163.850 
G1 X191.556 Y164.369 
G1 X190.975 Y164.844 
G1 X190.412 Y165.250 
G1 X189.756 Y165.613 
G1 X189.281 Y165.838 
G1 X188.688 Y166.088 
G1 X187.975 Y166.325 
G1 X186.275 Y166.613 
G1 X184.375 Y166.606 
G1 X183.375 Y166.456 
G1 X182.275 Y166.131 
G1 X181.569 Y165.869 
G1 X180.887 Y165.544 
G1 X180.238 Y165.162 
G1 X179.713 Y164.781 
G1 X179.306 Y164.450 
G1 X178.819 Y164.012 
G1 X178.294 Y163.469 
G1 X177.806 Y162.894 
G1 X177.387 Y162.262 
G1 X177.106 Y161.800 
G1 X176.494 Y160.400 
G1 X176.169 Y159.300 
G1 X176.062 Y158.600 
G1 X176.094 Y155.200 
G1 X176.181 Y154.600 
G1 X176.644 Y153.256 
G1 X176.863 Y152.787 
G1 X177.256 Y152.144 
G1 X177.688 Y151.531 
G1 X178.156 Y150.944 
G1 X178.669 Y150.394 
G1 X179.194 Y149.881 
G1 X179.769 Y149.400 
G1 X180.387 Y148.981 
G1 X181.838 Y148.150 
G1 X182.119 Y148.062 
G1 X189.056 Y148.088 
G1 X189.713 Y148.213 
G1 X190.994 Y148.831 
G1 X191.681 Y149.312 
G1 X192.262 Y149.781 
G1 X192.806 Y150.294 
G1 X193.287 Y150.831 
G1 X193.688 Y151.338 
G1 X194.094 Y151.931 
G1 X194.831 Y153.412 
G1 X194.938 Y153.881 
G1 X194.906 Y159.975 
G1 X194.806 Y160.725 
G1 X194.406 Y161.831 
G1 X193.750 Y163.106 
G1 X193.331 Y163.731 
G1 X192.863 Y164.312 
G1 X192.456 Y164.750 
G1 X192.012 Y165.162 
G1 X191.500 Y165.581 
G1 X190.900 Y165.994 
G1 X190.231 Y166.375 
G1 X189.206 Y166.812 
G1 X188.706 Y166.931 
G1 X182.606 Y166.906 
G1 X182.006 Y166.819 
G1 X180.725 Y166.369 
G1 X180.162 Y166.094 
G1 X179.506 Y165.725 
G1 X178.887 Y165.287 
G1 X178.306 Y164.806 
G1 X177.850 Y164.369 
G1 X177.431 Y163.906 
G1 X177.012 Y163.381 
G1 X176.537 Y162.669 
G1 X176.144 Y161.931 
G1 X176.062 Y161.631 
G1 X176.062 Y160.431 
G1 X176.062 Y160.431 
G1 X176.062 Y160.300 
G1 X176.088 Y160.175 
G1 X176.144 Y160.056 
G1 X176.219 Y159.956 
G0 Z5.000 
G0 X176.219 Y159.956 
G0 X176.231 Y155.369 
G1 Z-3.000 
G1 X176.231 Y155.369 
G1 X176.156 Y155.275 
G1 X176.100 Y155.169 
G1 X176.062 Y155.050 
G1 X176.056 Y154.925 
G1 X176.056 Y154.925 
G1 X176.088 Y152.925 
G1 X176.175 Y152.425 
G1 X176.794 Y151.156 
G1 X176.906 Y150.981 
G1 X177.350 Y150.375 
G1 X177.844 Y149.812 
G1 X178.375 Y149.281 
G1 X179.688 Y148.175 
G1 X179.863 Y148.081 
G1 X179.956 Y148.056 
G1 X179.956 Y148.056 
G1 X180.081 Y148.056 
G1 X180.200 Y148.081 
G1 X180.312 Y148.131 
G1 X180.412 Y148.206 
G0 Z5.000 
G0 X180.412 Y148.206 
G0 X176.231 Y153.088 
G1 Z-3.000 
G1 X176.231 Y153.088 
G1 X176.156 Y152.994 
G1 X176.100 Y152.887 
G1 X176.062 Y152.769 
G1 X176.056 Y152.644 
G1 X176.056 Y152.644 
G1 X176.081 Y151.444 
G1 X176.181 Y150.844 
G1 X176.381 Y150.375 
G1 X176.856 Y149.600 
G1 X177.344 Y149.025 
G1 X178.131 Y148.188 
G1 X178.206 Y148.125 
G1 X178.294 Y148.081 
G1 X178.387 Y148.056 
G1 X178.387 Y148.056 
G1 X178.512 Y148.056 
G1 X178.631 Y148.081 
G1 X178.744 Y148.131 
G1 X178.844 Y148.206 
G0 Z5.000 
G0 X178.844 Y148.206 
G0 X176.231 Y151.531 
G1 Z-3.000 
G1 X176.231 Y151.531 
G1 X176.156 Y151.438 
G1 X176.100 Y151.331 
G1 X176.062 Y151.213 
G1 X176.056 Y151.088 
G1 X176.056 Y151.088 
G1 X176.081 Y149.988 
G1 X176.169 Y149.488 
G1 X176.331 Y149.106 
G1 X176.744 Y148.419 
G1 X176.931 Y148.181 
G1 X177.006 Y148.113 
G1 X177.094 Y148.069 
G1 X177.188 Y148.056 
G1 X177.188 Y148.056 
G1 X177.312 Y148.056 
G1 X177.431 Y148.081 
G1 X177.544 Y148.131 
G1 X177.644 Y148.206 
G0 Z5.000 
G0 X177.644 Y148.206 
G0 X176.231 Y150.088 
G1 Z-3.000 
G1 X176.231 Y150.088 
G1 X176.156 Y149.994 
G1 X176.100 Y149.887 
G1 X176.062 Y149.769 
G1 X176.056 Y149.644 
G1 X176.056 Y149.644 
G1 X176.075 Y148.744 
G1 X176.144 Y148.344 
G1 X176.175 Y148.250 
G1 X176.225 Y148.162 
G1 X176.294 Y148.094 
G1 X176.381 Y148.056 
G1 X176.381 Y148.056 
G1 X176.506 Y148.056 
G1 X176.625 Y148.094 
G1 X176.625 Y148.094 
G1 X176.106 Y148.681 
G1 X176.106 Y148.681 
G1 X176.062 Y148.569 
G1 X176.056 Y148.444 
G1 X176.056 Y148.444 
G1 X176.062 Y148.244 
G1 X176.106 Y148.150 
G1 X176.181 Y148.088 
G1 X176.181 Y148.088 
G1 X176.300 Y148.056 
G1 X176.425 Y148.056 
G1 X176.550 Y148.062 
G1 X176.669 Y148.075 
G0 Z5.000 
G0 X176.669 Y148.075 
G0 X188.844 Y148.213 
G1 Z-3.000 
G1 X188.844 Y148.213 
G1 X188.944 Y148.137 
G1 X189.062 Y148.081 
G1 X189.188 Y148.056 
G1 X189.319 Y148.056 
G1 X189.319 Y148.056 
G1 X190.725 Y148.081 
G1 X191.287 Y148.194 
G1 X192.300 Y148.719 
G1 X192.537 Y148.887 
G1 X193.125 Y149.344 
G1 X193.662 Y149.856 
G1 X194.669 Y151.100 
G1 X194.863 Y151.431 
G1 X194.938 Y151.706 
G1 X194.938 Y153.206 
G1 X194.938 Y153.206 
G1 X194.931 Y153.331 
G1 X194.900 Y153.450 
G1 X194.844 Y153.562 
G1 X194.762 Y153.662 
G0 Z5.000 
G0 X194.762 Y153.662 
G0 X190.525 Y148.213 
G1 Z-3.000 
G1 X190.525 Y148.213 
G1 X190.625 Y148.137 
G1 X190.744 Y148.081 
G1 X190.869 Y148.056 
G1 X191.000 Y148.056 
G1 X191.000 Y148.056 
G1 X192.125 Y148.075 
G1 X192.688 Y148.181 
G1 X193.444 Y148.594 
G1 X193.831 Y148.875 
G1 X194.594 Y149.575 
G1 X194.844 Y149.869 
G1 X194.919 Y150.044 
G1 X194.938 Y150.137 
G1 X194.938 Y150.887 
G1 X194.938 Y150.887 
G1 X194.931 Y151.012 
G1 X194.900 Y151.131 
G1 X194.844 Y151.244 
G1 X194.762 Y151.344 
G0 Z5.000 
G0 X194.762 Y151.344 
G0 X191.969 Y148.213 
G1 Z-3.000 
G1 X191.969 Y148.213 
G1 X192.069 Y148.137 
G1 X192.188 Y148.081 
G1 X192.312 Y148.056 
G1 X192.444 Y148.056 
G1 X192.444 Y148.056 
G1 X193.381 Y148.069 
G1 X193.850 Y148.156 
G1 X194.200 Y148.312 
G1 X194.750 Y148.706 
G1 X194.875 Y148.850 
G1 X194.919 Y148.938 
G1 X194.938 Y149.031 
G1 X194.938 Y149.219 
G1 X194.938 Y149.219 
G1 X194.931 Y149.344 
G1 X194.900 Y149.463 
G1 X194.844 Y149.575 
G1 X194.762 Y149.675 
G0 Z5.000 
G0 X194.762 Y149.675 
G0 X193.287 Y148.213 
G1 Z-3.000 
G1 X193.287 Y148.213 
G1 X193.387 Y148.137 
G1 X193.506 Y148.081 
G1 X193.631 Y148.056 
G1 X193.762 Y148.056 
G1 X193.762 Y148.056 
G1 X194.419 Y148.069 
G1 X194.700 Y148.125 
G1 X194.787 Y148.156 
G1 X194.863 Y148.213 
G1 X194.925 Y148.287 
G1 X194.938 Y148.381 
G1 X194.938 Y148.381 
G1 X194.931 Y148.506 
G1 X194.931 Y148.506 
G1 X194.588 Y148.056 
G1 X194.588 Y148.056 
G1 X194.719 Y148.056 
G1 X194.719 Y148.056 
G1 X194.812 Y148.081 
G1 X194.887 Y148.144 
G1 X194.931 Y148.225 
G1 X194.931 Y148.225 
G1 X194.938 Y148.350 
G1 X194.925 Y148.475 
G1 X194.900 Y148.594 
G1 X194.863 Y148.713 
G0 Z5.000 
G0 X194.863 Y148.713 
G0 X194.762 Y159.931 
G1 Z-3.000 
G1 X194.762 Y159.931 
G1 X194.844 Y160.037 
G1 X194.900 Y160.156 
G1 X194.931 Y160.281 
G1 X194.931 Y160.412 
G1 X194.931 Y160.412 
G1 X194.906 Y161.912 
G1 X194.794 Y162.475 
G1 X194.350 Y163.463 
G1 X193.713 Y164.525 
G1 X193.256 Y165.119 
G1 X192.744 Y165.669 
G1 X192.325 Y166.044 
G1 X191.887 Y166.381 
G1 X191.100 Y166.831 
G1 X190.806 Y166.931 
G1 X189.206 Y166.938 
G1 X189.206 Y166.938 
G1 X189.075 Y166.931 
G1 X188.950 Y166.900 
G1 X188.831 Y166.838 
G1 X188.725 Y166.756 
G0 Z5.000 
G0 X188.725 Y166.756 
G0 X194.762 Y161.731 
G1 Z-3.000 
G1 X194.762 Y161.731 
G1 X194.844 Y161.838 
G1 X194.900 Y161.956 
G1 X194.931 Y162.081 
G1 X194.931 Y162.213 
G1 X194.931 Y162.213 
G1 X194.906 Y163.244 
G1 X194.800 Y163.806 
G1 X194.481 Y164.525 
G1 X194.131 Y165.119 
G1 X193.719 Y165.744 
G1 X193.225 Y166.306 
G1 X192.494 Y166.850 
G1 X192.300 Y166.919 
G1 X192.200 Y166.938 
G1 X191.600 Y166.938 
G1 X191.600 Y166.938 
G1 X191.469 Y166.931 
G1 X191.344 Y166.900 
G1 X191.225 Y166.838 
G1 X191.119 Y166.756 
G0 Z5.000 
G0 X191.119 Y166.756 
G0 X194.762 Y163.050 
G1 Z-3.000 
G1 X194.762 Y163.050 
G1 X194.844 Y163.156 
G1 X194.900 Y163.275 
G1 X194.931 Y163.400 
G1 X194.931 Y163.531 
G1 X194.931 Y163.531 
G1 X194.906 Y164.562 
G1 X194.831 Y164.938 
G1 X194.569 Y165.562 
G1 X194.125 Y166.225 
G1 X193.662 Y166.738 
G1 X193.506 Y166.863 
G1 X193.319 Y166.938 
G1 X193.119 Y166.938 
G1 X193.119 Y166.938 
G1 X192.988 Y166.931 
G1 X192.863 Y166.900 
G1 X192.744 Y166.838 
G1 X192.637 Y166.756 
G0 Z5.000 
G0 X192.637 Y166.756 
G0 X194.762 Y164.375 
G1 Z-3.000 
G1 X194.762 Y164.375 
G1 X194.844 Y164.481 
G1 X194.900 Y164.600 
G1 X194.931 Y164.725 
G1 X194.931 Y164.856 
G1 X194.931 Y164.856 
G1 X194.912 Y165.606 
G1 X194.838 Y165.981 
G1 X194.725 Y166.256 
G1 X194.519 Y166.588 
G1 X194.325 Y166.806 
G1 X194.250 Y166.869 
G1 X194.156 Y166.912 
G1 X194.056 Y166.938 
G1 X194.056 Y166.938 
G1 X193.925 Y166.931 
G1 X193.800 Y166.900 
G1 X193.681 Y166.838 
G1 X193.575 Y166.756 
G0 Z5.000 
G0 X193.575 Y166.756 
G0 X194.762 Y165.331 
G1 Z-3.000 
G1 X194.762 Y165.331 
G1 X194.844 Y165.438 
G1 X194.900 Y165.556 
G1 X194.931 Y165.681 
G1 X194.931 Y165.812 
G1 X194.931 Y165.812 
G1 X194.925 Y166.281 
G1 X194.856 Y166.656 
G1 X194.819 Y166.750 
G1 X194.694 Y166.900 
G1 X194.600 Y166.938 
G1 X194.500 Y166.938 
G1 X194.500 Y166.938 
G1 X194.369 Y166.931 
G1 X194.244 Y166.887 
G1 X194.244 Y166.887 
G1 X194.887 Y166.400 
G1 X194.887 Y166.400 
G1 X194.931 Y166.525 
G1 X194.931 Y166.656 
G1 X194.931 Y166.656 
G1 X194.931 Y166.750 
G1 X194.894 Y166.838 
G1 X194.819 Y166.906 
G1 X194.725 Y166.938 
G1 X194.725 Y166.938 
G1 X194.594 Y166.931 
G1 X194.469 Y166.900 
G1 X194.350 Y166.838 
G1 X194.244 Y166.756 
G0 Z5.000 
G0 X194.244 Y166.756 
G0 X182.738 Y166.769 
G1 Z-3.000 
G1 X182.738 Y166.769 
G1 X182.637 Y166.850 
G1 X182.525 Y166.906 
G1 X182.406 Y166.938 
G1 X182.281 Y166.938 
G1 X182.281 Y166.938 
G1 X180.781 Y166.912 
G1 X180.181 Y166.806 
G1 X179.412 Y166.488 
G1 X178.775 Y166.131 
G1 X178.131 Y165.738 
G1 X177.537 Y165.275 
G1 X177.006 Y164.775 
G1 X176.175 Y163.775 
G1 X176.081 Y163.594 
G1 X176.062 Y163.494 
G1 X176.062 Y163.294 
G1 X176.062 Y163.294 
G1 X176.062 Y163.162 
G1 X176.088 Y163.037 
G1 X176.144 Y162.919 
G1 X176.219 Y162.819 
G0 Z5.000 
G0 X176.219 Y162.819 
G0 X180.938 Y166.769 
G1 Z-3.000 
G1 X180.938 Y166.769 
G1 X180.838 Y166.850 
G1 X180.725 Y166.906 
G1 X180.606 Y166.938 
G1 X180.481 Y166.938 
G1 X180.481 Y166.938 
G1 X179.381 Y166.919 
G1 X178.781 Y166.812 
G1 X177.750 Y166.331 
G1 X177.400 Y166.100 
G1 X176.706 Y165.594 
G1 X176.181 Y165.100 
G1 X176.119 Y165.019 
G1 X176.075 Y164.925 
G1 X176.062 Y164.825 
G1 X176.062 Y164.825 
G1 X176.062 Y164.694 
G1 X176.088 Y164.569 
G1 X176.144 Y164.450 
G1 X176.219 Y164.350 
G0 Z5.000 
G0 X176.219 Y164.350 
G0 X179.500 Y166.769 
G1 Z-3.000 
G1 X179.500 Y166.769 
G1 X179.400 Y166.850 
G1 X179.287 Y166.906 
G1 X179.169 Y166.938 
G1 X179.044 Y166.938 
G1 X179.044 Y166.938 
G1 X178.144 Y166.925 
G1 X177.744 Y166.875 
G1 X177.344 Y166.756 
G1 X176.694 Y166.425 
G1 X176.431 Y166.250 
G1 X176.188 Y166.044 
G1 X176.119 Y165.969 
G1 X176.069 Y165.875 
G1 X176.069 Y165.875 
G1 X176.069 Y165.744 
G1 X176.094 Y165.619 
G1 X176.150 Y165.500 
G1 X176.225 Y165.400 
G0 Z5.000 
G0 X176.225 Y165.400 
G0 X178.175 Y166.769 
G1 Z-3.000 
G1 X178.175 Y166.769 
G1 X178.075 Y166.850 
G1 X177.963 Y166.906 
G1 X177.844 Y166.938 
G1 X177.719 Y166.938 
G1 X177.719 Y166.938 
G1 X176.919 Y166.925 
G1 X176.519 Y166.850 
G1 X176.325 Y166.769 
G1 X176.156 Y166.650 
G1 X176.094 Y166.562 
G1 X176.062 Y166.463 
G1 X176.062 Y166.463 
G1 X176.062 Y166.331 
G1 X176.094 Y166.206 
G1 X176.094 Y166.206 
G1 X176.887 Y166.900 
G1 X176.887 Y166.900 
G1 X176.769 Y166.938 
G1 X176.644 Y166.938 
G1 X176.644 Y166.938 
G1 X176.344 Y166.931 
G1 X176.144 Y166.887 
G1 X176.075 Y166.806 
G1 X176.075 Y166.806 
G1 X176.012 Y166.694 
G1 X176.012 Y166.562 
G1 X176.031 Y166.438 
G1 X176.062 Y166.312 
G0 Z5.000 
G0 X176.062 Y166.312 
G0 X176.012 Y148.344 
G1 Z-3.000 
G1 X176.012 Y148.344 
G1 X176.025 Y148.219 
G1 X176.088 Y148.106 
G1 X176.188 Y148.031 
G1 X176.312 Y148.000 
G1 X176.312 Y148.000 
G1 X194.588 Y148.000 
G1 X194.794 Y148.012 
G1 X194.944 Y148.125 
G1 X194.988 Y148.219 
G1 X195.000 Y148.312 
G1 X194.988 Y166.719 
G1 X194.956 Y166.844 
G1 X194.863 Y166.944 
G1 X194.781 Y166.988 
G1 X194.681 Y167.000 
G1 X176.281 Y166.994 
G1 X176.156 Y166.963 
G1 X176.056 Y166.869 
G1 X176.012 Y166.781 
G1 X176.000 Y166.669 
G1 X176.006 Y148.281 
G1 X176.019 Y148.200 
G1 X176.081 Y148.100 
G1 X176.137 Y148.050 
G1 X176.219 Y148.012 
G1 X176.312 Y148.000 
G1 X176.312 Y148.000 
G0 Z5.000 
(Helix to depth: -3.500000) 
G0 Z5.000 
G0 X184.226 Y159.340 Z5.000 
G0 X184.226 Y159.340 Z3.000 
G1 X184.226 Y159.340 Z-3.000 
G1 X184.226 Y159.340 Z-3.000 
G1 X183.890 Y159.058 Z-3.039 
G1 X183.616 Y158.715 Z-3.077 
G1 X183.414 Y158.325 Z-3.116 
G1 X183.291 Y157.903 Z-3.155 
G1 X183.254 Y157.466 Z-3.193 
G1 X183.302 Y157.029 Z-3.232 
G1 X183.435 Y156.611 Z-3.271 
G1 X183.647 Y156.226 Z-3.309 
G1 X183.930 Y155.890 Z-3.348 
G1 X184.273 Y155.616 Z-3.387 
G1 X184.663 Y155.414 Z-3.425 
G1 X185.084 Y155.291 Z-3.464 
G1 X185.494 Y155.254 Z-3.500 
G1 X185.931 Y155.297 Z-3.500 
G1 X186.351 Y155.424 Z-3.500 
G1 X186.738 Y155.631 Z-3.500 
G1 X187.078 Y155.910 Z-3.500 
G1 X187.356 Y156.249 Z-3.500 
G1 X187.563 Y156.637 Z-3.500 
G1 X187.691 Y157.057 Z-3.500 
G1 X187.734 Y157.494 Z-3.500 
G1 X187.691 Y157.931 Z-3.500 
G1 X187.563 Y158.351 Z-3.500 
G1 X187.356 Y158.738 Z-3.500 
G1 X187.078 Y159.078 Z-3.500 
G1 X186.738 Y159.356 Z-3.500 
G1 X186.351 Y159.563 Z-3.500 
G1 X185.931 Y159.691 Z-3.500 
G1 X185.494 Y159.734 Z-3.500 
G1 X185.057 Y159.691 Z-3.500 
G1 X184.637 Y159.563 Z-3.500 
G1 X184.249 Y159.356 Z-3.500 
G1 X183.910 Y159.078 Z-3.500 
G1 X183.631 Y158.738 Z-3.500 
G1 X183.424 Y158.351 Z-3.500 
G1 X183.297 Y157.931 Z-3.500 
G1 X183.254 Y157.494 Z-3.500 
G1 X183.297 Y157.057 Z-3.500 
G1 X183.424 Y156.637 Z-3.500 
G1 X183.631 Y156.249 Z-3.500 
G1 X183.910 Y155.910 Z-3.500 
G1 X184.249 Y155.631 Z-3.500 
G1 X184.637 Y155.424 Z-3.500 
G1 X185.057 Y155.297 Z-3.500 
(Adaptive - depth: -3.500000) 
G1 X185.494 Y155.244 
G1 X185.562 Y155.169 
G1 X185.838 Y155.050 
G1 X186.119 Y155.006 
G1 X186.306 Y155.012 
G1 X186.956 Y155.200 
G1 X187.287 Y155.406 
G1 X187.475 Y155.556 
G1 X187.662 Y155.750 
G1 X187.863 Y156.012 
G1 X188.069 Y156.369 
G1 X188.206 Y156.738 
G1 X188.287 Y157.069 
G1 X188.331 Y157.444 
G1 X188.319 Y157.812 
G1 X188.250 Y158.175 
G1 X188.144 Y158.500 
G1 X187.988 Y158.825 
G1 X187.800 Y159.125 
G1 X187.544 Y159.438 
G1 X187.244 Y159.719 
G1 X186.919 Y159.938 
G1 X186.606 Y160.088 
G1 X186.300 Y160.200 
G1 X185.912 Y160.287 
G1 X185.494 Y160.319 
G1 X185.119 Y160.294 
G1 X184.769 Y160.231 
G1 X184.406 Y160.106 
G1 X184.069 Y159.950 
G1 X183.725 Y159.725 
G1 X183.438 Y159.469 
G1 X183.213 Y159.213 
G1 X183.006 Y158.900 
G1 X182.850 Y158.569 
G1 X182.738 Y158.225 
G1 X182.662 Y157.869 
G1 X182.631 Y157.463 
G1 X182.656 Y157.044 
G1 X182.744 Y156.656 
G1 X182.863 Y156.344 
G1 X183.012 Y156.044 
G1 X183.225 Y155.725 
G1 X183.500 Y155.419 
G1 X183.781 Y155.175 
G1 X184.094 Y154.950 
G1 X184.488 Y154.719 
G1 X184.975 Y154.512 
G1 X185.406 Y154.400 
G1 X185.762 Y154.356 
G1 X186.106 Y154.350 
G1 X186.525 Y154.406 
G1 X186.881 Y154.506 
G1 X187.231 Y154.650 
G1 X187.569 Y154.844 
G1 X187.869 Y155.075 
G1 X188.144 Y155.344 
G1 X188.381 Y155.644 
G1 X188.581 Y155.969 
G1 X188.750 Y156.356 
G1 X188.875 Y156.731 
G1 X188.956 Y157.156 
G1 X188.981 Y157.569 
G1 X188.944 Y157.981 
G1 X188.875 Y158.319 
G1 X188.756 Y158.694 
G1 X188.575 Y159.094 
G1 X188.344 Y159.475 
G1 X188.088 Y159.812 
G1 X187.775 Y160.119 
G1 X187.475 Y160.356 
G1 X187.119 Y160.569 
G1 X186.738 Y160.738 
G1 X186.356 Y160.856 
G1 X185.956 Y160.938 
G1 X185.500 Y160.969 
G1 X185.081 Y160.950 
G1 X184.662 Y160.869 
G1 X184.300 Y160.769 
G1 X183.875 Y160.588 
G1 X183.506 Y160.375 
G1 X183.169 Y160.131 
G1 X182.863 Y159.825 
G1 X182.631 Y159.537 
G1 X182.419 Y159.194 
G1 X182.244 Y158.838 
G1 X182.094 Y158.394 
G1 X182.006 Y157.981 
G1 X181.963 Y157.556 
G1 X181.969 Y157.125 
G1 X182.025 Y156.700 
G1 X182.144 Y156.287 
G1 X182.281 Y155.950 
G1 X182.469 Y155.594 
G1 X182.713 Y155.231 
G1 X183.025 Y154.875 
G1 X183.344 Y154.575 
G1 X183.706 Y154.306 
G1 X184.094 Y154.069 
G1 X184.544 Y153.863 
G1 X184.988 Y153.725 
G1 X185.381 Y153.644 
G1 X185.831 Y153.606 
G1 X186.269 Y153.637 
G1 X186.644 Y153.700 
G1 X187.050 Y153.819 
G1 X187.431 Y153.969 
G1 X187.869 Y154.213 
G1 X188.231 Y154.463 
G1 X188.556 Y154.762 
G1 X188.819 Y155.062 
G1 X189.062 Y155.412 
G1 X189.269 Y155.781 
G1 X189.450 Y156.231 
G1 X189.569 Y156.656 
G1 X189.644 Y157.094 
G1 X189.669 Y157.550 
G1 X189.644 Y157.994 
G1 X189.569 Y158.444 
G1 X189.450 Y158.881 
G1 X189.281 Y159.306 
G1 X189.069 Y159.706 
G1 X188.812 Y160.081 
G1 X188.519 Y160.425 
G1 X188.175 Y160.725 
G1 X187.863 Y160.944 
G1 X187.494 Y161.162 
G1 X187.031 Y161.375 
G1 X186.537 Y161.544 
G1 X186.062 Y161.631 
G1 X185.669 Y161.669 
G1 X185.213 Y161.669 
G1 X184.725 Y161.606 
G1 X184.287 Y161.506 
G1 X183.844 Y161.363 
G1 X183.363 Y161.144 
G1 X182.963 Y160.881 
G1 X182.669 Y160.637 
G1 X182.387 Y160.356 
G1 X182.081 Y159.994 
G1 X181.794 Y159.544 
G1 X181.581 Y159.137 
G1 X181.400 Y158.688 
G1 X181.281 Y158.213 
G1 X181.219 Y157.806 
G1 X181.200 Y157.350 
G1 X181.238 Y156.900 
G1 X181.319 Y156.469 
G1 X181.438 Y156.037 
G1 X181.637 Y155.556 
G1 X181.856 Y155.144 
G1 X182.119 Y154.750 
G1 X182.431 Y154.375 
G1 X182.769 Y154.044 
G1 X183.144 Y153.744 
G1 X183.544 Y153.475 
G1 X184.031 Y153.225 
G1 X184.494 Y153.037 
G1 X184.981 Y152.919 
G1 X185.369 Y152.863 
G1 X185.825 Y152.838 
G1 X186.331 Y152.875 
G1 X186.769 Y152.950 
G1 X187.225 Y153.075 
G1 X187.662 Y153.244 
G1 X188.119 Y153.475 
G1 X188.525 Y153.738 
G1 X188.906 Y154.044 
G1 X189.250 Y154.400 
G1 X189.506 Y154.725 
G1 X189.762 Y155.113 
G1 X190.000 Y155.562 
G1 X190.188 Y156.044 
G1 X190.325 Y156.519 
G1 X190.394 Y157.019 
G1 X190.425 Y157.425 
G1 X190.412 Y157.938 
G1 X190.338 Y158.469 
G1 X190.231 Y158.938 
G1 X190.069 Y159.419 
G1 X189.856 Y159.881 
G1 X189.581 Y160.300 
G1 X189.338 Y160.613 
G1 X189.019 Y160.950 
G1 X188.644 Y161.287 
G1 X188.181 Y161.619 
G1 X187.744 Y161.875 
G1 X187.269 Y162.100 
G1 X186.756 Y162.256 
G1 X186.350 Y162.344 
G1 X185.869 Y162.406 
G1 X185.338 Y162.425 
G1 X184.787 Y162.394 
G1 X184.275 Y162.300 
G1 X183.831 Y162.181 
G1 X183.356 Y161.994 
G1 X182.912 Y161.762 
G1 X182.506 Y161.500 
G1 X182.119 Y161.188 
G1 X181.769 Y160.844 
G1 X181.450 Y160.469 
G1 X181.175 Y160.062 
G1 X180.944 Y159.631 
G1 X180.744 Y159.181 
G1 X180.575 Y158.650 
G1 X180.469 Y158.150 
G1 X180.419 Y157.631 
G1 X180.412 Y157.175 
G1 X180.463 Y156.681 
G1 X180.562 Y156.200 
G1 X180.694 Y155.738 
G1 X180.900 Y155.231 
G1 X181.131 Y154.787 
G1 X181.406 Y154.363 
G1 X181.725 Y153.950 
G1 X182.119 Y153.537 
G1 X182.519 Y153.188 
G1 X182.950 Y152.869 
G1 X183.419 Y152.594 
G1 X183.912 Y152.381 
G1 X184.350 Y152.231 
G1 X184.844 Y152.113 
G1 X185.338 Y152.050 
G1 X185.819 Y152.025 
G1 X186.375 Y152.056 
G1 X186.875 Y152.137 
G1 X187.375 Y152.262 
G1 X187.869 Y152.444 
G1 X188.338 Y152.662 
G1 X188.787 Y152.925 
G1 X189.206 Y153.231 
G1 X189.594 Y153.575 
G1 X189.950 Y153.956 
G1 X190.269 Y154.369 
G1 X190.544 Y154.812 
G1 X190.775 Y155.281 
G1 X190.963 Y155.769 
G1 X191.106 Y156.269 
G1 X191.200 Y156.781 
G1 X191.244 Y157.300 
G1 X191.238 Y157.819 
G1 X191.181 Y158.338 
G1 X191.075 Y158.850 
G1 X190.931 Y159.350 
G1 X190.713 Y159.900 
G1 X190.450 Y160.375 
G1 X190.200 Y160.756 
G1 X189.881 Y161.169 
G1 X189.475 Y161.588 
G1 X189.081 Y161.931 
G1 X188.644 Y162.250 
G1 X188.175 Y162.525 
G1 X187.694 Y162.750 
G1 X187.188 Y162.931 
G1 X186.662 Y163.069 
G1 X186.131 Y163.156 
G1 X185.594 Y163.206 
G1 X184.988 Y163.200 
G1 X184.431 Y163.150 
G1 X183.881 Y163.019 
G1 X183.463 Y162.887 
G1 X182.981 Y162.700 
G1 X182.463 Y162.431 
G1 X181.975 Y162.125 
G1 X181.550 Y161.762 
G1 X181.256 Y161.469 
G1 X180.925 Y161.094 
G1 X180.562 Y160.600 
G1 X180.244 Y160.069 
G1 X180.006 Y159.544 
G1 X179.844 Y159.100 
G1 X179.706 Y158.569 
G1 X179.625 Y158.044 
G1 X179.594 Y157.531 
G1 X179.600 Y157.006 
G1 X179.669 Y156.412 
G1 X179.775 Y155.875 
G1 X179.931 Y155.344 
G1 X180.144 Y154.819 
G1 X180.394 Y154.325 
G1 X180.688 Y153.850 
G1 X181.025 Y153.406 
G1 X181.400 Y152.994 
G1 X181.806 Y152.619 
G1 X182.250 Y152.281 
G1 X182.719 Y151.981 
G1 X183.213 Y151.725 
G1 X183.725 Y151.519 
G1 X184.256 Y151.356 
G1 X184.800 Y151.244 
G1 X185.350 Y151.181 
G1 X185.900 Y151.169 
G1 X186.450 Y151.206 
G1 X186.994 Y151.294 
G1 X187.531 Y151.425 
G1 X188.050 Y151.606 
G1 X188.556 Y151.825 
G1 X189.100 Y152.125 
G1 X189.575 Y152.438 
G1 X190.012 Y152.812 
G1 X190.350 Y153.150 
G1 X190.706 Y153.556 
G1 X191.062 Y154.050 
G1 X191.381 Y154.581 
G1 X191.619 Y155.119 
G1 X191.781 Y155.562 
G1 X191.919 Y156.100 
G1 X192.012 Y156.625 
G1 X192.062 Y157.225 
G1 X192.056 Y157.781 
G1 X192.006 Y158.344 
G1 X191.906 Y158.906 
G1 X191.756 Y159.450 
G1 X191.562 Y159.981 
G1 X191.319 Y160.500 
G1 X191.031 Y160.988 
G1 X190.700 Y161.456 
G1 X190.331 Y161.894 
G1 X189.925 Y162.300 
G1 X189.481 Y162.669 
G1 X189.006 Y163.000 
G1 X188.506 Y163.287 
G1 X187.981 Y163.531 
G1 X187.438 Y163.725 
G1 X186.881 Y163.875 
G1 X186.312 Y163.975 
G1 X185.738 Y164.025 
G1 X185.162 Y164.025 
G1 X184.588 Y163.988 
G1 X183.944 Y163.887 
G1 X183.369 Y163.725 
G1 X182.900 Y163.562 
G1 X182.375 Y163.331 
G1 X181.825 Y163.019 
G1 X181.363 Y162.706 
G1 X180.912 Y162.319 
G1 X180.575 Y161.975 
G1 X180.219 Y161.569 
G1 X179.838 Y161.050 
G1 X179.488 Y160.475 
G1 X179.238 Y159.919 
G1 X179.069 Y159.475 
G1 X178.919 Y158.919 
G1 X178.819 Y158.387 
G1 X178.744 Y157.750 
G1 X178.725 Y157.094 
G1 X178.775 Y156.488 
G1 X178.850 Y155.994 
G1 X178.994 Y155.431 
G1 X179.162 Y154.900 
G1 X179.425 Y154.281 
G1 X179.700 Y153.756 
G1 X180.019 Y153.250 
G1 X180.394 Y152.756 
G1 X180.800 Y152.306 
G1 X181.256 Y151.894 
G1 X181.669 Y151.569 
G1 X182.156 Y151.256 
G1 X182.662 Y150.994 
G1 X183.169 Y150.769 
G1 X183.787 Y150.562 
G1 X184.363 Y150.419 
G1 X184.950 Y150.319 
G1 X185.556 Y150.275 
G1 X186.150 Y150.275 
G1 X186.750 Y150.325 
G1 X187.344 Y150.425 
G1 X187.919 Y150.594 
G1 X188.387 Y150.756 
G1 X188.969 Y151.025 
G1 X189.469 Y151.300 
G1 X190.000 Y151.656 
G1 X190.481 Y152.037 
G1 X190.925 Y152.450 
G1 X191.344 Y152.912 
G1 X191.719 Y153.400 
G1 X192.037 Y153.925 
G1 X192.269 Y154.381 
G1 X192.481 Y154.919 
G1 X192.656 Y155.456 
G1 X192.806 Y156.113 
G1 X192.894 Y156.706 
G1 X192.938 Y157.312 
G1 X192.925 Y157.938 
G1 X192.869 Y158.544 
G1 X192.744 Y159.144 
G1 X192.600 Y159.631 
G1 X192.412 Y160.181 
G1 X192.106 Y160.825 
G1 X191.819 Y161.344 
G1 X191.475 Y161.863 
G1 X191.075 Y162.363 
G1 X190.656 Y162.812 
G1 X190.181 Y163.219 
G1 X189.775 Y163.512 
G1 X189.287 Y163.825 
G1 X188.706 Y164.137 
G1 X188.075 Y164.412 
G1 X187.475 Y164.625 
G1 X186.825 Y164.775 
G1 X186.306 Y164.856 
G1 X185.706 Y164.900 
G1 X185.119 Y164.900 
G1 X184.456 Y164.844 
G1 X183.844 Y164.744 
G1 X183.231 Y164.594 
G1 X182.625 Y164.394 
G1 X182.044 Y164.150 
G1 X181.500 Y163.838 
G1 X181.094 Y163.569 
G1 X180.637 Y163.225 
G1 X180.119 Y162.762 
G1 X179.637 Y162.256 
G1 X179.238 Y161.744 
G1 X178.931 Y161.287 
G1 X178.625 Y160.744 
G1 X178.375 Y160.194 
G1 X178.175 Y159.637 
G1 X178.019 Y159.056 
G1 X177.912 Y158.469 
G1 X177.844 Y157.875 
G1 X177.825 Y157.194 
G1 X177.856 Y156.569 
G1 X177.938 Y155.938 
G1 X178.069 Y155.306 
G1 X178.244 Y154.700 
G1 X178.469 Y154.100 
G1 X178.744 Y153.519 
G1 X179.062 Y152.963 
G1 X179.444 Y152.450 
G1 X179.756 Y152.062 
G1 X180.219 Y151.575 
G1 X180.731 Y151.131 
G1 X181.206 Y150.769 
G1 X181.750 Y150.425 
G1 X182.312 Y150.125 
G1 X182.887 Y149.875 
G1 X183.488 Y149.669 
G1 X184.100 Y149.512 
G1 X184.719 Y149.400 
G1 X185.350 Y149.338 
G1 X185.981 Y149.325 
G1 X186.613 Y149.363 
G1 X187.238 Y149.450 
G1 X187.856 Y149.588 
G1 X188.463 Y149.775 
G1 X189.050 Y150.006 
G1 X189.619 Y150.287 
G1 X190.162 Y150.613 
G1 X190.681 Y150.975 
G1 X191.169 Y151.381 
G1 X191.625 Y151.825 
G1 X192.044 Y152.300 
G1 X192.425 Y152.806 
G1 X192.762 Y153.344 
G1 X193.056 Y153.906 
G1 X193.306 Y154.488 
G1 X193.506 Y155.088 
G1 X193.662 Y155.700 
G1 X193.769 Y156.325 
G1 X193.825 Y156.956 
G1 X193.831 Y157.588 
G1 X193.787 Y158.219 
G1 X193.706 Y158.850 
G1 X193.556 Y159.556 
G1 X193.369 Y160.188 
G1 X193.113 Y160.806 
G1 X192.875 Y161.281 
G1 X192.569 Y161.819 
G1 X192.175 Y162.406 
G1 X191.713 Y162.988 
G1 X191.219 Y163.469 
G1 X190.856 Y163.787 
G1 X190.375 Y164.162 
G1 X189.750 Y164.581 
G1 X189.094 Y164.950 
G1 X188.444 Y165.219 
G1 X187.963 Y165.387 
G1 X187.350 Y165.562 
G1 X186.650 Y165.688 
G1 X186.044 Y165.756 
G1 X185.400 Y165.781 
G1 X184.750 Y165.750 
G1 X184.119 Y165.675 
G1 X183.481 Y165.569 
G1 X182.750 Y165.381 
G1 X182.094 Y165.125 
G1 X181.613 Y164.912 
G1 X181.031 Y164.588 
G1 X180.519 Y164.244 
G1 X180.037 Y163.887 
G1 X179.488 Y163.387 
G1 X179.037 Y162.919 
G1 X178.619 Y162.419 
G1 X178.225 Y161.863 
G1 X177.887 Y161.294 
G1 X177.588 Y160.700 
G1 X177.363 Y160.075 
G1 X177.219 Y159.588 
G1 X177.081 Y159.000 
G1 X176.969 Y158.262 
G1 X176.906 Y157.512 
G1 X176.894 Y156.825 
G1 X176.969 Y156.100 
G1 X177.050 Y155.581 
G1 X177.188 Y154.963 
G1 X177.394 Y154.269 
G1 X177.662 Y153.569 
G1 X177.981 Y152.944 
G1 X178.256 Y152.469 
G1 X178.631 Y151.931 
G1 X179.037 Y151.450 
G1 X179.456 Y151.012 
G1 X179.912 Y150.581 
G1 X180.506 Y150.119 
G1 X181.062 Y149.738 
G1 X181.662 Y149.381 
G1 X182.312 Y149.062 
G1 X183.812 Y148.569 
G1 X184.938 Y148.369 
G1 X186.250 Y148.319 
G1 X187.750 Y148.506 
G1 X188.956 Y148.875 
G1 X189.637 Y149.188 
G1 X190.294 Y149.544 
G1 X190.919 Y149.950 
G1 X191.450 Y150.369 
G1 X191.887 Y150.762 
G1 X192.381 Y151.256 
G1 X192.856 Y151.831 
G1 X193.262 Y152.381 
G1 X193.625 Y153.000 
G1 X193.881 Y153.512 
G1 X194.131 Y154.119 
G1 X194.412 Y155.006 
G1 X194.650 Y156.319 
G1 X194.656 Y158.194 
G1 X194.494 Y159.225 
G1 X194.113 Y160.444 
G1 X193.869 Y161.150 
G1 X193.562 Y161.831 
G1 X193.194 Y162.481 
G1 X192.819 Y163.019 
G1 X192.469 Y163.438 
G1 X192.094 Y163.850 
G1 X191.556 Y164.369 
G1 X190.975 Y164.844 
G1 X190.412 Y165.250 
G1 X189.756 Y165.613 
G1 X189.281 Y165.838 
G1 X188.688 Y166.088 
G1 X187.975 Y166.325 
G1 X186.275 Y166.613 
G1 X184.375 Y166.606 
G1 X183.375 Y166.456 
G1 X182.275 Y166.131 
G1 X181.569 Y165.869 
G1 X180.887 Y165.544 
G1 X180.238 Y165.162 
G1 X179.713 Y164.781 
G1 X179.306 Y164.450 
G1 X178.819 Y164.012 
G1 X178.294 Y163.469 
G1 X177.806 Y162.894 
G1 X177.387 Y162.262 
G1 X177.106 Y161.800 
G1 X176.494 Y160.400 
G1 X176.169 Y159.300 
G1 X176.062 Y158.600 
G1 X176.094 Y155.200 
G1 X176.181 Y154.600 
G1 X176.644 Y153.256 
G1 X176.863 Y152.787 
G1 X177.256 Y152.144 
G1 X177.688 Y151.531 
G1 X178.156 Y150.944 
G1 X178.669 Y150.394 
G1 X179.194 Y149.881 
G1 X179.769 Y149.400 
G1 X180.387 Y148.981 
G1 X181.838 Y148.150 
G1 X182.119 Y148.062 
G1 X189.056 Y148.088 
G1 X189.713 Y148.213 
G1 X190.994 Y148.831 
G1 X191.681 Y149.312 
G1 X192.262 Y149.781 
G1 X192.806 Y150.294 
G1 X193.287 Y150.831 
G1 X193.688 Y151.338 
G1 X194.094 Y151.931 
G1 X194.831 Y153.412 
G1 X194.938 Y153.881 
G1 X194.906 Y159.975 
G1 X194.806 Y160.725 
G1 X194.406 Y161.831 
G1 X193.750 Y163.106 
G1 X193.331 Y163.731 
G1 X192.863 Y164.312 
G1 X192.456 Y164.750 
G1 X192.012 Y165.162 
G1 X191.500 Y165.581 
G1 X190.900 Y165.994 
G1 X190.231 Y166.375 
G1 X189.206 Y166.812 
G1 X188.706 Y166.931 
G1 X182.606 Y166.906 
G1 X182.006 Y166.819 
G1 X180.725 Y166.369 
G1 X180.162 Y166.094 
G1 X179.506 Y165.725 
G1 X178.887 Y165.287 
G1 X178.306 Y164.806 
G1 X177.850 Y164.369 
G1 X177.431 Y163.906 
G1 X177.012 Y163.381 
G1 X176.537 Y162.669 
G1 X176.144 Y161.931 
G1 X176.062 Y161.631 
G1 X176.062 Y160.431 
G1 X176.062 Y160.431 
G1 X176.062 Y160.300 
G1 X176.088 Y160.175 
G1 X176.144 Y160.056 
G1 X176.219 Y159.956 
G0 Z5.000 
G0 X176.219 Y159.956 
G0 X176.231 Y155.369 
G1 Z-3.500 
G1 X176.231 Y155.369 
G1 X176.156 Y155.275 
G1 X176.100 Y155.169 
G1 X176.062 Y155.050 
G1 X176.056 Y154.925 
G1 X176.056 Y154.925 
G1 X176.088 Y152.925 
G1 X176.175 Y152.425 
G1 X176.794 Y151.156 
G1 X176.906 Y150.981 
G1 X177.350 Y150.375 
G1 X177.844 Y149.812 
G1 X178.375 Y149.281 
G1 X179.688 Y148.175 
G1 X179.863 Y148.081 
G1 X179.956 Y148.056 
G1 X179.956 Y148.056 
G1 X180.081 Y148.056 
G1 X180.200 Y148.081 
G1 X180.312 Y148.131 
G1 X180.412 Y148.206 
G0 Z5.000 
G0 X180.412 Y148.206 
G0 X176.231 Y153.088 
G1 Z-3.500 
G1 X176.231 Y153.088 
G1 X176.156 Y152.994 
G1 X176.100 Y152.887 
G1 X176.062 Y152.769 
G1 X176.056 Y152.644 
G1 X176.056 Y152.644 
G1 X176.081 Y151.444 
G1 X176.181 Y150.844 
G1 X176.381 Y150.375 
G1 X176.856 Y149.600 
G1 X177.344 Y149.025 
G1 X178.131 Y148.188 
G1 X178.206 Y148.125 
G1 X178.294 Y148.081 
G1 X178.387 Y148.056 
G1 X178.387 Y148.056 
G1 X178.512 Y148.056 
G1 X178.631 Y148.081 
G1 X178.744 Y148.131 
G1 X178.844 Y148.206 
G0 Z5.000 
G0 X178.844 Y148.206 
G0 X176.231 Y151.531 
G1 Z-3.500 
G1 X176.231 Y151.531 
G1 X176.156 Y151.438 
G1 X176.100 Y151.331 
G1 X176.062 Y151.213 
G1 X176.056 Y151.088 
G1 X176.056 Y151.088 
G1 X176.081 Y149.988 
G1 X176.169 Y149.488 
G1 X176.331 Y149.106 
G1 X176.744 Y148.419 
G1 X176.931 Y148.181 
G1 X177.006 Y148.113 
G1 X177.094 Y148.069 
G1 X177.188 Y148.056 
G1 X177.188 Y148.056 
G1 X177.312 Y148.056 
G1 X177.431 Y148.081 
G1 X177.544 Y148.131 
G1 X177.644 Y148.206 
G0 Z5.000 
G0 X177.644 Y148.206 
G0 X176.231 Y150.088 
G1 Z-3.500 
G1 X176.231 Y150.088 
G1 X176.156 Y149.994 
G1 X176.100 Y149.887 
G1 X176.062 Y149.769 
G1 X176.056 Y149.644 
G1 X176.056 Y149.644 
G1 X176.075 Y148.744 
G1 X176.144 Y148.344 
G1 X176.175 Y148.250 
G1 X176.225 Y148.162 
G1 X176.294 Y148.094 
G1 X176.381 Y148.056 
G1 X176.381 Y148.056 
G1 X176.506 Y148.056 
G1 X176.625 Y148.094 
G1 X176.625 Y148.094 
G1 X176.106 Y148.681 
G1 X176.106 Y148.681 
G1 X176.062 Y148.569 
G1 X176.056 Y148.444 
G1 X176.056 Y148.444 
G1 X176.062 Y148.244 
G1 X176.106 Y148.150 
G1 X176.181 Y148.088 
G1 X176.181 Y148.088 
G1 X176.300 Y148.056 
G1 X176.425 Y148.056 
G1 X176.550 Y148.062 
G1 X176.669 Y148.075 
G0 Z5.000 
G0 X176.669 Y148.075 
G0 X188.844 Y148.213 
G1 Z-3.500 
G1 X188.844 Y148.213 
G1 X188.944 Y148.137 
G1 X189.062 Y148.081 
G1 X189.188 Y148.056 
G1 X189.319 Y148.056 
G1 X189.319 Y148.056 
G1 X190.725 Y148.081 
G1 X191.287 Y148.194 
G1 X192.300 Y148.719 
G1 X192.537 Y148.887 
G1 X193.125 Y149.344 
G1 X193.662 Y149.856 
G1 X194.669 Y151.100 
G1 X194.863 Y151.431 
G1 X194.938 Y151.706 
G1 X194.938 Y153.206 
G1 X194.938 Y153.206 
G1 X194.931 Y153.331 
G1 X194.900 Y153.450 
G1 X194.844 Y153.562 
G1 X194.762 Y153.662 
G0 Z5.000 
G0 X194.762 Y153.662 
G0 X190.525 Y148.213 
G1 Z-3.500 
G1 X190.525 Y148.213 
G1 X190.625 Y148.137 
G1 X190.744 Y148.081 
G1 X190.869 Y148.056 
G1 X191.000 Y148.056 
G1 X191.000 Y148.056 
G1 X192.125 Y148.075 
G1 X192.688 Y148.181 
G1 X193.444 Y148.594 
G1 X193.831 Y148.875 
G1 X194.594 Y149.575 
G1 X194.844 Y149.869 
G1 X194.919 Y150.044 
G1 X194.938 Y150.137 
G1 X194.938 Y150.887 
G1 X194.938 Y150.887 
G1 X194.931 Y151.012 
G1 X194.900 Y151.131 
G1 X194.844 Y151.244 
G1 X194.762 Y151.344 
G0 Z5.000 
G0 X194.762 Y151.344 
G0 X191.969 Y148.213 
G1 Z-3.500 
G1 X191.969 Y148.213 
G1 X192.069 Y148.137 
G1 X192.188 Y148.081 
G1 X192.312 Y148.056 
G1 X192.444 Y148.056 
G1 X192.444 Y148.056 
G1 X193.381 Y148.069 
G1 X193.850 Y148.156 
G1 X194.200 Y148.312 
G1 X194.750 Y148.706 
G1 X194.875 Y148.850 
G1 X194.919 Y148.938 
G1 X194.938 Y149.031 
G1 X194.938 Y149.219 
G1 X194.938 Y149.219 
G1 X194.931 Y149.344 
G1 X194.900 Y149.463 
G1 X194.844 Y149.575 
G1 X194.762 Y149.675 
G0 Z5.000 
G0 X194.762 Y149.675 
G0 X193.287 Y148.213 
G1 Z-3.500 
G1 X193.287 Y148.213 
G1 X193.387 Y148.137 
G1 X193.506 Y148.081 
G1 X193.631 Y148.056 
G1 X193.762 Y148.056 
G1 X193.762 Y148.056 
G1 X194.419 Y148.069 
G1 X194.700 Y148.125 
G1 X194.787 Y148.156 
G1 X194.863 Y148.213 
G1 X194.925 Y148.287 
G1 X194.938 Y148.381 
G1 X194.938 Y148.381 
G1 X194.931 Y148.506 
G1 X194.931 Y148.506 
G1 X194.588 Y148.056 
G1 X194.588 Y148.056 
G1 X194.719 Y148.056 
G1 X194.719 Y148.056 
G1 X194.812 Y148.081 
G1 X194.887 Y148.144 
G1 X194.931 Y148.225 
G1 X194.931 Y148.225 
G1 X194.938 Y148.350 
G1 X194.925 Y148.475 
G1 X194.900 Y148.594 
G1 X194.863 Y148.713 
G0 Z5.000 
G0 X194.863 Y148.713 
G0 X194.762 Y159.931 
G1 Z-3.500 
G1 X194.762 Y159.931 
G1 X194.844 Y160.037 
G1 X194.900 Y160.156 
G1 X194.931 Y160.281 
G1 X194.931 Y160.412 
G1 X194.931 Y160.412 
G1 X194.906 Y161.912 
G1 X194.794 Y162.475 
G1 X194.350 Y163.463 
G1 X193.713 Y164.525 
G1 X193.256 Y165.119 
G1 X192.744 Y165.669 
G1 X192.325 Y166.044 
G1 X191.887 Y166.381 
G1 X191.100 Y166.831 
G1 X190.806 Y166.931 
G1 X189.206 Y166.938 
G1 X189.206 Y166.938 
G1 X189.075 Y166.931 
G1 X188.950 Y166.900 
G1 X188.831 Y166.838 
G1 X188.725 Y166.756 
G0 Z5.000 
G0 X188.725 Y166.756 
G0 X194.762 Y161.731 
G1 Z-3.500 
G1 X194.762 Y161.731 
G1 X194.844 Y161.838 
G1 X194.900 Y161.956 
G1 X194.931 Y162.081 
G1 X194.931 Y162.213 
G1 X194.931 Y162.213 
G1 X194.906 Y163.244 
G1 X194.800 Y163.806 
G1 X194.481 Y164.525 
G1 X194.131 Y165.119 
G1 X193.719 Y165.744 
G1 X193.225 Y166.306 
G1 X192.494 Y166.850 
G1 X192.300 Y166.919 
G1 X192.200 Y166.938 
G1 X191.600 Y166.938 
G1 X191.600 Y166.938 
G1 X191.469 Y166.931 
G1 X191.344 Y166.900 
G1 X191.225 Y166.838 
G1 X191.119 Y166.756 
G0 Z5.000 
G0 X191.119 Y166.756 
G0 X194.762 Y163.050 
G1 Z-3.500 
G1 X194.762 Y163.050 
G1 X194.844 Y163.156 
G1 X194.900 Y163.275 
G1 X194.931 Y163.400 
G1 X194.931 Y163.531 
G1 X194.931 Y163.531 
G1 X194.906 Y164.562 
G1 X194.831 Y164.938 
G1 X194.569 Y165.562 
G1 X194.125 Y166.225 
G1 X193.662 Y166.738 
G1 X193.506 Y166.863 
G1 X193.319 Y166.938 
G1 X193.119 Y166.938 
G1 X193.119 Y166.938 
G1 X192.988 Y166.931 
G1 X192.863 Y166.900 
G1 X192.744 Y166.838 
G1 X192.637 Y166.756 
G0 Z5.000 
G0 X192.637 Y166.756 
G0 X194.762 Y164.375 
G1 Z-3.500 
G1 X194.762 Y164.375 
G1 X194.844 Y164.481 
G1 X194.900 Y164.600 
G1 X194.931 Y164.725 
G1 X194.931 Y164.856 
G1 X194.931 Y164.856 
G1 X194.912 Y165.606 
G1 X194.838 Y165.981 
G1 X194.725 Y166.256 
G1 X194.519 Y166.588 
G1 X194.325 Y166.806 
G1 X194.250 Y166.869 
G1 X194.156 Y166.912 
G1 X194.056 Y166.938 
G1 X194.056 Y166.938 
G1 X193.925 Y166.931 
G1 X193.800 Y166.900 
G1 X193.681 Y166.838 
G1 X193.575 Y166.756 
G0 Z5.000 
G0 X193.575 Y166.756 
G0 X194.762 Y165.331 
G1 Z-3.500 
G1 X194.762 Y165.331 
G1 X194.844 Y165.438 
G1 X194.900 Y165.556 
G1 X194.931 Y165.681 
G1 X194.931 Y165.812 
G1 X194.931 Y165.812 
G1 X194.925 Y166.281 
G1 X194.856 Y166.656 
G1 X194.819 Y166.750 
G1 X194.694 Y166.900 
G1 X194.600 Y166.938 
G1 X194.500 Y166.938 
G1 X194.500 Y166.938 
G1 X194.369 Y166.931 
G1 X194.244 Y166.887 
G1 X194.244 Y166.887 
G1 X194.887 Y166.400 
G1 X194.887 Y166.400 
G1 X194.931 Y166.525 
G1 X194.931 Y166.656 
G1 X194.931 Y166.656 
G1 X194.931 Y166.750 
G1 X194.894 Y166.838 
G1 X194.819 Y166.906 
G1 X194.725 Y166.938 
G1 X194.725 Y166.938 
G1 X194.594 Y166.931 
G1 X194.469 Y166.900 
G1 X194.350 Y166.838 
G1 X194.244 Y166.756 
G0 Z5.000 
G0 X194.244 Y166.756 
G0 X182.738 Y166.769 
G1 Z-3.500 
G1 X182.738 Y166.769 
G1 X182.637 Y166.850 
G1 X182.525 Y166.906 
G1 X182.406 Y166.938 
G1 X182.281 Y166.938 
G1 X182.281 Y166.938 
G1 X180.781 Y166.912 
G1 X180.181 Y166.806 
G1 X179.412 Y166.488 
G1 X178.775 Y166.131 
G1 X178.131 Y165.738 
G1 X177.537 Y165.275 
G1 X177.006 Y164.775 
G1 X176.175 Y163.775 
G1 X176.081 Y163.594 
G1 X176.062 Y163.494 
G1 X176.062 Y163.294 
G1 X176.062 Y163.294 
G1 X176.062 Y163.162 
G1 X176.088 Y163.037 
G1 X176.144 Y162.919 
G1 X176.219 Y162.819 
G0 Z5.000 
G0 X176.219 Y162.819 
G0 X180.938 Y166.769 
G1 Z-3.500 
G1 X180.938 Y166.769 
G1 X180.838 Y166.850 
G1 X180.725 Y166.906 
G1 X180.606 Y166.938 
G1 X180.481 Y166.938 
G1 X180.481 Y166.938 
G1 X179.381 Y166.919 
G1 X178.781 Y166.812 
G1 X177.750 Y166.331 
G1 X177.400 Y166.100 
G1 X176.706 Y165.594 
G1 X176.181 Y165.100 
G1 X176.119 Y165.019 
G1 X176.075 Y164.925 
G1 X176.062 Y164.825 
G1 X176.062 Y164.825 
G1 X176.062 Y164.694 
G1 X176.088 Y164.569 
G1 X176.144 Y164.450 
G1 X176.219 Y164.350 
G0 Z5.000 
G0 X176.219 Y164.350 
G0 X179.500 Y166.769 
G1 Z-3.500 
G1 X179.500 Y166.769 
G1 X179.400 Y166.850 
G1 X179.287 Y166.906 
G1 X179.169 Y166.938 
G1 X179.044 Y166.938 
G1 X179.044 Y166.938 
G1 X178.144 Y166.925 
G1 X177.744 Y166.875 
G1 X177.344 Y166.756 
G1 X176.694 Y166.425 
G1 X176.431 Y166.250 
G1 X176.188 Y166.044 
G1 X176.119 Y165.969 
G1 X176.069 Y165.875 
G1 X176.069 Y165.875 
G1 X176.069 Y165.744 
G1 X176.094 Y165.619 
G1 X176.150 Y165.500 
G1 X176.225 Y165.400 
G0 Z5.000 
G0 X176.225 Y165.400 
G0 X178.175 Y166.769 
G1 Z-3.500 
G1 X178.175 Y166.769 
G1 X178.075 Y166.850 
G1 X177.963 Y166.906 
G1 X177.844 Y166.938 
G1 X177.719 Y166.938 
G1 X177.719 Y166.938 
G1 X176.919 Y166.925 
G1 X176.519 Y166.850 
G1 X176.325 Y166.769 
G1 X176.156 Y166.650 
G1 X176.094 Y166.562 
G1 X176.062 Y166.463 
G1 X176.062 Y166.463 
G1 X176.062 Y166.331 
G1 X176.094 Y166.206 
G1 X176.094 Y166.206 
G1 X176.887 Y166.900 
G1 X176.887 Y166.900 
G1 X176.769 Y166.938 
G1 X176.644 Y166.938 
G1 X176.644 Y166.938 
G1 X176.344 Y166.931 
G1 X176.144 Y166.887 
G1 X176.075 Y166.806 
G1 X176.075 Y166.806 
G1 X176.012 Y166.694 
G1 X176.012 Y166.562 
G1 X176.031 Y166.438 
G1 X176.062 Y166.312 
G0 Z5.000 
G0 X176.062 Y166.312 
G0 X176.012 Y148.344 
G1 Z-3.500 
G1 X176.012 Y148.344 
G1 X176.025 Y148.219 
G1 X176.088 Y148.106 
G1 X176.188 Y148.031 
G1 X176.312 Y148.000 
G1 X176.312 Y148.000 
G1 X194.588 Y148.000 
G1 X194.794 Y148.012 
G1 X194.944 Y148.125 
G1 X194.988 Y148.219 
G1 X195.000 Y148.312 
G1 X194.988 Y166.719 
G1 X194.956 Y166.844 
G1 X194.863 Y166.944 
G1 X194.781 Y166.988 
G1 X194.681 Y167.000 
G1 X176.281 Y166.994 
G1 X176.156 Y166.963 
G1 X176.056 Y166.869 
G1 X176.012 Y166.781 
G1 X176.000 Y166.669 
G1 X176.006 Y148.281 
G1 X176.019 Y148.200 
G1 X176.081 Y148.100 
G1 X176.137 Y148.050 
G1 X176.219 Y148.012 
G1 X176.312 Y148.000 
G1 X176.312 Y148.000 
G0 Z5.000 
(Helix to depth: -3.000000) 
G0 Z5.000 
G0 X155.883 Y159.493 Z5.000 
G0 X155.883 Y159.493 Z3.000 
G1 X155.883 Y159.493 Z0.000 
G1 X155.883 Y159.493 Z0.000 
G1 X155.513 Y159.257 Z-0.039 
G1 X155.195 Y158.954 Z-0.077 
G1 X154.943 Y158.595 Z-0.116 
G1 X154.766 Y158.193 Z-0.155 
G1 X154.670 Y157.764 Z-0.193 
G1 X154.660 Y157.325 Z-0.232 
G1 X154.736 Y156.893 Z-0.271 
G1 X154.895 Y156.483 Z-0.309 
G1 X155.130 Y156.113 Z-0.348 
G1 X155.433 Y155.795 Z-0.387 
G1 X155.793 Y155.543 Z-0.425 
G1 X156.194 Y155.366 Z-0.464 
G1 X156.623 Y155.270 Z-0.502 
G1 X157.062 Y155.260 Z-0.541 
G1 X157.495 Y155.336 Z-0.580 
G1 X157.904 Y155.495 Z-0.618 
G1 X158.275 Y155.730 Z-0.657 
G1 X158.592 Y156.033 Z-0.696 
G1 X158.844 Y156.393 Z-0.734 
G1 X159.022 Y156.794 Z-0.773 
G1 X159.117 Y157.223 Z-0.812 
G1 X159.127 Y157.662 Z-0.850 
G1 X159.052 Y158.095 Z-0.889 
G1 X158.893 Y158.504 Z-0.928 
G1 X158.657 Y158.875 Z-0.966 
G1 X158.354 Y159.192 Z-1.005 
G1 X157.995 Y159.444 Z-1.044 
G1 X157.593 Y159.622 Z-1.082 
G1 X157.164 Y159.717 Z-1.121 
G1 X156.725 Y159.727 Z-1.160 
G1 X156.293 Y159.652 Z-1.198 
G1 X155.883 Y159.493 Z-1.237 
G1 X155.513 Y159.257 Z-1.275 
G1 X155.195 Y158.954 Z-1.314 
G1 X154.943 Y158.595 Z-1.353 
G1 X154.766 Y158.193 Z-1.391 
G1 X154.670 Y157.764 Z-1.430 
G1 X154.660 Y157.325 Z-1.469 
G1 X154.736 Y156.893 Z-1.507 
G1 X154.895 Y156.483 Z-1.546 
G1 X155.130 Y156.113 Z-1.585 
G1 X155.433 Y155.795 Z-1.623 
G1 X155.793 Y155.543 Z-1.662 
G1 X156.194 Y155.366 Z-1.701 
G1 X156.623 Y155.270 Z-1.739 
G1 X157.062 Y155.260 Z-1.778 
G1 X157.495 Y155.336 Z-1.817 
G1 X157.904 Y155.495 Z-1.855 
G1 X158.275 Y155.730 Z-1.894 
G1 X158.592 Y156.033 Z-1.933 
G1 X158.844 Y156.393 Z-1.971 
G1 X159.022 Y156.794 Z-2.010 
G1 X159.117 Y157.223 Z-2.049 
G1 X159.127 Y157.662 Z-2.087 
G1 X159.052 Y158.095 Z-2.126 
G1 X158.893 Y158.504 Z-2.164 
G1 X158.657 Y158.875 Z-2.203 
G1 X158.354 Y159.192 Z-2.242 
G1 X157.995 Y159.444 Z-2.280 
G1 X157.593 Y159.622 Z-2.319 
G1 X157.164 Y159.717 Z-2.358 
G1 X156.725 Y159.727 Z-2.396 
G1 X156.293 Y159.652 Z-2.435 
G1 X155.883 Y159.493 Z-2.474 
G1 X155.513 Y159.257 Z-2.512 
G1 X155.195 Y158.954 Z-2.551 
G1 X154.943 Y158.595 Z-2.590 
G1 X154.766 Y158.193 Z-2.628 
G1 X154.670 Y157.764 Z-2.667 
G1 X154.660 Y157.325 Z-2.706 
G1 X154.736 Y156.893 Z-2.744 
G1 X154.895 Y156.483 Z-2.783 
G1 X155.130 Y156.113 Z-2.822 
G1 X155.433 Y155.795 Z-2.860 
G1 X155.793 Y155.543 Z-2.899 
G1 X156.194 Y155.366 Z-2.937 
G1 X156.623 Y155.270 Z-2.976 
G1 X156.894 Y155.254 Z-3.000 
G1 X157.331 Y155.297 Z-3.000 
G1 X157.751 Y155.424 Z-3.000 
G1 X158.138 Y155.631 Z-3.000 
G1 X158.478 Y155.910 Z-3.000 
G1 X158.756 Y156.249 Z-3.000 
G1 X158.963 Y156.637 Z-3.000 
G1 X159.091 Y157.057 Z-3.000 
G1 X159.134 Y157.494 Z-3.000 
G1 X159.091 Y157.931 Z-3.000 
G1 X158.963 Y158.351 Z-3.000 
G1 X158.756 Y158.738 Z-3.000 
G1 X158.478 Y159.078 Z-3.000 
G1 X158.138 Y159.356 Z-3.000 
G1 X157.751 Y159.563 Z-3.000 
G1 X157.331 Y159.691 Z-3.000 
G1 X156.894 Y159.734 Z-3.000 
G1 X156.457 Y159.691 Z-3.000 
G1 X156.037 Y159.563 Z-3.000 
G1 X155.649 Y159.356 Z-3.000 
G1 X155.310 Y159.078 Z-3.000 
G1 X155.031 Y158.738 Z-3.000 
G1 X154.824 Y158.351 Z-3.000 
G1 X154.697 Y157.931 Z-3.000 
G1 X154.654 Y157.494 Z-3.000 
G1 X154.697 Y157.057 Z-3.000 
G1 X154.824 Y156.637 Z-3.000 
G1 X155.031 Y156.249 Z-3.000 
G1 X155.310 Y155.910 Z-3.000 
G1 X155.649 Y155.631 Z-3.000 
G1 X156.037 Y155.424 Z-3.000 
G1 X156.457 Y155.297 Z-3.000 
G1 X156.894 Y155.254 Z-3.000 
(Adaptive - depth: -3.000000) 
G1 X156.894 Y155.244 
G1 X156.963 Y155.169 
G1 X157.238 Y155.050 
G1 X157.519 Y155.006 
G1 X157.706 Y155.012 
G1 X158.356 Y155.200 
G1 X158.688 Y155.406 
G1 X158.875 Y155.556 
G1 X159.062 Y155.750 
G1 X159.262 Y156.012 
G1 X159.469 Y156.369 
G1 X159.606 Y156.738 
G1 X159.688 Y157.069 
G1 X159.731 Y157.444 
G1 X159.719 Y157.812 
G1 X159.650 Y158.175 
G1 X159.544 Y158.500 
G1 X159.387 Y158.825 
G1 X159.200 Y159.125 
G1 X158.944 Y159.438 
G1 X158.644 Y159.719 
G1 X158.319 Y159.938 
G1 X158.006 Y160.088 
G1 X157.700 Y160.200 
G1 X157.312 Y160.287 
G1 X156.894 Y160.319 
G1 X156.519 Y160.294 
G1 X156.169 Y160.231 
G1 X155.806 Y160.106 
G1 X155.469 Y159.950 
G1 X155.125 Y159.725 
G1 X154.838 Y159.469 
G1 X154.613 Y159.213 
G1 X154.406 Y158.900 
G1 X154.250 Y158.569 
G1 X154.137 Y158.225 
G1 X154.062 Y157.869 
G1 X154.031 Y157.463 
G1 X154.056 Y157.044 
G1 X154.144 Y156.656 
G1 X154.262 Y156.344 
G1 X154.412 Y156.044 
G1 X154.625 Y155.725 
G1 X154.900 Y155.419 
G1 X155.181 Y155.175 
G1 X155.494 Y154.950 
G1 X155.887 Y154.719 
G1 X156.375 Y154.512 
G1 X156.806 Y154.400 
G1 X157.162 Y154.356 
G1 X157.506 Y154.350 
G1 X157.925 Y154.406 
G1 X158.281 Y154.506 
G1 X158.631 Y154.650 
G1 X158.969 Y154.844 
G1 X159.269 Y155.075 
G1 X159.544 Y155.344 
G1 X159.781 Y155.644 
G1 X159.981 Y155.969 
G1 X160.150 Y156.356 
G1 X160.275 Y156.731 
G1 X160.356 Y157.156 
G1 X160.381 Y157.569 
G1 X160.344 Y157.981 
G1 X160.275 Y158.319 
G1 X160.156 Y158.694 
G1 X159.975 Y159.094 
G1 X159.744 Y159.475 
G1 X159.488 Y159.812 
G1 X159.175 Y160.119 
G1 X158.875 Y160.356 
G1 X158.519 Y160.569 
G1 X158.137 Y160.738 
G1 X157.756 Y160.856 
G1 X157.356 Y160.938 
G1 X156.900 Y160.969 
G1 X156.481 Y160.950 
G1 X156.062 Y160.869 
G1 X155.700 Y160.769 
G1 X155.275 Y160.588 
G1 X154.906 Y160.375 
G1 X154.569 Y160.131 
G1 X154.262 Y159.825 
G1 X154.031 Y159.537 
G1 X153.819 Y159.194 
G1 X153.644 Y158.838 
G1 X153.494 Y158.394 
G1 X153.406 Y157.981 
G1 X153.363 Y157.556 
G1 X153.369 Y157.125 
G1 X153.425 Y156.700 
G1 X153.544 Y156.287 
G1 X153.681 Y155.950 
G1 X153.869 Y155.594 
G1 X154.113 Y155.231 
G1 X154.425 Y154.875 
G1 X154.744 Y154.575 
G1 X155.106 Y154.306 
G1 X155.494 Y154.069 
G1 X155.944 Y153.863 
G1 X156.387 Y153.725 
G1 X156.781 Y153.644 
G1 X157.231 Y153.606 
G1 X157.669 Y153.637 
G1 X158.044 Y153.700 
G1 X158.450 Y153.819 
G1 X158.831 Y153.969 
G1 X159.269 Y154.213 
G1 X159.631 Y154.463 
G1 X159.956 Y154.762 
G1 X160.219 Y155.062 
G1 X160.463 Y155.412 
G1 X160.669 Y155.781 
G1 X160.850 Y156.231 
G1 X160.969 Y156.656 
G1 X161.044 Y157.094 
G1 X161.069 Y157.550 
G1 X161.044 Y157.994 
G1 X160.969 Y158.444 
G1 X160.850 Y158.881 
G1 X160.681 Y159.306 
G1 X160.469 Y159.706 
G1 X160.213 Y160.081 
G1 X159.919 Y160.425 
G1 X159.575 Y160.725 
G1 X159.262 Y160.944 
G1 X158.894 Y161.162 
G1 X158.431 Y161.375 
G1 X157.938 Y161.544 
G1 X157.463 Y161.631 
G1 X157.069 Y161.669 
G1 X156.613 Y161.669 
G1 X156.125 Y161.606 
G1 X155.688 Y161.506 
G1 X155.244 Y161.363 
G1 X154.762 Y161.144 
G1 X154.363 Y160.881 
G1 X154.069 Y160.637 
G1 X153.787 Y160.356 
G1 X153.481 Y159.994 
G1 X153.194 Y159.544 
G1 X152.981 Y159.137 
G1 X152.800 Y158.688 
G1 X152.681 Y158.213 
G1 X152.619 Y157.806 
G1 X152.600 Y157.350 
G1 X152.637 Y156.900 
G1 X152.719 Y156.469 
G1 X152.838 Y156.037 
G1 X153.037 Y155.556 
G1 X153.256 Y155.144 
G1 X153.519 Y154.750 
G1 X153.831 Y154.375 
G1 X154.169 Y154.044 
G1 X154.544 Y153.744 
G1 X154.944 Y153.475 
G1 X155.431 Y153.225 
G1 X155.894 Y153.037 
G1 X156.381 Y152.919 
G1 X156.769 Y152.863 
G1 X157.225 Y152.838 
G1 X157.731 Y152.875 
G1 X158.169 Y152.950 
G1 X158.625 Y153.075 
G1 X159.062 Y153.244 
G1 X159.519 Y153.475 
G1 X159.925 Y153.738 
G1 X160.306 Y154.044 
G1 X160.650 Y154.400 
G1 X160.906 Y154.725 
G1 X161.162 Y155.113 
G1 X161.400 Y155.562 
G1 X161.588 Y156.044 
G1 X161.725 Y156.519 
G1 X161.794 Y157.019 
G1 X161.825 Y157.425 
G1 X161.812 Y157.938 
G1 X161.738 Y158.469 
G1 X161.631 Y158.938 
G1 X161.469 Y159.419 
G1 X161.256 Y159.881 
G1 X160.981 Y160.300 
G1 X160.738 Y160.613 
G1 X160.419 Y160.950 
G1 X160.044 Y161.287 
G1 X159.581 Y161.619 
G1 X159.144 Y161.875 
G1 X158.669 Y162.100 
G1 X158.156 Y162.256 
G1 X157.750 Y162.344 
G1 X157.269 Y162.406 
G1 X156.738 Y162.425 
G1 X156.188 Y162.394 
G1 X155.675 Y162.300 
G1 X155.231 Y162.181 
G1 X154.756 Y161.994 
G1 X154.312 Y161.762 
G1 X153.906 Y161.500 
G1 X153.519 Y161.188 
G1 X153.169 Y160.844 
G1 X152.850 Y160.469 
G1 X152.575 Y160.062 
G1 X152.344 Y159.631 
G1 X152.144 Y159.181 
G1 X151.975 Y158.650 
G1 X151.869 Y158.150 
G1 X151.819 Y157.631 
G1 X151.812 Y157.175 
G1 X151.863 Y156.681 
G1 X151.963 Y156.200 
G1 X152.094 Y155.738 
G1 X152.300 Y155.231 
G1 X152.531 Y154.787 
G1 X152.806 Y154.363 
G1 X153.125 Y153.950 
G1 X153.519 Y153.537 
G1 X153.919 Y153.188 
G1 X154.350 Y152.869 
G1 X154.819 Y152.594 
G1 X155.312 Y152.381 
G1 X155.750 Y152.231 
G1 X156.244 Y152.113 
G1 X156.738 Y152.050 
G1 X157.219 Y152.025 
G1 X157.775 Y152.056 
G1 X158.275 Y152.137 
G1 X158.775 Y152.262 
G1 X159.269 Y152.444 
G1 X159.738 Y152.662 
G1 X160.188 Y152.925 
G1 X160.606 Y153.231 
G1 X160.994 Y153.575 
G1 X161.350 Y153.956 
G1 X161.669 Y154.369 
G1 X161.944 Y154.812 
G1 X162.175 Y155.281 
G1 X162.363 Y155.769 
G1 X162.506 Y156.269 
G1 X162.600 Y156.781 
G1 X162.644 Y157.300 
G1 X162.637 Y157.819 
G1 X162.581 Y158.338 
G1 X162.475 Y158.850 
G1 X162.331 Y159.350 
G1 X162.113 Y159.900 
G1 X161.850 Y160.375 
G1 X161.600 Y160.756 
G1 X161.281 Y161.169 
G1 X160.875 Y161.588 
G1 X160.481 Y161.931 
G1 X160.044 Y162.250 
G1 X159.575 Y162.525 
G1 X159.094 Y162.750 
G1 X158.588 Y162.931 
G1 X158.062 Y163.069 
G1 X157.531 Y163.156 
G1 X156.994 Y163.206 
G1 X156.387 Y163.200 
G1 X155.831 Y163.150 
G1 X155.281 Y163.019 
G1 X154.863 Y162.887 
G1 X154.381 Y162.700 
G1 X153.863 Y162.431 
G1 X153.375 Y162.125 
G1 X152.950 Y161.762 
G1 X152.656 Y161.469 
G1 X152.325 Y161.094 
G1 X151.963 Y160.600 
G1 X151.644 Y160.069 
G1 X151.406 Y159.544 
G1 X151.244 Y159.100 
G1 X151.106 Y158.569 
G1 X151.025 Y158.044 
G1 X150.994 Y157.531 
G1 X151.000 Y157.006 
G1 X151.069 Y156.412 
G1 X151.175 Y155.875 
G1 X151.331 Y155.344 
G1 X151.544 Y154.819 
G1 X151.794 Y154.325 
G1 X152.088 Y153.850 
G1 X152.425 Y153.406 
G1 X152.800 Y152.994 
G1 X153.206 Y152.619 
G1 X153.650 Y152.281 
G1 X154.119 Y151.981 
G1 X154.613 Y151.725 
G1 X155.125 Y151.519 
G1 X155.656 Y151.356 
G1 X156.200 Y151.244 
G1 X156.750 Y151.181 
G1 X157.300 Y151.169 
G1 X157.850 Y151.206 
G1 X158.394 Y151.294 
G1 X158.931 Y151.425 
G1 X159.450 Y151.606 
G1 X159.956 Y151.825 
G1 X160.500 Y152.125 
G1 X160.975 Y152.438 
G1 X161.412 Y152.812 
G1 X161.750 Y153.150 
G1 X162.106 Y153.556 
G1 X162.463 Y154.050 
G1 X162.781 Y154.581 
G1 X163.019 Y155.119 
G1 X163.181 Y155.562 
G1 X163.319 Y156.100 
G1 X163.412 Y156.625 
G1 X163.463 Y157.225 
G1 X163.456 Y157.781 
G1 X163.406 Y158.344 
G1 X163.306 Y158.906 
G1 X163.156 Y159.450 
G1 X162.963 Y159.981 
G1 X162.719 Y160.500 
G1 X162.431 Y160.988 
G1 X162.100 Y161.456 
G1 X161.731 Y161.894 
G1 X161.325 Y162.300 
G1 X160.881 Y162.669 
G1 X160.406 Y163.000 
G1 X159.906 Y163.287 
G1 X159.381 Y163.531 
G1 X158.838 Y163.725 
G1 X158.281 Y163.875 
G1 X157.713 Y163.975 
G1 X157.137 Y164.025 
G1 X156.562 Y164.025 
G1 X155.988 Y163.988 
G1 X155.344 Y163.887 
G1 X154.769 Y163.725 
G1 X154.300 Y163.562 
G1 X153.775 Y163.331 
G1 X153.225 Y163.019 
G1 X152.762 Y162.706 
G1 X152.312 Y162.319 
G1 X151.975 Y161.975 
G1 X151.619 Y161.569 
G1 X151.238 Y161.050 
G1 X150.887 Y160.475 
G1 X150.637 Y159.919 
G1 X150.469 Y159.475 
G1 X150.319 Y158.919 
G1 X150.219 Y158.387 
G1 X150.144 Y157.750 
G1 X150.125 Y157.094 
G1 X150.175 Y156.488 
G1 X150.250 Y155.994 
G1 X150.394 Y155.431 
G1 X150.562 Y154.900 
G1 X150.825 Y154.281 
G1 X151.100 Y153.756 
G1 X151.419 Y153.250 
G1 X151.794 Y152.756 
G1 X152.200 Y152.306 
G1 X152.656 Y151.894 
G1 X153.069 Y151.569 
G1 X153.556 Y151.256 
G1 X154.062 Y150.994 
G1 X154.569 Y150.769 
G1 X155.188 Y150.562 
G1 X155.762 Y150.419 
G1 X156.350 Y150.319 
G1 X156.956 Y150.275 
G1 X157.550 Y150.275 
G1 X158.150 Y150.325 
G1 X158.744 Y150.425 
G1 X159.319 Y150.594 
G1 X159.787 Y150.756 
G1 X160.369 Y151.025 
G1 X160.869 Y151.300 
G1 X161.400 Y151.656 
G1 X161.881 Y152.037 
G1 X162.325 Y152.450 
G1 X162.744 Y152.912 
G1 X163.119 Y153.400 
G1 X163.438 Y153.925 
G1 X163.669 Y154.381 
G1 X163.881 Y154.919 
G1 X164.056 Y155.456 
G1 X164.206 Y156.113 
G1 X164.294 Y156.706 
G1 X164.338 Y157.312 
G1 X164.325 Y157.938 
G1 X164.269 Y158.544 
G1 X164.144 Y159.144 
G1 X164.000 Y159.631 
G1 X163.812 Y160.181 
G1 X163.506 Y160.825 
G1 X163.219 Y161.344 
G1 X162.875 Y161.863 
G1 X162.475 Y162.363 
G1 X162.056 Y162.812 
G1 X161.581 Y163.219 
G1 X161.175 Y163.512 
G1 X160.688 Y163.825 
G1 X160.106 Y164.137 
G1 X159.475 Y164.412 
G1 X158.875 Y164.625 
G1 X158.225 Y164.775 
G1 X157.706 Y164.856 
G1 X157.106 Y164.900 
G1 X156.519 Y164.900 
G1 X155.856 Y164.844 
G1 X155.244 Y164.744 
G1 X154.631 Y164.594 
G1 X154.025 Y164.394 
G1 X153.444 Y164.150 
G1 X152.900 Y163.838 
G1 X152.494 Y163.569 
G1 X152.037 Y163.225 
G1 X151.519 Y162.762 
G1 X151.037 Y162.256 
G1 X150.637 Y161.744 
G1 X150.331 Y161.287 
G1 X150.025 Y160.744 
G1 X149.775 Y160.194 
G1 X149.575 Y159.637 
G1 X149.419 Y159.056 
G1 X149.312 Y158.469 
G1 X149.244 Y157.875 
G1 X149.225 Y157.194 
G1 X149.256 Y156.569 
G1 X149.338 Y155.938 
G1 X149.469 Y155.306 
G1 X149.644 Y154.700 
G1 X149.869 Y154.100 
G1 X150.144 Y153.519 
G1 X150.463 Y152.963 
G1 X150.844 Y152.450 
G1 X151.156 Y152.062 
G1 X151.619 Y151.575 
G1 X152.131 Y151.131 
G1 X152.606 Y150.769 
G1 X153.150 Y150.425 
G1 X153.713 Y150.125 
G1 X154.287 Y149.875 
G1 X154.887 Y149.669 
G1 X155.500 Y149.512 
G1 X156.119 Y149.400 
G1 X156.750 Y149.338 
G1 X157.381 Y149.325 
G1 X158.012 Y149.363 
G1 X158.637 Y149.450 
G1 X159.256 Y149.588 
G1 X159.863 Y149.775 
G1 X160.450 Y150.006 
G1 X161.019 Y150.287 
G1 X161.562 Y150.613 
G1 X162.081 Y150.975 
G1 X162.569 Y151.381 
G1 X163.025 Y151.825 
G1 X163.444 Y152.300 
G1 X163.825 Y152.806 
G1 X164.162 Y153.344 
G1 X164.456 Y153.906 
G1 X164.706 Y154.488 
G1 X164.906 Y155.088 
G1 X165.062 Y155.700 
G1 X165.169 Y156.325 
G1 X165.225 Y156.956 
G1 X165.231 Y157.588 
G1 X165.188 Y158.219 
G1 X165.106 Y158.850 
G1 X164.956 Y159.556 
G1 X164.769 Y160.188 
G1 X164.512 Y160.806 
G1 X164.275 Y161.281 
G1 X163.969 Y161.819 
G1 X163.575 Y162.406 
G1 X163.113 Y162.988 
G1 X162.619 Y163.469 
G1 X162.256 Y163.787 
G1 X161.775 Y164.162 
G1 X161.150 Y164.581 
G1 X160.494 Y164.950 
G1 X159.844 Y165.219 
G1 X159.363 Y165.387 
G1 X158.750 Y165.562 
G1 X158.050 Y165.688 
G1 X157.444 Y165.756 
G1 X156.800 Y165.781 
G1 X156.150 Y165.750 
G1 X155.519 Y165.675 
G1 X154.881 Y165.569 
G1 X154.150 Y165.381 
G1 X153.494 Y165.125 
G1 X153.012 Y164.912 
G1 X152.431 Y164.588 
G1 X151.919 Y164.244 
G1 X151.438 Y163.887 
G1 X150.887 Y163.387 
G1 X150.438 Y162.919 
G1 X150.019 Y162.419 
G1 X149.625 Y161.863 
G1 X149.287 Y161.294 
G1 X148.988 Y160.700 
G1 X148.762 Y160.075 
G1 X148.619 Y159.588 
G1 X148.481 Y159.000 
G1 X148.369 Y158.262 
G1 X148.306 Y157.512 
G1 X148.294 Y156.825 
G1 X148.369 Y156.100 
G1 X148.450 Y155.581 
G1 X148.588 Y154.963 
G1 X148.794 Y154.269 
G1 X149.062 Y153.569 
G1 X149.381 Y152.944 
G1 X149.656 Y152.469 
G1 X150.031 Y151.931 
G1 X150.438 Y151.450 
G1 X150.856 Y151.012 
G1 X151.312 Y150.581 
G1 X151.906 Y150.119 
G1 X152.463 Y149.738 
G1 X153.062 Y149.381 
G1 X153.713 Y149.062 
G1 X155.213 Y148.569 
G1 X156.338 Y148.369 
G1 X157.650 Y148.319 
G1 X159.150 Y148.506 
G1 X160.356 Y148.875 
G1 X161.037 Y149.188 
G1 X161.694 Y149.544 
G1 X162.319 Y149.950 
G1 X162.850 Y150.369 
G1 X163.287 Y150.762 
G1 X163.781 Y151.256 
G1 X164.256 Y151.831 
G1 X164.662 Y152.381 
G1 X165.025 Y153.000 
G1 X165.281 Y153.512 
G1 X165.531 Y154.119 
G1 X165.812 Y155.006 
G1 X166.050 Y156.319 
G1 X166.056 Y158.194 
G1 X165.894 Y159.225 
G1 X165.512 Y160.444 
G1 X165.269 Y161.150 
G1 X164.963 Y161.831 
G1 X164.594 Y162.481 
G1 X164.219 Y163.019 
G1 X163.869 Y163.438 
G1 X163.494 Y163.850 
G1 X162.956 Y164.369 
G1 X162.375 Y164.844 
G1 X161.812 Y165.250 
G1 X161.156 Y165.613 
G1 X160.681 Y165.838 
G1 X160.088 Y166.088 
G1 X159.375 Y166.325 
G1 X157.675 Y166.613 
G1 X155.775 Y166.606 
G1 X154.775 Y166.456 
G1 X153.675 Y166.131 
G1 X152.969 Y165.869 
G1 X152.287 Y165.544 
G1 X151.637 Y165.162 
G1 X151.113 Y164.781 
G1 X150.706 Y164.450 
G1 X150.219 Y164.012 
G1 X149.694 Y163.469 
G1 X149.206 Y162.894 
G1 X148.787 Y162.262 
G1 X148.506 Y161.800 
G1 X147.894 Y160.400 
G1 X147.569 Y159.300 
G1 X147.463 Y158.600 
G1 X147.494 Y155.200 
G1 X147.581 Y154.600 
G1 X148.044 Y153.256 
G1 X148.262 Y152.787 
G1 X148.656 Y152.144 
G1 X149.088 Y151.531 
G1 X149.556 Y150.944 
G1 X150.069 Y150.394 
G1 X150.594 Y149.881 
G1 X151.169 Y149.400 
G1 X151.787 Y148.981 
G1 X153.238 Y148.150 
G1 X153.519 Y148.062 
G1 X160.456 Y148.088 
G1 X161.113 Y148.213 
G1 X162.394 Y148.831 
G1 X163.081 Y149.312 
G1 X163.662 Y149.781 
G1 X164.206 Y150.294 
G1 X164.688 Y150.831 
G1 X165.088 Y151.338 
G1 X165.494 Y151.931 
G1 X166.231 Y153.412 
G1 X166.338 Y153.881 
G1 X166.306 Y159.975 
G1 X166.206 Y160.725 
G1 X165.806 Y161.831 
G1 X165.150 Y163.106 
G1 X164.731 Y163.731 
G1 X164.262 Y164.312 
G1 X163.856 Y164.750 
G1 X163.412 Y165.162 
G1 X162.900 Y165.581 
G1 X162.300 Y165.994 
G1 X161.631 Y166.375 
G1 X160.606 Y166.812 
G1 X160.106 Y166.931 
G1 X154.006 Y166.906 
G1 X153.406 Y166.819 
G1 X152.125 Y166.369 
G1 X151.562 Y166.094 
G1 X150.906 Y165.725 
G1 X150.287 Y165.287 
G1 X149.706 Y164.806 
G1 X149.250 Y164.369 
G1 X148.831 Y163.906 
G1 X148.412 Y163.381 
G1 X147.938 Y162.669 
G1 X147.544 Y161.931 
G1 X147.463 Y161.631 
G1 X147.463 Y160.431 
G1 X147.463 Y160.431 
G1 X147.463 Y160.300 
G1 X147.488 Y160.175 
G1 X147.544 Y160.056 
G1 X147.619 Y159.956 
G0 Z5.000 
G0 X147.619 Y159.956 
G0 X147.631 Y155.369 
G1 Z-3.000 
G1 X147.631 Y155.369 
G1 X147.556 Y155.275 
G1 X147.500 Y155.169 
G1 X147.463 Y155.050 
G1 X147.456 Y154.925 
G1 X147.456 Y154.925 
G1 X147.488 Y152.925 
G1 X147.575 Y152.425 
G1 X148.194 Y151.156 
G1 X148.306 Y150.981 
G1 X148.750 Y150.375 
G1 X149.244 Y149.812 
G1 X149.775 Y149.281 
G1 X151.088 Y148.175 
G1 X151.262 Y148.081 
G1 X151.356 Y148.056 
G1 X151.356 Y148.056 
G1 X151.481 Y148.056 
G1 X151.600 Y148.081 
G1 X151.713 Y148.131 
G1 X151.812 Y148.206 
G0 Z5.000 
G0 X151.812 Y148.206 
G0 X147.631 Y153.088 
G1 Z-3.000 
G1 X147.631 Y153.088 
G1 X147.556 Y152.994 
G1 X147.500 Y152.887 
G1 X147.463 Y152.769 
G1 X147.456 Y152.644 
G1 X147.456 Y152.644 
G1 X147.481 Y151.444 
G1 X147.581 Y150.844 
G1 X147.781 Y150.375 
G1 X148.256 Y149.600 
G1 X148.744 Y149.025 
G1 X149.531 Y148.188 
G1 X149.606 Y148.125 
G1 X149.694 Y148.081 
G1 X149.787 Y148.056 
G1 X149.787 Y148.056 
G1 X149.912 Y148.056 
G1 X150.031 Y148.081 
G1 X150.144 Y148.131 
G1 X150.244 Y148.206 
G0 Z5.000 
G0 X150.244 Y148.206 
G0 X147.631 Y151.531 
G1 Z-3.000 
G1 X147.631 Y151.531 
G1 X147.556 Y151.438 
G1 X147.500 Y151.331 
G1 X147.463 Y151.213 
G1 X147.456 Y151.088 
G1 X147.456 Y151.088 
G1 X147.481 Y149.988 
G1 X147.569 Y149.488 
G1 X147.731 Y149.106 
G1 X148.144 Y148.419 
G1 X148.331 Y148.181 
G1 X148.406 Y148.113 
G1 X148.494 Y148.069 
G1 X148.588 Y148.056 
G1 X148.588 Y148.056 
G1 X148.713 Y148.056 
G1 X148.831 Y148.081 
G1 X148.944 Y148.131 
G1 X149.044 Y148.206 
G0 Z5.000 
G0 X149.044 Y148.206 
G0 X147.631 Y150.088 
G1 Z-3.000 
G1 X147.631 Y150.088 
G1 X147.556 Y149.994 
G1 X147.500 Y149.887 
G1 X147.463 Y149.769 
G1 X147.456 Y149.644 
G1 X147.456 Y149.644 
G1 X147.475 Y148.744 
G1 X147.544 Y148.344 
G1 X147.575 Y148.250 
G1 X147.625 Y148.162 
G1 X147.694 Y148.094 
G1 X147.781 Y148.056 
G1 X147.781 Y148.056 
G1 X147.906 Y148.056 
G1 X148.025 Y148.094 
G1 X148.025 Y148.094 
G1 X147.506 Y148.681 
G1 X147.506 Y148.681 
G1 X147.463 Y148.569 
G1 X147.456 Y148.444 
G1 X147.456 Y148.444 
G1 X147.463 Y148.244 
G1 X147.506 Y148.150 
G1 X147.581 Y148.088 
G1 X147.581 Y148.088 
G1 X147.700 Y148.056 
G1 X147.825 Y148.056 
G1 X147.950 Y148.062 
G1 X148.069 Y148.075 
G0 Z5.000 
G0 X148.069 Y148.075 
G0 X160.244 Y148.213 
G1 Z-3.000 
G1 X160.244 Y148.213 
G1 X160.344 Y148.137 
G1 X160.463 Y148.081 
G1 X160.588 Y148.056 
G1 X160.719 Y148.056 
G1 X160.719 Y148.056 
G1 X162.125 Y148.081 
G1 X162.688 Y148.194 
G1 X163.700 Y148.719 
G1 X163.938 Y148.887 
G1 X164.525 Y149.344 
G1 X165.062 Y149.856 
G1 X166.069 Y151.100 
G1 X166.262 Y151.431 
G1 X166.338 Y151.706 
G1 X166.338 Y153.206 
G1 X166.338 Y153.206 
G1 X166.331 Y153.331 
G1 X166.300 Y153.450 
G1 X166.244 Y153.562 
G1 X166.162 Y153.662 
G0 Z5.000 
G0 X166.162 Y153.662 
G0 X161.925 Y148.213 
G1 Z-3.000 
G1 X161.925 Y148.213 
G1 X162.025 Y148.137 
G1 X162.144 Y148.081 
G1 X162.269 Y148.056 
G1 X162.400 Y148.056 
G1 X162.400 Y148.056 
G1 X163.525 Y148.075 
G1 X164.088 Y148.181 
G1 X164.844 Y148.594 
G1 X165.231 Y148.875 
G1 X165.994 Y149.575 
G1 X166.244 Y149.869 
G1 X166.319 Y150.044 
G1 X166.338 Y150.137 
G1 X166.338 Y150.887 
G1 X166.338 Y150.887 
G1 X166.331 Y151.012 
G1 X166.300 Y151.131 
G1 X166.244 Y151.244 
G1 X166.162 Y151.344 
G0 Z5.000 
G0 X166.162 Y151.344 
G0 X163.369 Y148.213 
G1 Z-3.000 
G1 X163.369 Y148.213 
G1 X163.469 Y148.137 
G1 X163.588 Y148.081 
G1 X163.713 Y148.056 
G1 X163.844 Y148.056 
G1 X163.844 Y148.056 
G1 X164.781 Y148.069 
G1 X165.250 Y148.156 
G1 X165.600 Y148.312 
G1 X166.150 Y148.706 
G1 X166.275 Y148.850 
G1 X166.319 Y148.938 
G1 X166.338 Y149.031 
G1 X166.338 Y149.219 
G1 X166.338 Y149.219 
G1 X166.331 Y149.344 
G1 X166.300 Y149.463 
G1 X166.244 Y149.575 
G1 X166.162 Y149.675 
G0 Z5.000 
G0 X166.162 Y149.675 
G0 X164.688 Y148.213 
G1 Z-3.000 
G1 X164.688 Y148.213 
G1 X164.787 Y148.137 
G1 X164.906 Y148.081 
G1 X165.031 Y148.056 
G1 X165.162 Y148.056 
G1 X165.162 Y148.056 
G1 X165.819 Y148.069 
G1 X166.100 Y148.125 
G1 X166.188 Y148.156 
G1 X166.262 Y148.213 
G1 X166.325 Y148.287 
G1 X166.338 Y148.381 
G1 X166.338 Y148.381 
G1 X166.331 Y148.506 
G1 X166.331 Y148.506 
G1 X165.988 Y148.056 
G1 X165.988 Y148.056 
G1 X166.119 Y148.056 
G1 X166.119 Y148.056 
G1 X166.213 Y148.081 
G1 X166.287 Y148.144 
G1 X166.331 Y148.225 
G1 X166.331 Y148.225 
G1 X166.338 Y148.350 
G1 X166.325 Y148.475 
G1 X166.300 Y148.594 
G1 X166.262 Y148.713 
G0 Z5.000 
G0 X166.262 Y148.713 
G0 X166.162 Y159.931 
G1 Z-3.000 
G1 X166.162 Y159.931 
G1 X166.244 Y160.037 
G1 X166.300 Y160.156 
G1 X166.331 Y160.281 
G1 X166.331 Y160.412 
G1 X166.331 Y160.412 
G1 X166.306 Y161.912 
G1 X166.194 Y162.475 
G1 X165.750 Y163.463 
G1 X165.113 Y164.525 
G1 X164.656 Y165.119 
G1 X164.144 Y165.669 
G1 X163.725 Y166.044 
G1 X163.287 Y166.381 
G1 X162.500 Y166.831 
G1 X162.206 Y166.931 
G1 X160.606 Y166.938 
G1 X160.606 Y166.938 
G1 X160.475 Y166.931 
G1 X160.350 Y166.900 
G1 X160.231 Y166.838 
G1 X160.125 Y166.756 
G0 Z5.000 
G0 X160.125 Y166.756 
G0 X166.162 Y161.731 
G1 Z-3.000 
G1 X166.162 Y161.731 
G1 X166.244 Y161.838 
G1 X166.300 Y161.956 
G1 X166.331 Y162.081 
G1 X166.331 Y162.213 
G1 X166.331 Y162.213 
G1 X166.306 Y163.244 
G1 X166.200 Y163.806 
G1 X165.881 Y164.525 
G1 X165.531 Y165.119 
G1 X165.119 Y165.744 
G1 X164.625 Y166.306 
G1 X163.894 Y166.850 
G1 X163.700 Y166.919 
G1 X163.600 Y166.938 
G1 X163.000 Y166.938 
G1 X163.000 Y166.938 
G1 X162.869 Y166.931 
G1 X162.744 Y166.900 
G1 X162.625 Y166.838 
G1 X162.519 Y166.756 
G0 Z5.000 
G0 X162.519 Y166.756 
G0 X166.162 Y163.050 
G1 Z-3.000 
G1 X166.162 Y163.050 
G1 X166.244 Y163.156 
G1 X166.300 Y163.275 
G1 X166.331 Y163.400 
G1 X166.331 Y163.531 
G1 X166.331 Y163.531 
G1 X166.306 Y164.562 
G1 X166.231 Y164.938 
G1 X165.969 Y165.562 
G1 X165.525 Y166.225 
G1 X165.062 Y166.738 
G1 X164.906 Y166.863 
G1 X164.719 Y166.938 
G1 X164.519 Y166.938 
G1 X164.519 Y166.938 
G1 X164.387 Y166.931 
G1 X164.262 Y166.900 
G1 X164.144 Y166.838 
G1 X164.037 Y166.756 
G0 Z5.000 
G0 X164.037 Y166.756 
G0 X166.162 Y164.375 
G1 Z-3.000 
G1 X166.162 Y164.375 
G1 X166.244 Y164.481 
G1 X166.300 Y164.600 
G1 X166.331 Y164.725 
G1 X166.331 Y164.856 
G1 X166.331 Y164.856 
G1 X166.312 Y165.606 
G1 X166.238 Y165.981 
G1 X166.125 Y166.256 
G1 X165.919 Y166.588 
G1 X165.725 Y166.806 
G1 X165.650 Y166.869 
G1 X165.556 Y166.912 
G1 X165.456 Y166.938 
G1 X165.456 Y166.938 
G1 X165.325 Y166.931 
G1 X165.200 Y166.900 
G1 X165.081 Y166.838 
G1 X164.975 Y166.756 
G0 Z5.000 
G0 X164.975 Y166.756 
G0 X166.162 Y165.331 
G1 Z-3.000 
G1 X166.162 Y165.331 
G1 X166.244 Y165.438 
G1 X166.300 Y165.556 
G1 X166.331 Y165.681 
G1 X166.331 Y165.812 
G1 X166.331 Y165.812 
G1 X166.325 Y166.281 
G1 X166.256 Y166.656 
G1 X166.219 Y166.750 
G1 X166.094 Y166.900 
G1 X166.000 Y166.938 
G1 X165.900 Y166.938 
G1 X165.900 Y166.938 
G1 X165.769 Y166.931 
G1 X165.644 Y166.887 
G1 X165.644 Y166.887 
G1 X166.287 Y166.400 
G1 X166.287 Y166.400 
G1 X166.331 Y166.525 
G1 X166.331 Y166.656 
G1 X166.331 Y166.656 
G1 X166.331 Y166.750 
G1 X166.294 Y166.838 
G1 X166.219 Y166.906 
G1 X166.125 Y166.938 
G1 X166.125 Y166.938 
G1 X165.994 Y166.931 
G1 X165.869 Y166.900 
G1 X165.750 Y166.838 
G1 X165.644 Y166.756 
G0 Z5.000 
G0 X165.644 Y166.756 
G0 X154.137 Y166.769 
G1 Z-3.000 
G1 X154.137 Y166.769 
G1 X154.037 Y166.850 
G1 X153.925 Y166.906 
G1 X153.806 Y166.938 
G1 X153.681 Y166.938 
G1 X153.681 Y166.938 
G1 X152.181 Y166.912 
G1 X151.581 Y166.806 
G1 X150.812 Y166.488 
G1 X150.175 Y166.131 
G1 X149.531 Y165.738 
G1 X148.938 Y165.275 
G1 X148.406 Y164.775 
G1 X147.575 Y163.775 
G1 X147.481 Y163.594 
G1 X147.463 Y163.494 
G1 X147.463 Y163.294 
G1 X147.463 Y163.294 
G1 X147.463 Y163.162 
G1 X147.488 Y163.037 
G1 X147.544 Y162.919 
G1 X147.619 Y162.819 
G0 Z5.000 
G0 X147.619 Y162.819 
G0 X152.338 Y166.769 
G1 Z-3.000 
G1 X152.338 Y166.769 
G1 X152.238 Y166.850 
G1 X152.125 Y166.906 
G1 X152.006 Y166.938 
G1 X151.881 Y166.938 
G1 X151.881 Y166.938 
G1 X150.781 Y166.919 
G1 X150.181 Y166.812 
G1 X149.150 Y166.331 
G1 X148.800 Y166.100 
G1 X148.106 Y165.594 
G1 X147.581 Y165.100 
G1 X147.519 Y165.019 
G1 X147.475 Y164.925 
G1 X147.463 Y164.825 
G1 X147.463 Y164.825 
G1 X147.463 Y164.694 
G1 X147.488 Y164.569 
G1 X147.544 Y164.450 
G1 X147.619 Y164.350 
G0 Z5.000 
G0 X147.619 Y164.350 
G0 X150.900 Y166.769 
G1 Z-3.000 
G1 X150.900 Y166.769 
G1 X150.800 Y166.850 
G1 X150.688 Y166.906 
G1 X150.569 Y166.938 
G1 X150.444 Y166.938 
G1 X150.444 Y166.938 
G1 X149.544 Y166.925 
G1 X149.144 Y166.875 
G1 X148.744 Y166.756 
G1 X148.094 Y166.425 
G1 X147.831 Y166.250 
G1 X147.588 Y166.044 
G1 X147.519 Y165.969 
G1 X147.469 Y165.875 
G1 X147.469 Y165.875 
G1 X147.469 Y165.744 
G1 X147.494 Y165.619 
G1 X147.550 Y165.500 
G1 X147.625 Y165.400 
G0 Z5.000 
G0 X147.625 Y165.400 
G0 X149.575 Y166.769 
G1 Z-3.000 
G1 X149.575 Y166.769 
G1 X149.475 Y166.850 
G1 X149.363 Y166.906 
G1 X149.244 Y166.938 
G1 X149.119 Y166.938 
G1 X149.119 Y166.938 
G1 X148.319 Y166.925 
G1 X147.919 Y166.850 
G1 X147.725 Y166.769 
G1 X147.556 Y166.650 
G1 X147.494 Y166.562 
G1 X147.463 Y166.463 
G1 X147.463 Y166.463 
G1 X147.463 Y166.331 
G1 X147.494 Y166.206 
G1 X147.494 Y166.206 
G1 X148.287 Y166.900 
G1 X148.287 Y166.900 
G1 X148.169 Y166.938 
G1 X148.044 Y166.938 
G1 X148.044 Y166.938 
G1 X147.744 Y166.931 
G1 X147.544 Y166.887 
G1 X147.475 Y166.806 
G1 X147.475 Y166.806 
G1 X147.412 Y166.694 
G1 X147.412 Y166.562 
G1 X147.431 Y166.438 
G1 X147.463 Y166.312 
G0 Z5.000 
G0 X147.463 Y166.312 
G0 X147.412 Y148.344 
G1 Z-3.000 
G1 X147.412 Y148.344 
G1 X147.425 Y148.219 
G1 X147.488 Y148.106 
G1 X147.588 Y148.031 
G1 X147.713 Y148.000 
G1 X147.713 Y148.000 
G1 X165.988 Y148.000 
G1 X166.194 Y148.012 
G1 X166.344 Y148.125 
G1 X166.387 Y148.219 
G1 X166.400 Y148.312 
G1 X166.387 Y166.719 
G1 X166.356 Y166.844 
G1 X166.262 Y166.944 
G1 X166.181 Y166.988 
G1 X166.081 Y167.000 
G1 X147.681 Y166.994 
G1 X147.556 Y166.963 
G1 X147.456 Y166.869 
G1 X147.412 Y166.781 
G1 X147.400 Y166.669 
G1 X147.406 Y148.281 
G1 X147.419 Y148.200 
G1 X147.481 Y148.100 
G1 X147.537 Y148.050 
G1 X147.619 Y148.012 
G1 X147.713 Y148.000 
G1 X147.713 Y148.000 
G0 Z5.000 
(Helix to depth: -3.500000) 
G0 Z5.000 
G0 X155.626 Y159.340 Z5.000 
G0 X155.626 Y159.340 Z3.000 
G1 X155.626 Y159.340 Z-3.000 
G1 X155.626 Y159.340 Z-3.000 
G1 X155.290 Y159.058 Z-3.039 
G1 X155.016 Y158.715 Z-3.077 
G1 X154.814 Y158.325 Z-3.116 
G1 X154.691 Y157.903 Z-3.155 
G1 X154.654 Y157.466 Z-3.193 
G1 X154.702 Y157.029 Z-3.232 
G1 X154.835 Y156.611 Z-3.271 
G1 X155.047 Y156.226 Z-3.309 
G1 X155.330 Y155.890 Z-3.348 
G1 X155.673 Y155.616 Z-3.387 
G1 X156.063 Y155.414 Z-3.425 
G1 X156.484 Y155.291 Z-3.464 
G1 X156.894 Y155.254 Z-3.500 
G1 X157.331 Y155.297 Z-3.500 
G1 X157.751 Y155.424 Z-3.500 
G1 X158.138 Y155.631 Z-3.500 
G1 X158.478 Y155.910 Z-3.500 
G1 X158.756 Y156.249 Z-3.500 
G1 X158.963 Y156.637 Z-3.500 
G1 X159.091 Y157.057 Z-3.500 
G1 X159.134 Y157.494 Z-3.500 
G1 X159.091 Y157.931 Z-3.500 
G1 X158.963 Y158.351 Z-3.500 
G1 X158.756 Y158.738 Z-3.500 
G1 X158.478 Y159.078 Z-3.500 
G1 X158.138 Y159.356 Z-3.500 
G1 X157.751 Y159.563 Z-3.500 
G1 X157.331 Y159.691 Z-3.500 
G1 X156.894 Y159.734 Z-3.500 
G1 X156.457 Y159.691 Z-3.500 
G1 X156.037 Y159.563 Z-3.500 
G1 X155.649 Y159.356 Z-3.500 
G1 X155.310 Y159.078 Z-3.500 
G1 X155.031 Y158.738 Z-3.500 
G1 X154.824 Y158.351 Z-3.500 
G1 X154.697 Y157.931 Z-3.500 
G1 X154.654 Y157.494 Z-3.500 
G1 X154.697 Y157.057 Z-3.500 
G1 X154.824 Y156.637 Z-3.500 
G1 X155.031 Y156.249 Z-3.500 
G1 X155.310 Y155.910 Z-3.500 
G1 X155.649 Y155.631 Z-3.500 
G1 X156.037 Y155.424 Z-3.500 
G1 X156.457 Y155.297 Z-3.500 
(Adaptive - depth: -3.500000) 
G1 X156.894 Y155.244 
G1 X156.963 Y155.169 
G1 X157.238 Y155.050 
G1 X157.519 Y155.006 
G1 X157.706 Y155.012 
G1 X158.356 Y155.200 
G1 X158.688 Y155.406 
G1 X158.875 Y155.556 
G1 X159.062 Y155.750 
G1 X159.262 Y156.012 
G1 X159.469 Y156.369 
G1 X159.606 Y156.738 
G1 X159.688 Y157.069 
G1 X159.731 Y157.444 
G1 X159.719 Y157.812 
G1 X159.650 Y158.175 
G1 X159.544 Y158.500 
G1 X159.387 Y158.825 
G1 X159.200 Y159.125 
G1 X158.944 Y159.438 
G1 X158.644 Y159.719 
G1 X158.319 Y159.938 
G1 X158.006 Y160.088 
G1 X157.700 Y160.200 
G1 X157.312 Y160.287 
G1 X156.894 Y160.319 
G1 X156.519 Y160.294 
G1 X156.169 Y160.231 
G1 X155.806 Y160.106 
G1 X155.469 Y159.950 
G1 X155.125 Y159.725 
G1 X154.838 Y159.469 
G1 X154.613 Y159.213 
G1 X154.406 Y158.900 
G1 X154.250 Y158.569 
G1 X154.137 Y158.225 
G1 X154.062 Y157.869 
G1 X154.031 Y157.463 
G1 X154.056 Y157.044 
G1 X154.144 Y156.656 
G1 X154.262 Y156.344 
G1 X154.412 Y156.044 
G1 X154.625 Y155.725 
G1 X154.900 Y155.419 
G1 X155.181 Y155.175 
G1 X155.494 Y154.950 
G1 X155.887 Y154.719 
G1 X156.375 Y154.512 
G1 X156.806 Y154.400 
G1 X157.162 Y154.356 
G1 X157.506 Y154.350 
G1 X157.925 Y154.406 
G1 X158.281 Y154.506 
G1 X158.631 Y154.650 
G1 X158.969 Y154.844 
G1 X159.269 Y155.075 
G1 X159.544 Y155.344 
G1 X159.781 Y155.644 
G1 X159.981 Y155.969 
G1 X160.150 Y156.356 
G1 X160.275 Y156.731 
G1 X160.356 Y157.156 
G1 X160.381 Y157.569 
G1 X160.344 Y157.981 
G1 X160.275 Y158.319 
G1 X160.156 Y158.694 
G1 X159.975 Y159.094 
G1 X159.744 Y159.475 
G1 X159.488 Y159.812 
G1 X159.175 Y160.119 
G1 X158.875 Y160.356 
G1 X158.519 Y160.569 
G1 X158.137 Y160.738 
G1 X157.756 Y160.856 
G1 X157.356 Y160.938 
G1 X156.900 Y160.969 
G1 X156.481 Y160.950 
G1 X156.062 Y160.869 
G1 X155.700 Y160.769 
G1 X155.275 Y160.588 
G1 X154.906 Y160.375 
G1 X154.569 Y160.131 
G1 X154.262 Y159.825 
G1 X154.031 Y159.537 
G1 X153.819 Y159.194 
G1 X153.644 Y158.838 
G1 X153.494 Y158.394 
G1 X153.406 Y157.981 
G1 X153.363 Y157.556 
G1 X153.369 Y157.125 
G1 X153.425 Y156.700 
G1 X153.544 Y156.287 
G1 X153.681 Y155.950 
G1 X153.869 Y155.594 
G1 X154.113 Y155.231 
G1 X154.425 Y154.875 
G1 X154.744 Y154.575 
G1 X155.106 Y154.306 
G1 X155.494 Y154.069 
G1 X155.944 Y153.863 
G1 X156.387 Y153.725 
G1 X156.781 Y153.644 
G1 X157.231 Y153.606 
G1 X157.669 Y153.637 
G1 X158.044 Y153.700 
G1 X158.450 Y153.819 
G1 X158.831 Y153.969 
G1 X159.269 Y154.213 
G1 X159.631 Y154.463 
G1 X159.956 Y154.762 
G1 X160.219 Y155.062 
G1 X160.463 Y155.412 
G1 X160.669 Y155.781 
G1 X160.850 Y156.231 
G1 X160.969 Y156.656 
G1 X161.044 Y157.094 
G1 X161.069 Y157.550 
G1 X161.044 Y157.994 
G1 X160.969 Y158.444 
G1 X160.850 Y158.881 
G1 X160.681 Y159.306 
G1 X160.469 Y159.706 
G1 X160.213 Y160.081 
G1 X159.919 Y160.425 
G1 X159.575 Y160.725 
G1 X159.262 Y160.944 
G1 X158.894 Y161.162 
G1 X158.431 Y161.375 
G1 X157.938 Y161.544 
G1 X157.463 Y161.631 
G1 X157.069 Y161.669 
G1 X156.613 Y161.669 
G1 X156.125 Y161.606 
G1 X155.688 Y161.506 
G1 X155.244 Y161.363 
G1 X154.762 Y161.144 
G1 X154.363 Y160.881 
G1 X154.069 Y160.637 
G1 X153.787 Y160.356 
G1 X153.481 Y159.994 
G1 X153.194 Y159.544 
G1 X152.981 Y159.137 
G1 X152.800 Y158.688 
G1 X152.681 Y158.213 
G1 X152.619 Y157.806 
G1 X152.600 Y157.350 
G1 X152.637 Y156.900 
G1 X152.719 Y156.469 
G1 X152.838 Y156.037 
G1 X153.037 Y155.556 
G1 X153.256 Y155.144 
G1 X153.519 Y154.750 
G1 X153.831 Y154.375 
G1 X154.169 Y154.044 
G1 X154.544 Y153.744 
G1 X154.944 Y153.475 
G1 X155.431 Y153.225 
G1 X155.894 Y153.037 
G1 X156.381 Y152.919 
G1 X156.769 Y152.863 
G1 X157.225 Y152.838 
G1 X157.731 Y152.875 
G1 X158.169 Y152.950 
G1 X158.625 Y153.075 
G1 X159.062 Y153.244 
G1 X159.519 Y153.475 
G1 X159.925 Y153.738 
G1 X160.306 Y154.044 
G1 X160.650 Y154.400 
G1 X160.906 Y154.725 
G1 X161.162 Y155.113 
G1 X161.400 Y155.562 
G1 X161.588 Y156.044 
G1 X161.725 Y156.519 
G1 X161.794 Y157.019 
G1 X161.825 Y157.425 
G1 X161.812 Y157.938 
G1 X161.738 Y158.469 
G1 X161.631 Y158.938 
G1 X161.469 Y159.419 
G1 X161.256 Y159.881 
G1 X160.981 Y160.300 
G1 X160.738 Y160.613 
G1 X160.419 Y160.950 
G1 X160.044 Y161.287 
G1 X159.581 Y161.619 
G1 X159.144 Y161.875 
G1 X158.669 Y162.100 
G1 X158.156 Y162.256 
G1 X157.750 Y162.344 
G1 X157.269 Y162.406 
G1 X156.738 Y162.425 
G1 X156.188 Y162.394 
G1 X155.675 Y162.300 
G1 X155.231 Y162.181 
G1 X154.756 Y161.994 
G1 X154.312 Y161.762 
G1 X153.906 Y161.500 
G1 X153.519 Y161.188 
G1 X153.169 Y160.844 
G1 X152.850 Y160.469 
G1 X152.575 Y160.062 
G1 X152.344 Y159.631 
G1 X152.144 Y159.181 
G1 X151.975 Y158.650 
G1 X151.869 Y158.150 
G1 X151.819 Y157.631 
G1 X151.812 Y157.175 
G1 X151.863 Y156.681 
G1 X151.963 Y156.200 
G1 X152.094 Y155.738 
G1 X152.300 Y155.231 
G1 X152.531 Y154.787 
G1 X152.806 Y154.363 
G1 X153.125 Y153.950 
G1 X153.519 Y153.537 
G1 X153.919 Y153.188 
G1 X154.350 Y152.869 
G1 X154.819 Y152.594 
G1 X155.312 Y152.381 
G1 X155.750 Y152.231 
G1 X156.244 Y152.113 
G1 X156.738 Y152.050 
G1 X157.219 Y152.025 
G1 X157.775 Y152.056 
G1 X158.275 Y152.137 
G1 X158.775 Y152.262 
G1 X159.269 Y152.444 
G1 X159.738 Y152.662 
G1 X160.188 Y152.925 
G1 X160.606 Y153.231 
G1 X160.994 Y153.575 
G1 X161.350 Y153.956 
G1 X161.669 Y154.369 
G1 X161.944 Y154.812 
G1 X162.175 Y155.281 
G1 X162.363 Y155.769 
G1 X162.506 Y156.269 
G1 X162.600 Y156.781 
G1 X162.644 Y157.300 
G1 X162.637 Y157.819 
G1 X162.581 Y158.338 
G1 X162.475 Y158.850 
G1 X162.331 Y159.350 
G1 X162.113 Y159.900 
G1 X161.850 Y160.375 
G1 X161.600 Y160.756 
G1 X161.281 Y161.169 
G1 X160.875 Y161.588 
G1 X160.481 Y161.931 
G1 X160.044 Y162.250 
G1 X159.575 Y162.525 
G1 X159.094 Y162.750 
G1 X158.588 Y162.931 
G1 X158.062 Y163.069 
G1 X157.531 Y163.156 
G1 X156.994 Y163.206 
G1 X156.387 Y163.200 
G1 X155.831 Y163.150 
G1 X155.281 Y163.019 
G1 X154.863 Y162.887 
G1 X154.381 Y162.700 
G1 X153.863 Y162.431 
G1 X153.375 Y162.125 
G1 X152.950 Y161.762 
G1 X152.656 Y161.469 
G1 X152.325 Y161.094 
G1 X151.963 Y160.600 
G1 X151.644 Y160.069 
G1 X151.406 Y159.544 
G1 X151.244 Y159.100 
G1 X151.106 Y158.569 
G1 X151.025 Y158.044 
G1 X150.994 Y157.531 
G1 X151.000 Y157.006 
G1 X151.069 Y156.412 
G1 X151.175 Y155.875 
G1 X151.331 Y155.344 
G1 X151.544 Y154.819 
G1 X151.794 Y154.325 
G1 X152.088 Y153.850 
G1 X152.425 Y153.406 
G1 X152.800 Y152.994 
G1 X153.206 Y152.619 
G1 X153.650 Y152.281 
G1 X154.119 Y151.981 
G1 X154.613 Y151.725 
G1 X155.125 Y151.519 
G1 X155.656 Y151.356 
G1 X156.200 Y151.244 
G1 X156.750 Y151.181 
G1 X157.300 Y151.169 
G1 X157.850 Y151.206 
G1 X158.394 Y151.294 
G1 X158.931 Y151.425 
G1 X159.450 Y151.606 
G1 X159.956 Y151.825 
G1 X160.500 Y152.125 
G1 X160.975 Y152.438 
G1 X161.412 Y152.812 
G1 X161.750 Y153.150 
G1 X162.106 Y153.556 
G1 X162.463 Y154.050 
G1 X162.781 Y154.581 
G1 X163.019 Y155.119 
G1 X163.181 Y155.562 
G1 X163.319 Y156.100 
G1 X163.412 Y156.625 
G1 X163.463 Y157.225 
G1 X163.456 Y157.781 
G1 X163.406 Y158.344 
G1 X163.306 Y158.906 
G1 X163.156 Y159.450 
G1 X162.963 Y159.981 
G1 X162.719 Y160.500 
G1 X162.431 Y160.988 
G1 X162.100 Y161.456 
G1 X161.731 Y161.894 
G1 X161.325 Y162.300 
G1 X160.881 Y162.669 
G1 X160.406 Y163.000 
G1 X159.906 Y163.287 
G1 X159.381 Y163.531 
G1 X158.838 Y163.725 
G1 X158.281 Y163.875 
G1 X157.713 Y163.975 
G1 X157.137 Y164.025 
G1 X156.562 Y164.025 
G1 X155.988 Y163.988 
G1 X155.344 Y163.887 
G1 X154.769 Y163.725 
G1 X154.300 Y163.562 
G1 X153.775 Y163.331 
G1 X153.225 Y163.019 
G1 X152.762 Y162.706 
G1 X152.312 Y162.319 
G1 X151.975 Y161.975 
G1 X151.619 Y161.569 
G1 X151.238 Y161.050 
G1 X150.887 Y160.475 
G1 X150.637 Y159.919 
G1 X150.469 Y159.475 
G1 X150.319 Y158.919 
G1 X150.219 Y158.387 
G1 X150.144 Y157.750 
G1 X150.125 Y157.094 
G1 X150.175 Y156.488 
G1 X150.250 Y155.994 
G1 X150.394 Y155.431 
G1 X150.562 Y154.900 
G1 X150.825 Y154.281 
G1 X151.100 Y153.756 
G1 X151.419 Y153.250 
G1 X151.794 Y152.756 
G1 X152.200 Y152.306 
G1 X152.656 Y151.894 
G1 X153.069 Y151.569 
G1 X153.556 Y151.256 
G1 X154.062 Y150.994 
G1 X154.569 Y150.769 
G1 X155.188 Y150.562 
G1 X155.762 Y150.419 
G1 X156.350 Y150.319 
G1 X156.956 Y150.275 
G1 X157.550 Y150.275 
G1 X158.150 Y150.325 
G1 X158.744 Y150.425 
G1 X159.319 Y150.594 
G1 X159.787 Y150.756 
G1 X160.369 Y151.025 
G1 X160.869 Y151.300 
G1 X161.400 Y151.656 
G1 X161.881 Y152.037 
G1 X162.325 Y152.450 
G1 X162.744 Y152.912 
G1 X163.119 Y153.400 
G1 X163.438 Y153.925 
G1 X163.669 Y154.381 
G1 X163.881 Y154.919 
G1 X164.056 Y155.456 
G1 X164.206 Y156.113 
G1 X164.294 Y156.706 
G1 X164.338 Y157.312 
G1 X164.325 Y157.938 
G1 X164.269 Y158.544 
G1 X164.144 Y159.144 
G1 X164.000 Y159.631 
G1 X163.812 Y160.181 
G1 X163.506 Y160.825 
G1 X163.219 Y161.344 
G1 X162.875 Y161.863 
G1 X162.475 Y162.363 
G1 X162.056 Y162.812 
G1 X161.581 Y163.219 
G1 X161.175 Y163.512 
G1 X160.688 Y163.825 
G1 X160.106 Y164.137 
G1 X159.475 Y164.412 
G1 X158.875 Y164.625 
G1 X158.225 Y164.775 
G1 X157.706 Y164.856 
G1 X157.106 Y164.900 
G1 X156.519 Y164.900 
G1 X155.856 Y164.844 
G1 X155.244 Y164.744 
G1 X154.631 Y164.594 
G1 X154.025 Y164.394 
G1 X153.444 Y164.150 
G1 X152.900 Y163.838 
G1 X152.494 Y163.569 
G1 X152.037 Y163.225 
G1 X151.519 Y162.762 
G1 X151.037 Y162.256 
G1 X150.637 Y161.744 
G1 X150.331 Y161.287 
G1 X150.025 Y160.744 
G1 X149.775 Y160.194 
G1 X149.575 Y159.637 
G1 X149.419 Y159.056 
G1 X149.312 Y158.469 
G1 X149.244 Y157.875 
G1 X149.225 Y157.194 
G1 X149.256 Y156.569 
G1 X149.338 Y155.938 
G1 X149.469 Y155.306 
G1 X149.644 Y154.700 
G1 X149.869 Y154.100 
G1 X150.144 Y153.519 
G1 X150.463 Y152.963 
G1 X150.844 Y152.450 
G1 X151.156 Y152.062 
G1 X151.619 Y151.575 
G1 X152.131 Y151.131 
G1 X152.606 Y150.769 
G1 X153.150 Y150.425 
G1 X153.713 Y150.125 
G1 X154.287 Y149.875 
G1 X154.887 Y149.669 
G1 X155.500 Y149.512 
G1 X156.119 Y149.400 
G1 X156.750 Y149.338 
G1 X157.381 Y149.325 
G1 X158.012 Y149.363 
G1 X158.637 Y149.450 
G1 X159.256 Y149.588 
G1 X159.863 Y149.775 
G1 X160.450 Y150.006 
G1 X161.019 Y150.287 
G1 X161.562 Y150.613 
G1 X162.081 Y150.975 
G1 X162.569 Y151.381 
G1 X163.025 Y151.825 
G1 X163.444 Y152.300 
G1 X163.825 Y152.806 
G1 X164.162 Y153.344 
G1 X164.456 Y153.906 
G1 X164.706 Y154.488 
G1 X164.906 Y155.088 
G1 X165.062 Y155.700 
G1 X165.169 Y156.325 
G1 X165.225 Y156.956 
G1 X165.231 Y157.588 
G1 X165.188 Y158.219 
G1 X165.106 Y158.850 
G1 X164.956 Y159.556 
G1 X164.769 Y160.188 
G1 X164.512 Y160.806 
G1 X164.275 Y161.281 
G1 X163.969 Y161.819 
G1 X163.575 Y162.406 
G1 X163.113 Y162.988 
G1 X162.619 Y163.469 
G1 X162.256 Y163.787 
G1 X161.775 Y164.162 
G1 X161.150 Y164.581 
G1 X160.494 Y164.950 
G1 X159.844 Y165.219 
G1 X159.363 Y165.387 
G1 X158.750 Y165.562 
G1 X158.050 Y165.688 
G1 X157.444 Y165.756 
G1 X156.800 Y165.781 
G1 X156.150 Y165.750 
G1 X155.519 Y165.675 
G1 X154.881 Y165.569 
G1 X154.150 Y165.381 
G1 X153.494 Y165.125 
G1 X153.012 Y164.912 
G1 X152.431 Y164.588 
G1 X151.919 Y164.244 
G1 X151.438 Y163.887 
G1 X150.887 Y163.387 
G1 X150.438 Y162.919 
G1 X150.019 Y162.419 
G1 X149.625 Y161.863 
G1 X149.287 Y161.294 
G1 X148.988 Y160.700 
G1 X148.762 Y160.075 
G1 X148.619 Y159.588 
G1 X148.481 Y159.000 
G1 X148.369 Y158.262 
G1 X148.306 Y157.512 
G1 X148.294 Y156.825 
G1 X148.369 Y156.100 
G1 X148.450 Y155.581 
G1 X148.588 Y154.963 
G1 X148.794 Y154.269 
G1 X149.062 Y153.569 
G1 X149.381 Y152.944 
G1 X149.656 Y152.469 
G1 X150.031 Y151.931 
G1 X150.438 Y151.450 
G1 X150.856 Y151.012 
G1 X151.312 Y150.581 
G1 X151.906 Y150.119 
G1 X152.463 Y149.738 
G1 X153.062 Y149.381 
G1 X153.713 Y149.062 
G1 X155.213 Y148.569 
G1 X156.338 Y148.369 
G1 X157.650 Y148.319 
G1 X159.150 Y148.506 
G1 X160.356 Y148.875 
G1 X161.037 Y149.188 
G1 X161.694 Y149.544 
G1 X162.319 Y149.950 
G1 X162.850 Y150.369 
G1 X163.287 Y150.762 
G1 X163.781 Y151.256 
G1 X164.256 Y151.831 
G1 X164.662 Y152.381 
G1 X165.025 Y153.000 
G1 X165.281 Y153.512 
G1 X165.531 Y154.119 
G1 X165.812 Y155.006 
G1 X166.050 Y156.319 
G1 X166.056 Y158.194 
G1 X165.894 Y159.225 
G1 X165.512 Y160.444 
G1 X165.269 Y161.150 
G1 X164.963 Y161.831 
G1 X164.594 Y162.481 
G1 X164.219 Y163.019 
G1 X163.869 Y163.438 
G1 X163.494 Y163.850 
G1 X162.956 Y164.369 
G1 X162.375 Y164.844 
G1 X161.812 Y165.250 
G1 X161.156 Y165.613 
G1 X160.681 Y165.838 
G1 X160.088 Y166.088 
G1 X159.375 Y166.325 
G1 X157.675 Y166.613 
G1 X155.775 Y166.606 
G1 X154.775 Y166.456 
G1 X153.675 Y166.131 
G1 X152.969 Y165.869 
G1 X152.287 Y165.544 
G1 X151.637 Y165.162 
G1 X151.113 Y164.781 
G1 X150.706 Y164.450 
G1 X150.219 Y164.012 
G1 X149.694 Y163.469 
G1 X149.206 Y162.894 
G1 X148.787 Y162.262 
G1 X148.506 Y161.800 
G1 X147.894 Y160.400 
G1 X147.569 Y159.300 
G1 X147.463 Y158.600 
G1 X147.494 Y155.200 
G1 X147.581 Y154.600 
G1 X148.044 Y153.256 
G1 X148.262 Y152.787 
G1 X148.656 Y152.144 
G1 X149.088 Y151.531 
G1 X149.556 Y150.944 
G1 X150.069 Y150.394 
G1 X150.594 Y149.881 
G1 X151.169 Y149.400 
G1 X151.787 Y148.981 
G1 X153.238 Y148.150 
G1 X153.519 Y148.062 
G1 X160.456 Y148.088 
G1 X161.113 Y148.213 
G1 X162.394 Y148.831 
G1 X163.081 Y149.312 
G1 X163.662 Y149.781 
G1 X164.206 Y150.294 
G1 X164.688 Y150.831 
G1 X165.088 Y151.338 
G1 X165.494 Y151.931 
G1 X166.231 Y153.412 
G1 X166.338 Y153.881 
G1 X166.306 Y159.975 
G1 X166.206 Y160.725 
G1 X165.806 Y161.831 
G1 X165.150 Y163.106 
G1 X164.731 Y163.731 
G1 X164.262 Y164.312 
G1 X163.856 Y164.750 
G1 X163.412 Y165.162 
G1 X162.900 Y165.581 
G1 X162.300 Y165.994 
G1 X161.631 Y166.375 
G1 X160.606 Y166.812 
G1 X160.106 Y166.931 
G1 X154.006 Y166.906 
G1 X153.406 Y166.819 
G1 X152.125 Y166.369 
G1 X151.562 Y166.094 
G1 X150.906 Y165.725 
G1 X150.287 Y165.287 
G1 X149.706 Y164.806 
G1 X149.250 Y164.369 
G1 X148.831 Y163.906 
G1 X148.412 Y163.381 
G1 X147.938 Y162.669 
G1 X147.544 Y161.931 
G1 X147.463 Y161.631 
G1 X147.463 Y160.431 
G1 X147.463 Y160.431 
G1 X147.463 Y160.300 
G1 X147.488 Y160.175 
G1 X147.544 Y160.056 
G1 X147.619 Y159.956 
G0 Z5.000 
G0 X147.619 Y159.956 
G0 X147.631 Y155.369 
G1 Z-3.500 
G1 X147.631 Y155.369 
G1 X147.556 Y155.275 
G1 X147.500 Y155.169 
G1 X147.463 Y155.050 
G1 X147.456 Y154.925 
G1 X147.456 Y154.925 
G1 X147.488 Y152.925 
G1 X147.575 Y152.425 
G1 X148.194 Y151.156 
G1 X148.306 Y150.981 
G1 X148.750 Y150.375 
G1 X149.244 Y149.812 
G1 X149.775 Y149.281 
G1 X151.088 Y148.175 
G1 X151.262 Y148.081 
G1 X151.356 Y148.056 
G1 X151.356 Y148.056 
G1 X151.481 Y148.056 
G1 X151.600 Y148.081 
G1 X151.713 Y148.131 
G1 X151.812 Y148.206 
G0 Z5.000 
G0 X151.812 Y148.206 
G0 X147.631 Y153.088 
G1 Z-3.500 
G1 X147.631 Y153.088 
G1 X147.556 Y152.994 
G1 X147.500 Y152.887 
G1 X147.463 Y152.769 
G1 X147.456 Y152.644 
G1 X147.456 Y152.644 
G1 X147.481 Y151.444 
G1 X147.581 Y150.844 
G1 X147.781 Y150.375 
G1 X148.256 Y149.600 
G1 X148.744 Y149.025 
G1 X149.531 Y148.188 
G1 X149.606 Y148.125 
G1 X149.694 Y148.081 
G1 X149.787 Y148.056 
G1 X149.787 Y148.056 
G1 X149.912 Y148.056 
G1 X150.031 Y148.081 
G1 X150.144 Y148.131 
G1 X150.244 Y148.206 
G0 Z5.000 
G0 X150.244 Y148.206 
G0 X147.631 Y151.531 
G1 Z-3.500 
G1 X147.631 Y151.531 
G1 X147.556 Y151.438 
G1 X147.500 Y151.331 
G1 X147.463 Y151.213 
G1 X147.456 Y151.088 
G1 X147.456 Y151.088 
G1 X147.481 Y149.988 
G1 X147.569 Y149.488 
G1 X147.731 Y149.106 
G1 X148.144 Y148.419 
G1 X148.331 Y148.181 
G1 X148.406 Y148.113 
G1 X148.494 Y148.069 
G1 X148.588 Y148.056 
G1 X148.588 Y148.056 
G1 X148.713 Y148.056 
G1 X148.831 Y148.081 
G1 X148.944 Y148.131 
G1 X149.044 Y148.206 
G0 Z5.000 
G0 X149.044 Y148.206 
G0 X147.631 Y150.088 
G1 Z-3.500 
G1 X147.631 Y150.088 
G1 X147.556 Y149.994 
G1 X147.500 Y149.887 
G1 X147.463 Y149.769 
G1 X147.456 Y149.644 
G1 X147.456 Y149.644 
G1 X147.475 Y148.744 
G1 X147.544 Y148.344 
G1 X147.575 Y148.250 
G1 X147.625 Y148.162 
G1 X147.694 Y148.094 
G1 X147.781 Y148.056 
G1 X147.781 Y148.056 
G1 X147.906 Y148.056 
G1 X148.025 Y148.094 
G1 X148.025 Y148.094 
G1 X147.506 Y148.681 
G1 X147.506 Y148.681 
G1 X147.463 Y148.569 
G1 X147.456 Y148.444 
G1 X147.456 Y148.444 
G1 X147.463 Y148.244 
G1 X147.506 Y148.150 
G1 X147.581 Y148.088 
G1 X147.581 Y148.088 
G1 X147.700 Y148.056 
G1 X147.825 Y148.056 
G1 X147.950 Y148.062 
G1 X148.069 Y148.075 
G0 Z5.000 
G0 X148.069 Y148.075 
G0 X160.244 Y148.213 
G1 Z-3.500 
G1 X160.244 Y148.213 
G1 X160.344 Y148.137 
G1 X160.463 Y148.081 
G1 X160.588 Y148.056 
G1 X160.719 Y148.056 
G1 X160.719 Y148.056 
G1 X162.125 Y148.081 
G1 X162.688 Y148.194 
G1 X163.700 Y148.719 
G1 X163.938 Y148.887 
G1 X164.525 Y149.344 
G1 X165.062 Y149.856 
G1 X166.069 Y151.100 
G1 X166.262 Y151.431 
G1 X166.338 Y151.706 
G1 X166.338 Y153.206 
G1 X166.338 Y153.206 
G1 X166.331 Y153.331 
G1 X166.300 Y153.450 
G1 X166.244 Y153.562 
G1 X166.162 Y153.662 
G0 Z5.000 
G0 X166.162 Y153.662 
G0 X161.925 Y148.213 
G1 Z-3.500 
G1 X161.925 Y148.213 
G1 X162.025 Y148.137 
G1 X162.144 Y148.081 
G1 X162.269 Y148.056 
G1 X162.400 Y148.056 
G1 X162.400 Y148.056 
G1 X163.525 Y148.075 
G1 X164.088 Y148.181 
G1 X164.844 Y148.594 
G1 X165.231 Y148.875 
G1 X165.994 Y149.575 
G1 X166.244 Y149.869 
G1 X166.319 Y150.044 
G1 X166.338 Y150.137 
G1 X166.338 Y150.887 
G1 X166.338 Y150.887 
G1 X166.331 Y151.012 
G1 X166.300 Y151.131 
G1 X166.244 Y151.244 
G1 X166.162 Y151.344 
G0 Z5.000 
G0 X166.162 Y151.344 
G0 X163.369 Y148.213 
G1 Z-3.500 
G1 X163.369 Y148.213 
G1 X163.469 Y148.137 
G1 X163.588 Y148.081 
G1 X163.713 Y148.056 
G1 X163.844 Y148.056 
G1 X163.844 Y148.056 
G1 X164.781 Y148.069 
G1 X165.250 Y148.156 
G1 X165.600 Y148.312 
G1 X166.150 Y148.706 
G1 X166.275 Y148.850 
G1 X166.319 Y148.938 
G1 X166.338 Y149.031 
G1 X166.338 Y149.219 
G1 X166.338 Y149.219 
G1 X166.331 Y149.344 
G1 X166.300 Y149.463 
G1 X166.244 Y149.575 
G1 X166.162 Y149.675 
G0 Z5.000 
G0 X166.162 Y149.675 
G0 X164.688 Y148.213 
G1 Z-3.500 
G1 X164.688 Y148.213 
G1 X164.787 Y148.137 
G1 X164.906 Y148.081 
G1 X165.031 Y148.056 
G1 X165.162 Y148.056 
G1 X165.162 Y148.056 
G1 X165.819 Y148.069 
G1 X166.100 Y148.125 
G1 X166.188 Y148.156 
G1 X166.262 Y148.213 
G1 X166.325 Y148.287 
G1 X166.338 Y148.381 
G1 X166.338 Y148.381 
G1 X166.331 Y148.506 
G1 X166.331 Y148.506 
G1 X165.988 Y148.056 
G1 X165.988 Y148.056 
