(Exported by FreeCAD)
(Post Processor: linuxcnc_post)
(Output Time:2026-05-03 10:40:21.358121)
(begin preamble)
G17 G54 G40 G49 G80 G90
G21
(begin operation: TC: 6mm Schaftfräser)
(machine units: mm/min)
(TC: 6mm Schaftfräser) 
M5
M6 T3 
G43 H3 
M3 S24000 
(finish operation: TC: 6mm Schaftfräser)
(begin operation: Fixture)
(machine units: mm/min)
G54 
(finish operation: Fixture)
(begin operation: Pocket3D)
(machine units: mm/min)
(Pocket3D) 
G0 Z5.000 
G0 
G0 X87.297 Y198.977 
G0 X87.297 Y198.977 Z3.000 
G1 X87.297 Y198.977 Z-1.000 F500.000 
G3 X86.023 Y197.297 Z-1.000 I0.203 J-1.477 F1000.000 
G3 X87.703 Y196.023 Z-1.000 I1.477 J0.203 F1000.000 
G3 X87.297 Y198.977 Z-1.000 I-0.203 J1.477 F1000.000 
G0 Z5.000 
G0 X47.297 Z5.000 
G0 X47.297 Z3.000 
G1 X47.297 Y198.977 Z-1.000 F500.000 
G3 X46.023 Y197.297 Z-1.000 I0.203 J-1.477 F1000.000 
G3 X47.703 Y196.023 Z-1.000 I1.477 J0.203 F1000.000 
G3 X47.297 Y198.977 Z-1.000 I-0.203 J1.477 F1000.000 
G0 Z5.000 
G0 X167.297 Y158.977 Z5.000 
G0 X167.297 Y158.977 Z3.000 
G1 X167.297 Y158.977 Z-1.000 F500.000 
G3 X166.023 Y157.297 Z-1.000 I0.203 J-1.477 F1000.000 
G3 X167.703 Y156.023 Z-1.000 I1.477 J0.203 F1000.000 
G3 X167.297 Y158.977 Z-1.000 I-0.203 J1.477 F1000.000 
G0 Z5.000 
G0 X47.297 Z5.000 
G0 X47.297 Z3.000 
G1 X47.297 Y158.977 Z-1.000 F500.000 
G3 X46.023 Y157.297 Z-1.000 I0.203 J-1.477 F1000.000 
G3 X47.703 Y156.023 Z-1.000 I1.477 J0.203 F1000.000 
G3 X47.297 Y158.977 Z-1.000 I-0.203 J1.477 F1000.000 
G0 Z5.000 
G0 X127.297 Y118.977 Z5.000 
G0 X127.297 Y118.977 Z3.000 
G1 X127.297 Y118.977 Z-1.000 F500.000 
G3 X126.023 Y117.297 Z-1.000 I0.203 J-1.477 F1000.000 
G3 X127.703 Y116.023 Z-1.000 I1.477 J0.203 F1000.000 
G3 X127.297 Y118.977 Z-1.000 I-0.203 J1.477 F1000.000 
G0 Z5.000 
G0 X247.297 Y118.977 Z5.000 
G0 X247.297 Y118.977 Z3.000 
G1 X247.297 Y118.977 Z-1.000 F500.000 
G3 X247.703 Y116.023 Z-1.000 I0.203 J-1.477 F1000.000 
G3 X248.977 Y117.703 Z-1.000 I-0.203 J1.477 F1000.000 
G3 X247.297 Y118.977 Z-1.000 I-1.477 J-0.203 F1000.000 
G0 Z5.000 
G0 X207.297 Y118.977 Z5.000 
G0 X207.297 Y118.977 Z3.000 
G1 X207.297 Y118.977 Z-1.000 F500.000 
G3 X207.703 Y116.023 Z-1.000 I0.203 J-1.477 F1000.000 
G3 X208.977 Y117.703 Z-1.000 I-0.203 J1.477 F1000.000 
G3 X207.297 Y118.977 Z-1.000 I-1.477 J-0.203 F1000.000 
G0 Z5.000 
G0 X87.297 Z5.000 
G0 X87.297 Z3.000 
G1 X87.297 Y118.977 Z-1.000 F500.000 
G3 X86.023 Y117.297 Z-1.000 I0.203 J-1.477 F1000.000 
G3 X87.703 Y116.023 Z-1.000 I1.477 J0.203 F1000.000 
G3 X87.297 Y118.977 Z-1.000 I-0.203 J1.477 F1000.000 
G0 Z5.000 
G0 X167.297 Z5.000 
G0 X167.297 Z3.000 
G1 X167.297 Y118.977 Z-1.000 F500.000 
G3 X167.703 Y116.023 Z-1.000 I0.203 J-1.477 F1000.000 
G3 X168.977 Y117.703 Z-1.000 I-0.203 J1.477 F1000.000 
G3 X167.297 Y118.977 Z-1.000 I-1.477 J-0.203 F1000.000 
G0 Z5.000 
G0 X47.297 Z5.000 
G0 X47.297 Z3.000 
G1 X47.297 Y118.977 Z-1.000 F500.000 
G3 X46.023 Y117.297 Z-1.000 I0.203 J-1.477 F1000.000 
G3 X47.703 Y116.023 Z-1.000 I1.477 J0.203 F1000.000 
G3 X47.297 Y118.977 Z-1.000 I-0.203 J1.477 F1000.000 
G0 Z5.000 
G0 X247.297 Y278.977 Z5.000 
G0 X247.297 Y278.977 Z3.000 
G1 X247.297 Y278.977 Z-1.000 F500.000 
G3 X247.703 Y276.023 Z-1.000 I0.203 J-1.477 F1000.000 
G3 X248.977 Y277.703 Z-1.000 I-0.203 J1.477 F1000.000 
G3 X247.297 Y278.977 Z-1.000 I-1.477 J-0.203 F1000.000 
G0 Z5.000 
G0 X47.297 Z5.000 
G0 X47.297 Z3.000 
G1 X47.297 Y278.977 Z-1.000 F500.000 
G3 X46.023 Y277.297 Z-1.000 I0.203 J-1.477 F1000.000 
G3 X47.703 Y276.023 Z-1.000 I1.477 J0.203 F1000.000 
G3 X47.297 Y278.977 Z-1.000 I-0.203 J1.477 F1000.000 
G0 Z5.000 
G0 X167.297 Y318.977 Z5.000 
G0 X167.297 Y318.977 Z3.000 
G1 X167.297 Y318.977 Z-1.000 F500.000 
G3 X166.023 Y317.297 Z-1.000 I0.203 J-1.477 F1000.000 
G3 X167.703 Y316.023 Z-1.000 I1.477 J0.203 F1000.000 
G3 X168.977 Y317.703 Z-1.000 I-0.203 J1.477 F1000.000 
G3 X167.297 Y318.977 Z-1.000 I-1.477 J-0.203 F1000.000 
G0 Z5.000 
G0 X47.297 Z5.000 
G0 X47.297 Z3.000 
G1 X47.297 Y318.977 Z-1.000 F500.000 
G3 X46.023 Y317.297 Z-1.000 I0.203 J-1.477 F1000.000 
G3 X47.703 Y316.023 Z-1.000 I1.477 J0.203 F1000.000 
G3 X47.297 Y318.977 Z-1.000 I-0.203 J1.477 F1000.000 
G0 Z5.000 
G0 X207.297 Y278.977 Z5.000 
G0 X207.297 Y278.977 Z3.000 
G1 X207.297 Y278.977 Z-1.000 F500.000 
G3 X207.703 Y276.023 Z-1.000 I0.203 J-1.477 F1000.000 
G3 X208.977 Y277.703 Z-1.000 I-0.203 J1.477 F1000.000 
G3 X207.297 Y278.977 Z-1.000 I-1.477 J-0.203 F1000.000 
G0 Z5.000 
G0 X47.297 Y238.977 Z5.000 
G0 X47.297 Y238.977 Z3.000 
G1 X47.297 Y238.977 Z-1.000 F500.000 
G3 X46.023 Y237.297 Z-1.000 I0.203 J-1.477 F1000.000 
G3 X47.703 Y236.023 Z-1.000 I1.477 J0.203 F1000.000 
G3 X47.297 Y238.977 Z-1.000 I-0.203 J1.477 F1000.000 
G0 Z5.000 
G0 X167.297 Y278.977 Z5.000 
G0 X167.297 Y278.977 Z3.000 
G1 X167.297 Y278.977 Z-1.000 F500.000 
G3 X167.703 Y276.023 Z-1.000 I0.203 J-1.477 F1000.000 
G3 X168.977 Y277.703 Z-1.000 I-0.203 J1.477 F1000.000 
G3 X167.297 Y278.977 Z-1.000 I-1.477 J-0.203 F1000.000 
G0 Z5.000 
G0 X247.297 Y318.977 Z5.000 
G0 X247.297 Y318.977 Z3.000 
G1 X247.297 Y318.977 Z-1.000 F500.000 
G3 X247.703 Y316.023 Z-1.000 I0.203 J-1.477 F1000.000 
G3 X248.977 Y317.703 Z-1.000 I-0.203 J1.477 F1000.000 
G3 X247.297 Y318.977 Z-1.000 I-1.477 J-0.203 F1000.000 
G0 Z5.000 
G0 Y158.977 Z5.000 
G0 Y158.977 Z3.000 
G1 X247.297 Y158.977 Z-1.000 F500.000 
G3 X247.703 Y156.023 Z-1.000 I0.203 J-1.477 F1000.000 
G3 X248.977 Y157.703 Z-1.000 I-0.203 J1.477 F1000.000 
G3 X247.297 Y158.977 Z-1.000 I-1.477 J-0.203 F1000.000 
G0 Z5.000 
G0 X127.297 Z5.000 
G0 X127.297 Z3.000 
G1 X127.297 Y158.977 Z-1.000 F500.000 
G3 X126.023 Y157.297 Z-1.000 I0.203 J-1.477 F1000.000 
G3 X127.703 Y156.023 Z-1.000 I1.477 J0.203 F1000.000 
G3 X127.297 Y158.977 Z-1.000 I-0.203 J1.477 F1000.000 
G0 Z5.000 
G0 X87.297 Z5.000 
G0 X87.297 Z3.000 
G1 X87.297 Y158.977 Z-1.000 F500.000 
G3 X86.023 Y157.297 Z-1.000 I0.203 J-1.477 F1000.000 
G3 X87.703 Y156.023 Z-1.000 I1.477 J0.203 F1000.000 
G3 X87.297 Y158.977 Z-1.000 I-0.203 J1.477 F1000.000 
G0 Z5.000 
G0 X247.297 Y198.977 Z5.000 
G0 X247.297 Y198.977 Z3.000 
G1 X247.297 Y198.977 Z-1.000 F500.000 
G3 X247.703 Y196.023 Z-1.000 I0.203 J-1.477 F1000.000 
G3 X248.977 Y197.703 Z-1.000 I-0.203 J1.477 F1000.000 
G3 X247.297 Y198.977 Z-1.000 I-1.477 J-0.203 F1000.000 
G0 Z5.000 
G0 X207.297 Y318.977 Z5.000 
G0 X207.297 Y318.977 Z3.000 
G1 X207.297 Y318.977 Z-1.000 F500.000 
G3 X206.023 Y317.297 Z-1.000 I0.203 J-1.477 F1000.000 
G3 X207.703 Y316.023 Z-1.000 I1.477 J0.203 F1000.000 
G3 X208.977 Y317.703 Z-1.000 I-0.203 J1.477 F1000.000 
G3 X207.297 Y318.977 Z-1.000 I-1.477 J-0.203 F1000.000 
G0 Z5.000 
G0 X167.297 Y238.977 Z5.000 
G0 X167.297 Y238.977 Z3.000 
G1 X167.297 Y238.977 Z-1.000 F500.000 
G3 X166.023 Y237.297 Z-1.000 I0.203 J-1.477 F1000.000 
G3 X167.703 Y236.023 Z-1.000 I1.477 J0.203 F1000.000 
G3 X168.977 Y237.703 Z-1.000 I-0.203 J1.477 F1000.000 
G3 X167.297 Y238.977 Z-1.000 I-1.477 J-0.203 F1000.000 
G0 Z5.000 
G0 X87.297 Z5.000 
G0 X87.297 Z3.000 
G1 X87.297 Y238.977 Z-1.000 F500.000 
G3 X86.023 Y237.297 Z-1.000 I0.203 J-1.477 F1000.000 
G3 X87.703 Y236.023 Z-1.000 I1.477 J0.203 F1000.000 
G3 X87.297 Y238.977 Z-1.000 I-0.203 J1.477 F1000.000 
G0 Z5.000 
G0 X127.297 Z5.000 
G0 X127.297 Z3.000 
G1 X127.297 Y238.977 Z-1.000 F500.000 
G3 X126.023 Y237.297 Z-1.000 I0.203 J-1.477 F1000.000 
G3 X127.703 Y236.023 Z-1.000 I1.477 J0.203 F1000.000 
G3 X127.297 Y238.977 Z-1.000 I-0.203 J1.477 F1000.000 
G0 Z5.000 
G0 X207.297 Z5.000 
G0 X207.297 Z3.000 
G1 X207.297 Y238.977 Z-1.000 F500.000 
G3 X206.023 Y237.297 Z-1.000 I0.203 J-1.477 F1000.000 
G3 X207.703 Y236.023 Z-1.000 I1.477 J0.203 F1000.000 
G3 X208.977 Y237.703 Z-1.000 I-0.203 J1.477 F1000.000 
G3 X207.297 Y238.977 Z-1.000 I-1.477 J-0.203 F1000.000 
G0 Z5.000 
G0 Y198.977 Z5.000 
G0 Y198.977 Z3.000 
G1 X207.297 Y198.977 Z-1.000 F500.000 
G3 X207.703 Y196.023 Z-1.000 I0.203 J-1.477 F1000.000 
G3 X208.977 Y197.703 Z-1.000 I-0.203 J1.477 F1000.000 
G3 X207.297 Y198.977 Z-1.000 I-1.477 J-0.203 F1000.000 
G0 Z5.000 
G0 X247.297 Y238.977 Z5.000 
G0 X247.297 Y238.977 Z3.000 
G1 X247.297 Y238.977 Z-1.000 F500.000 
G3 X247.703 Y236.023 Z-1.000 I0.203 J-1.477 F1000.000 
G3 X248.977 Y237.703 Z-1.000 I-0.203 J1.477 F1000.000 
G3 X247.297 Y238.977 Z-1.000 I-1.477 J-0.203 F1000.000 
G0 Z5.000 
G0 X87.297 Y318.977 Z5.000 
G0 X87.297 Y318.977 Z3.000 
G1 X87.297 Y318.977 Z-1.000 F500.000 
G3 X86.023 Y317.297 Z-1.000 I0.203 J-1.477 F1000.000 
G3 X87.703 Y316.023 Z-1.000 I1.477 J0.203 F1000.000 
G3 X87.297 Y318.977 Z-1.000 I-0.203 J1.477 F1000.000 
G0 Z5.000 
G0 X207.297 Y158.977 Z5.000 
G0 X207.297 Y158.977 Z3.000 
G1 X207.297 Y158.977 Z-1.000 F500.000 
G3 X206.023 Y157.297 Z-1.000 I0.203 J-1.477 F1000.000 
G3 X207.703 Y156.023 Z-1.000 I1.477 J0.203 F1000.000 
G3 X207.297 Y158.977 Z-1.000 I-0.203 J1.477 F1000.000 
G0 Z5.000 
G0 X87.297 Y278.977 Z5.000 
G0 X87.297 Y278.977 Z3.000 
G1 X87.297 Y278.977 Z-1.000 F500.000 
G3 X86.023 Y277.297 Z-1.000 I0.203 J-1.477 F1000.000 
G3 X87.703 Y276.023 Z-1.000 I1.477 J0.203 F1000.000 
G3 X87.297 Y278.977 Z-1.000 I-0.203 J1.477 F1000.000 
G0 Z5.000 
G0 X167.297 Y198.977 Z5.000 
G0 X167.297 Y198.977 Z3.000 
G1 X167.297 Y198.977 Z-1.000 F500.000 
G3 X167.703 Y196.023 Z-1.000 I0.203 J-1.477 F1000.000 
G3 X168.977 Y197.703 Z-1.000 I-0.203 J1.477 F1000.000 
G3 X167.297 Y198.977 Z-1.000 I-1.477 J-0.203 F1000.000 
G0 Z5.000 
G0 X127.297 Y318.977 Z5.000 
G0 X127.297 Y318.977 Z3.000 
G1 X127.297 Y318.977 Z-1.000 F500.000 
G3 X126.023 Y317.297 Z-1.000 I0.203 J-1.477 F1000.000 
G3 X127.703 Y316.023 Z-1.000 I1.477 J0.203 F1000.000 
G3 X127.297 Y318.977 Z-1.000 I-0.203 J1.477 F1000.000 
G0 Z5.000 
G0 Y198.977 Z5.000 
G0 Y198.977 Z3.000 
G1 X127.297 Y198.977 Z-1.000 F500.000 
G3 X126.023 Y197.297 Z-1.000 I0.203 J-1.477 F1000.000 
G3 X127.703 Y196.023 Z-1.000 I1.477 J0.203 F1000.000 
G3 X127.297 Y198.977 Z-1.000 I-0.203 J1.477 F1000.000 
G0 Z5.000 
G0 X127.297 Y278.977 Z5.000 
G0 X127.297 Y278.977 Z3.000 
G1 X127.297 Y278.977 Z-1.000 F500.000 
G3 X126.023 Y277.297 Z-1.000 I0.203 J-1.477 F1000.000 
G3 X127.703 Y276.023 Z-1.000 I1.477 J0.203 F1000.000 
G3 X127.297 Y278.977 Z-1.000 I-0.203 J1.477 F1000.000 
G0 Z5.000 
G0 X206.888 Y241.951 Z5.000 
G0 X206.888 Y241.951 Z3.000 
G1 X206.888 Y241.951 Z-1.000 F500.000 
G3 X208.112 Y233.049 Z-1.000 I0.612 J-4.451 F1000.000 
G3 X206.888 Y241.951 Z-1.000 I-0.612 J4.451 F1000.000 
G0 Z5.000 
G0 X246.888 Z5.000 
G0 X246.888 Z3.000 
G1 X246.888 Y241.951 Z-1.000 F500.000 
G3 X243.049 Y236.888 Z-1.000 I0.612 J-4.451 F1000.000 
G3 X248.112 Y233.049 Z-1.000 I4.451 J0.612 F1000.000 
G3 X246.888 Y241.951 Z-1.000 I-0.612 J4.451 F1000.000 
G0 Z5.000 
G0 X86.888 Y201.951 Z5.000 
G0 X86.888 Y201.951 Z3.000 
G1 X86.888 Y201.951 Z-1.000 F500.000 
G3 X88.112 Y193.049 Z-1.000 I0.612 J-4.451 F1000.000 
G3 X91.951 Y198.112 Z-1.000 I-0.612 J4.451 F1000.000 
G3 X86.888 Y201.951 Z-1.000 I-4.451 J-0.612 F1000.000 
G0 Z5.000 
G0 X126.888 Y121.951 Z5.000 
G0 X126.888 Y121.951 Z3.000 
G1 X126.888 Y121.951 Z-1.000 F500.000 
G3 X123.049 Y116.888 Z-1.000 I0.612 J-4.451 F1000.000 
G3 X128.112 Y113.049 Z-1.000 I4.451 J0.612 F1000.000 
G3 X131.951 Y118.112 Z-1.000 I-0.612 J4.451 F1000.000 
G3 X126.888 Y121.951 Z-1.000 I-4.451 J-0.612 F1000.000 
G0 Z5.000 
G0 X86.888 Y241.951 Z5.000 
G0 X86.888 Y241.951 Z3.000 
G1 X86.888 Y241.951 Z-1.000 F500.000 
G3 X83.049 Y236.888 Z-1.000 I0.612 J-4.451 F1000.000 
G3 X88.112 Y233.049 Z-1.000 I4.451 J0.612 F1000.000 
G3 X91.951 Y238.112 Z-1.000 I-0.612 J4.451 F1000.000 
G3 X86.888 Y241.951 Z-1.000 I-4.451 J-0.612 F1000.000 
G0 Z5.000 
G0 Y321.951 Z5.000 
G0 Y321.951 Z3.000 
G1 X86.888 Y321.951 Z-1.000 F500.000 
G3 X83.049 Y316.888 Z-1.000 I0.612 J-4.451 F1000.000 
G3 X88.112 Y313.049 Z-1.000 I4.451 J0.612 F1000.000 
G3 X91.951 Y318.112 Z-1.000 I-0.612 J4.451 F1000.000 
G3 X86.888 Y321.951 Z-1.000 I-4.451 J-0.612 F1000.000 
G0 Z5.000 
G0 X206.888 Y201.951 Z5.000 
G0 X206.888 Y201.951 Z3.000 
G1 X206.888 Y201.951 Z-1.000 F500.000 
G3 X203.049 Y196.888 Z-1.000 I0.612 J-4.451 F1000.000 
G3 X208.112 Y193.049 Z-1.000 I4.451 J0.612 F1000.000 
G3 X206.888 Y201.951 Z-1.000 I-0.612 J4.451 F1000.000 
G0 Z5.000 
G0 Y321.951 Z5.000 
G0 Y321.951 Z3.000 
G1 X206.888 Y321.951 Z-1.000 F500.000 
G3 X208.112 Y313.049 Z-1.000 I0.612 J-4.451 F1000.000 
G3 X206.888 Y321.951 Z-1.000 I-0.612 J4.451 F1000.000 
G0 Z5.000 
G0 X46.888 Z5.000 
G0 X46.888 Z3.000 
G1 X46.888 Y321.951 Z-1.000 F500.000 
G3 X43.049 Y316.888 Z-1.000 I0.612 J-4.451 F1000.000 
G3 X48.112 Y313.049 Z-1.000 I4.451 J0.612 F1000.000 
G3 X51.951 Y318.112 Z-1.000 I-0.612 J4.451 F1000.000 
G3 X46.888 Y321.951 Z-1.000 I-4.451 J-0.612 F1000.000 
G0 Z5.000 
G0 X246.888 Y161.951 Z5.000 
G0 X246.888 Y161.951 Z3.000 
G1 X246.888 Y161.951 Z-1.000 F500.000 
G3 X243.049 Y156.888 Z-1.000 I0.612 J-4.451 F1000.000 
G3 X248.112 Y153.049 Z-1.000 I4.451 J0.612 F1000.000 
G3 X246.888 Y161.951 Z-1.000 I-0.612 J4.451 F1000.000 
G0 Z5.000 
G0 X126.888 Z5.000 
G0 X126.888 Z3.000 
G1 X126.888 Y161.951 Z-1.000 F500.000 
G3 X123.049 Y156.888 Z-1.000 I0.612 J-4.451 F1000.000 
G3 X128.112 Y153.049 Z-1.000 I4.451 J0.612 F1000.000 
G3 X126.888 Y161.951 Z-1.000 I-0.612 J4.451 F1000.000 
G0 Z5.000 
G0 X46.888 Y241.951 Z5.000 
G0 X46.888 Y241.951 Z3.000 
G1 X46.888 Y241.951 Z-1.000 F500.000 
G3 X43.049 Y236.888 Z-1.000 I0.612 J-4.451 F1000.000 
G3 X48.112 Y233.049 Z-1.000 I4.451 J0.612 F1000.000 
G3 X51.951 Y238.112 Z-1.000 I-0.612 J4.451 F1000.000 
G3 X46.888 Y241.951 Z-1.000 I-4.451 J-0.612 F1000.000 
G0 Z5.000 
G0 X166.888 Z5.000 
G0 X166.888 Z3.000 
G1 X166.888 Y241.951 Z-1.000 F500.000 
G3 X168.112 Y233.049 Z-1.000 I0.612 J-4.451 F1000.000 
G3 X171.951 Y238.112 Z-1.000 I-0.612 J4.451 F1000.000 
G3 X166.888 Y241.951 Z-1.000 I-4.451 J-0.612 F1000.000 
G0 Z5.000 
G0 X46.888 Y201.951 Z5.000 
G0 X46.888 Y201.951 Z3.000 
G1 X46.888 Y201.951 Z-1.000 F500.000 
G3 X43.049 Y196.888 Z-1.000 I0.612 J-4.451 F1000.000 
G3 X48.112 Y193.049 Z-1.000 I4.451 J0.612 F1000.000 
G3 X51.951 Y198.112 Z-1.000 I-0.612 J4.451 F1000.000 
G3 X46.888 Y201.951 Z-1.000 I-4.451 J-0.612 F1000.000 
G0 Z5.000 
G0 X166.888 Y161.951 Z5.000 
G0 X166.888 Y161.951 Z3.000 
G1 X166.888 Y161.951 Z-1.000 F500.000 
G3 X163.049 Y156.888 Z-1.000 I0.612 J-4.451 F1000.000 
G3 X168.112 Y153.049 Z-1.000 I4.451 J0.612 F1000.000 
G3 X166.888 Y161.951 Z-1.000 I-0.612 J4.451 F1000.000 
G0 Z5.000 
G0 X206.888 Z5.000 
G0 X206.888 Z3.000 
G1 X206.888 Y161.951 Z-1.000 F500.000 
G3 X203.049 Y156.888 Z-1.000 I0.612 J-4.451 F1000.000 
G3 X208.112 Y153.049 Z-1.000 I4.451 J0.612 F1000.000 
G3 X206.888 Y161.951 Z-1.000 I-0.612 J4.451 F1000.000 
G0 Z5.000 
G0 X46.888 Y121.951 Z5.000 
G0 X46.888 Y121.951 Z3.000 
G1 X46.888 Y121.951 Z-1.000 F500.000 
G3 X43.049 Y116.888 Z-1.000 I0.612 J-4.451 F1000.000 
G3 X48.112 Y113.049 Z-1.000 I4.451 J0.612 F1000.000 
G3 X51.951 Y118.112 Z-1.000 I-0.612 J4.451 F1000.000 
G3 X46.888 Y121.951 Z-1.000 I-4.451 J-0.612 F1000.000 
G0 Z5.000 
G0 X86.888 Z5.000 
G0 X86.888 Z3.000 
G1 X86.888 Y121.951 Z-1.000 F500.000 
G3 X83.049 Y116.888 Z-1.000 I0.612 J-4.451 F1000.000 
G3 X88.112 Y113.049 Z-1.000 I4.451 J0.612 F1000.000 
G3 X91.951 Y118.112 Z-1.000 I-0.612 J4.451 F1000.000 
G3 X86.888 Y121.951 Z-1.000 I-4.451 J-0.612 F1000.000 
G0 Z5.000 
G0 X126.888 Y321.951 Z5.000 
G0 X126.888 Y321.951 Z3.000 
G1 X126.888 Y321.951 Z-1.000 F500.000 
G3 X123.049 Y316.888 Z-1.000 I0.612 J-4.451 F1000.000 
G3 X128.112 Y313.049 Z-1.000 I4.451 J0.612 F1000.000 
G3 X131.951 Y318.112 Z-1.000 I-0.612 J4.451 F1000.000 
G3 X126.888 Y321.951 Z-1.000 I-4.451 J-0.612 F1000.000 
G0 Z5.000 
G0 X246.888 Y281.951 Z5.000 
G0 X246.888 Y281.951 Z3.000 
G1 X246.888 Y281.951 Z-1.000 F500.000 
G3 X243.049 Y276.888 Z-1.000 I0.612 J-4.451 F1000.000 
G3 X248.112 Y273.049 Z-1.000 I4.451 J0.612 F1000.000 
G3 X246.888 Y281.951 Z-1.000 I-0.612 J4.451 F1000.000 
G0 Z5.000 
G0 X126.888 Y281.951 Z5.000 
G0 X126.888 Y281.951 Z3.000 
G1 X126.888 Y281.951 Z-1.000 F500.000 
G3 X128.112 Y273.049 Z-1.000 I0.612 J-4.451 F1000.000 
G3 X131.951 Y278.112 Z-1.000 I-0.612 J4.451 F1000.000 
G3 X126.888 Y281.951 Z-1.000 I-4.451 J-0.612 F1000.000 
G0 Z5.000 
G0 X46.888 Z5.000 
G0 X46.888 Z3.000 
G1 X46.888 Y281.951 Z-1.000 F500.000 
G3 X48.112 Y273.049 Z-1.000 I0.612 J-4.451 F1000.000 
G3 X51.951 Y278.112 Z-1.000 I-0.612 J4.451 F1000.000 
G3 X46.888 Y281.951 Z-1.000 I-4.451 J-0.612 F1000.000 
G0 Z5.000 
G0 X166.888 Y121.951 Z5.000 
G0 X166.888 Y121.951 Z3.000 
G1 X166.888 Y121.951 Z-1.000 F500.000 
G3 X168.112 Y113.049 Z-1.000 I0.612 J-4.451 F1000.000 
G3 X166.888 Y121.951 Z-1.000 I-0.612 J4.451 F1000.000 
G0 Z5.000 
G0 X246.888 Y121.951 Z5.000 
G0 X246.888 Y121.951 Z3.000 
G1 X246.888 Y121.951 Z-1.000 F500.000 
G3 X243.049 Y116.888 Z-1.000 I0.612 J-4.451 F1000.000 
G3 X248.112 Y113.049 Z-1.000 I4.451 J0.612 F1000.000 
G3 X246.888 Y121.951 Z-1.000 I-0.612 J4.451 F1000.000 
G0 Z5.000 
G0 X206.888 Y281.951 Z5.000 
G0 X206.888 Y281.951 Z3.000 
G1 X206.888 Y281.951 Z-1.000 F500.000 
G3 X208.112 Y273.049 Z-1.000 I0.612 J-4.451 F1000.000 
G3 X211.951 Y278.112 Z-1.000 I-0.612 J4.451 F1000.000 
G3 X206.888 Y281.951 Z-1.000 I-4.451 J-0.612 F1000.000 
G0 Z5.000 
G0 X166.888 Y321.951 Z5.000 
G0 X166.888 Y321.951 Z3.000 
G1 X166.888 Y321.951 Z-1.000 F500.000 
G3 X168.112 Y313.049 Z-1.000 I0.612 J-4.451 F1000.000 
G3 X166.888 Y321.951 Z-1.000 I-0.612 J4.451 F1000.000 
G0 Z5.000 
G0 X126.888 Y241.951 Z5.000 
G0 X126.888 Y241.951 Z3.000 
G1 X126.888 Y241.951 Z-1.000 F500.000 
G3 X123.049 Y236.888 Z-1.000 I0.612 J-4.451 F1000.000 
G3 X128.112 Y233.049 Z-1.000 I4.451 J0.612 F1000.000 
G3 X131.951 Y238.112 Z-1.000 I-0.612 J4.451 F1000.000 
G3 X126.888 Y241.951 Z-1.000 I-4.451 J-0.612 F1000.000 
G0 Z5.000 
G0 X246.888 Y201.951 Z5.000 
G0 X246.888 Y201.951 Z3.000 
G1 X246.888 Y201.951 Z-1.000 F500.000 
G3 X243.049 Y196.888 Z-1.000 I0.612 J-4.451 F1000.000 
G3 X248.112 Y193.049 Z-1.000 I4.451 J0.612 F1000.000 
G3 X246.888 Y201.951 Z-1.000 I-0.612 J4.451 F1000.000 
G0 Z5.000 
G0 X166.888 Z5.000 
G0 X166.888 Z3.000 
G1 X166.888 Y201.951 Z-1.000 F500.000 
G3 X168.112 Y193.049 Z-1.000 I0.612 J-4.451 F1000.000 
G3 X171.951 Y198.112 Z-1.000 I-0.612 J4.451 F1000.000 
G3 X166.888 Y201.951 Z-1.000 I-4.451 J-0.612 F1000.000 
G0 Z5.000 
G0 X46.888 Y161.951 Z5.000 
G0 X46.888 Y161.951 Z3.000 
G1 X46.888 Y161.951 Z-1.000 F500.000 
G3 X43.049 Y156.888 Z-1.000 I0.612 J-4.451 F1000.000 
G3 X48.112 Y153.049 Z-1.000 I4.451 J0.612 F1000.000 
G3 X46.888 Y161.951 Z-1.000 I-0.612 J4.451 F1000.000 
G0 Z5.000 
G0 X86.888 Z5.000 
G0 X86.888 Z3.000 
G1 X86.888 Y161.951 Z-1.000 F500.000 
G3 X83.049 Y156.888 Z-1.000 I0.612 J-4.451 F1000.000 
G3 X88.112 Y153.049 Z-1.000 I4.451 J0.612 F1000.000 
G3 X86.888 Y161.951 Z-1.000 I-0.612 J4.451 F1000.000 
G0 Z5.000 
G0 X246.888 Y321.951 Z5.000 
G0 X246.888 Y321.951 Z3.000 
G1 X246.888 Y321.951 Z-1.000 F500.000 
G3 X243.049 Y316.888 Z-1.000 I0.612 J-4.451 F1000.000 
G3 X248.112 Y313.049 Z-1.000 I4.451 J0.612 F1000.000 
G3 X246.888 Y321.951 Z-1.000 I-0.612 J4.451 F1000.000 
G0 Z5.000 
G0 X166.888 Y281.951 Z5.000 
G0 X166.888 Y281.951 Z3.000 
G1 X166.888 Y281.951 Z-1.000 F500.000 
G3 X168.112 Y273.049 Z-1.000 I0.612 J-4.451 F1000.000 
G3 X171.951 Y278.112 Z-1.000 I-0.612 J4.451 F1000.000 
G3 X166.888 Y281.951 Z-1.000 I-4.451 J-0.612 F1000.000 
G0 Z5.000 
G0 X206.888 Y121.951 Z5.000 
G0 X206.888 Y121.951 Z3.000 
G1 X206.888 Y121.951 Z-1.000 F500.000 
G3 X203.049 Y116.888 Z-1.000 I0.612 J-4.451 F1000.000 
G3 X208.112 Y113.049 Z-1.000 I4.451 J0.612 F1000.000 
G3 X206.888 Y121.951 Z-1.000 I-0.612 J4.451 F1000.000 
G0 Z5.000 
G0 X86.888 Y281.951 Z5.000 
G0 X86.888 Y281.951 Z3.000 
G1 X86.888 Y281.951 Z-1.000 F500.000 
G3 X88.112 Y273.049 Z-1.000 I0.612 J-4.451 F1000.000 
G3 X91.951 Y278.112 Z-1.000 I-0.612 J4.451 F1000.000 
G3 X86.888 Y281.951 Z-1.000 I-4.451 J-0.612 F1000.000 
G0 Z5.000 
G0 X126.888 Y201.951 Z5.000 
G0 X126.888 Y201.951 Z3.000 
G1 X126.888 Y201.951 Z-1.000 F500.000 
G3 X123.049 Y196.888 Z-1.000 I0.612 J-4.451 F1000.000 
G3 X128.112 Y193.049 Z-1.000 I4.451 J0.612 F1000.000 
G3 X131.951 Y198.112 Z-1.000 I-0.612 J4.451 F1000.000 
G3 X126.888 Y201.951 Z-1.000 I-4.451 J-0.612 F1000.000 
G0 Z5.000 
G0 X206.479 Y244.925 Z5.000 
G0 X206.479 Y244.925 Z3.000 
G1 X206.479 Y244.925 Z-1.000 F500.000 
G3 X200.075 Y236.479 Z-1.000 I1.021 J-7.425 F1000.000 
G3 X208.521 Y230.075 Z-1.000 I7.425 J1.021 F1000.000 
G3 X206.479 Y244.925 Z-1.000 I-1.021 J7.425 F1000.000 
G0 Z5.000 
G0 X166.479 Z5.000 
G0 X166.479 Z3.000 
G1 X166.479 Y244.925 Z-1.000 F500.000 
G3 X160.075 Y236.479 Z-1.000 I1.021 J-7.425 F1000.000 
G3 X168.521 Y230.075 Z-1.000 I7.425 J1.021 F1000.000 
G3 X166.479 Y244.925 Z-1.000 I-1.021 J7.425 F1000.000 
G0 Z5.000 
G0 X126.479 Y324.925 Z5.000 
G0 X126.479 Y324.925 Z3.000 
G1 X126.479 Y324.925 Z-1.000 F500.000 
G3 X120.075 Y316.479 Z-1.000 I1.021 J-7.425 F1000.000 
G3 X128.521 Y310.075 Z-1.000 I7.425 J1.021 F1000.000 
G3 X126.479 Y324.925 Z-1.000 I-1.021 J7.425 F1000.000 
G0 Z5.000 
G0 X126.479 Y284.925 Z5.000 
G0 X126.479 Y284.925 Z3.000 
G1 X126.479 Y284.925 Z-1.000 F500.000 
G3 X128.521 Y270.075 Z-1.000 I1.021 J-7.425 F1000.000 
G3 X134.925 Y278.521 Z-1.000 I-1.021 J7.425 F1000.000 
G3 X126.479 Y284.925 Z-1.000 I-7.425 J-1.021 F1000.000 
G0 Z5.000 
G0 X246.479 Y204.925 Z5.000 
G0 X246.479 Y204.925 Z3.000 
G1 X246.479 Y204.925 Z-1.000 F500.000 
G3 X248.521 Y190.075 Z-1.000 I1.021 J-7.425 F1000.000 
G3 X254.925 Y198.521 Z-1.000 I-1.021 J7.425 F1000.000 
G3 X246.479 Y204.925 Z-1.000 I-7.425 J-1.021 F1000.000 
G0 Z5.000 
G0 X86.479 Z5.000 
G0 X86.479 Z3.000 
G1 X86.479 Y204.925 Z-1.000 F500.000 
G3 X88.521 Y190.075 Z-1.000 I1.021 J-7.425 F1000.000 
G3 X94.925 Y198.521 Z-1.000 I-1.021 J7.425 F1000.000 
G3 X86.479 Y204.925 Z-1.000 I-7.425 J-1.021 F1000.000 
G0 Z5.000 
G0 X46.479 Y124.925 Z5.000 
G0 X46.479 Y124.925 Z3.000 
G1 X46.479 Y124.925 Z-1.000 F500.000 
G3 X40.075 Y116.479 Z-1.000 I1.021 J-7.425 F1000.000 
G3 X48.521 Y110.075 Z-1.000 I7.425 J1.021 F1000.000 
G3 X46.479 Y124.925 Z-1.000 I-1.021 J7.425 F1000.000 
G0 Z5.000 
G0 X166.479 Y164.925 Z5.000 
G0 X166.479 Y164.925 Z3.000 
G1 X166.479 Y164.925 Z-1.000 F500.000 
G3 X160.075 Y156.479 Z-1.000 I1.021 J-7.425 F1000.000 
G3 X168.521 Y150.075 Z-1.000 I7.425 J1.021 F1000.000 
G3 X166.479 Y164.925 Z-1.000 I-1.021 J7.425 F1000.000 
G0 Z5.000 
G0 X206.479 Y204.925 Z5.000 
G0 X206.479 Y204.925 Z3.000 
G1 X206.479 Y204.925 Z-1.000 F500.000 
G3 X208.521 Y190.075 Z-1.000 I1.021 J-7.425 F1000.000 
G3 X206.479 Y204.925 Z-1.000 I-1.021 J7.425 F1000.000 
G0 Z5.000 
G0 X86.479 Y124.925 Z5.000 
G0 X86.479 Y124.925 Z3.000 
G1 X86.479 Y124.925 Z-1.000 F500.000 
G3 X80.075 Y116.479 Z-1.000 I1.021 J-7.425 F1000.000 
G3 X88.521 Y110.075 Z-1.000 I7.425 J1.021 F1000.000 
G3 X86.479 Y124.925 Z-1.000 I-1.021 J7.425 F1000.000 
G0 Z5.000 
G0 X126.479 Z5.000 
G0 X126.479 Z3.000 
G1 X126.479 Y124.925 Z-1.000 F500.000 
G3 X120.075 Y116.479 Z-1.000 I1.021 J-7.425 F1000.000 
G3 X128.521 Y110.075 Z-1.000 I7.425 J1.021 F1000.000 
G3 X126.479 Y124.925 Z-1.000 I-1.021 J7.425 F1000.000 
G0 Z5.000 
G0 X166.479 Z5.000 
G0 X166.479 Z3.000 
G1 X166.479 Y124.925 Z-1.000 F500.000 
G3 X168.521 Y110.075 Z-1.000 I1.021 J-7.425 F1000.000 
G3 X174.925 Y118.521 Z-1.000 I-1.021 J7.425 F1000.000 
G3 X166.479 Y124.925 Z-1.000 I-7.425 J-1.021 F1000.000 
G0 Z5.000 
G0 X206.479 Z5.000 
G0 X206.479 Z3.000 
G1 X206.479 Y124.925 Z-1.000 F500.000 
G3 X208.521 Y110.075 Z-1.000 I1.021 J-7.425 F1000.000 
G3 X214.925 Y118.521 Z-1.000 I-1.021 J7.425 F1000.000 
G3 X206.479 Y124.925 Z-1.000 I-7.425 J-1.021 F1000.000 
G0 Z5.000 
G0 X246.479 Z5.000 
G0 X246.479 Z3.000 
G1 X246.479 Y124.925 Z-1.000 F500.000 
G3 X248.521 Y110.075 Z-1.000 I1.021 J-7.425 F1000.000 
G3 X254.925 Y118.521 Z-1.000 I-1.021 J7.425 F1000.000 
G3 X246.479 Y124.925 Z-1.000 I-7.425 J-1.021 F1000.000 
G0 Z5.000 
G0 X46.479 Y324.925 Z5.000 
G0 X46.479 Y324.925 Z3.000 
G1 X46.479 Y324.925 Z-1.000 F500.000 
G3 X40.075 Y316.479 Z-1.000 I1.021 J-7.425 F1000.000 
G3 X48.521 Y310.075 Z-1.000 I7.425 J1.021 F1000.000 
G3 X46.479 Y324.925 Z-1.000 I-1.021 J7.425 F1000.000 
G0 Z5.000 
G0 X206.479 Z5.000 
G0 X206.479 Z3.000 
G1 X206.479 Y324.925 Z-1.000 F500.000 
G3 X200.075 Y316.479 Z-1.000 I1.021 J-7.425 F1000.000 
G3 X208.521 Y310.075 Z-1.000 I7.425 J1.021 F1000.000 
G3 X206.479 Y324.925 Z-1.000 I-1.021 J7.425 F1000.000 
G0 Z5.000 
G0 X246.479 Y244.925 Z5.000 
G0 X246.479 Y244.925 Z3.000 
G1 X246.479 Y244.925 Z-1.000 F500.000 
G3 X248.521 Y230.075 Z-1.000 I1.021 J-7.425 F1000.000 
G3 X254.925 Y238.521 Z-1.000 I-1.021 J7.425 F1000.000 
G3 X246.479 Y244.925 Z-1.000 I-7.425 J-1.021 F1000.000 
G0 Z5.000 
G0 X86.479 Z5.000 
G0 X86.479 Z3.000 
G1 X86.479 Y244.925 Z-1.000 F500.000 
G3 X80.075 Y236.479 Z-1.000 I1.021 J-7.425 F1000.000 
G3 X88.521 Y230.075 Z-1.000 I7.425 J1.021 F1000.000 
G3 X86.479 Y244.925 Z-1.000 I-1.021 J7.425 F1000.000 
G0 Z5.000 
G0 X46.479 Z5.000 
G0 X46.479 Z3.000 
G1 X46.479 Y244.925 Z-1.000 F500.000 
G3 X40.075 Y236.479 Z-1.000 I1.021 J-7.425 F1000.000 
G3 X48.521 Y230.075 Z-1.000 I7.425 J1.021 F1000.000 
G3 X46.479 Y244.925 Z-1.000 I-1.021 J7.425 F1000.000 
G0 Z5.000 
G0 Y204.925 Z5.000 
G0 Y204.925 Z3.000 
G1 X46.479 Y204.925 Z-1.000 F500.000 
G3 X48.521 Y190.075 Z-1.000 I1.021 J-7.425 F1000.000 
G3 X54.925 Y198.521 Z-1.000 I-1.021 J7.425 F1000.000 
G3 X46.479 Y204.925 Z-1.000 I-7.425 J-1.021 F1000.000 
G0 Z5.000 
G0 X246.479 Y324.925 Z5.000 
G0 X246.479 Y324.925 Z3.000 
G1 X246.479 Y324.925 Z-1.000 F500.000 
G3 X248.521 Y310.075 Z-1.000 I1.021 J-7.425 F1000.000 
G3 X254.925 Y318.521 Z-1.000 I-1.021 J7.425 F1000.000 
G3 X246.479 Y324.925 Z-1.000 I-7.425 J-1.021 F1000.000 
G0 Z5.000 
G0 X166.479 Y284.925 Z5.000 
G0 X166.479 Y284.925 Z3.000 
G1 X166.479 Y284.925 Z-1.000 F500.000 
G3 X168.521 Y270.075 Z-1.000 I1.021 J-7.425 F1000.000 
G3 X174.925 Y278.521 Z-1.000 I-1.021 J7.425 F1000.000 
G3 X166.479 Y284.925 Z-1.000 I-7.425 J-1.021 F1000.000 
G0 Z5.000 
G0 X86.479 Z5.000 
G0 X86.479 Z3.000 
G1 X86.479 Y284.925 Z-1.000 F500.000 
G3 X88.521 Y270.075 Z-1.000 I1.021 J-7.425 F1000.000 
G3 X94.925 Y278.521 Z-1.000 I-1.021 J7.425 F1000.000 
G3 X86.479 Y284.925 Z-1.000 I-7.425 J-1.021 F1000.000 
G0 Z5.000 
G0 X46.479 Z5.000 
G0 X46.479 Z3.000 
G1 X46.479 Y284.925 Z-1.000 F500.000 
G3 X48.521 Y270.075 Z-1.000 I1.021 J-7.425 F1000.000 
G3 X54.925 Y278.521 Z-1.000 I-1.021 J7.425 F1000.000 
G3 X46.479 Y284.925 Z-1.000 I-7.425 J-1.021 F1000.000 
G0 Z5.000 
G0 X126.479 Y164.925 Z5.000 
G0 X126.479 Y164.925 Z3.000 
G1 X126.479 Y164.925 Z-1.000 F500.000 
G3 X120.075 Y156.479 Z-1.000 I1.021 J-7.425 F1000.000 
G3 X128.521 Y150.075 Z-1.000 I7.425 J1.021 F1000.000 
G3 X126.479 Y164.925 Z-1.000 I-1.021 J7.425 F1000.000 
G0 Z5.000 
G0 Y244.925 Z5.000 
G0 Y244.925 Z3.000 
G1 X126.479 Y244.925 Z-1.000 F500.000 
G3 X120.075 Y236.479 Z-1.000 I1.021 J-7.425 F1000.000 
G3 X128.521 Y230.075 Z-1.000 I7.425 J1.021 F1000.000 
G3 X126.479 Y244.925 Z-1.000 I-1.021 J7.425 F1000.000 
G0 Z5.000 
G0 X246.479 Y284.925 Z5.000 
G0 X246.479 Y284.925 Z3.000 
G1 X246.479 Y284.925 Z-1.000 F500.000 
G3 X248.521 Y270.075 Z-1.000 I1.021 J-7.425 F1000.000 
G3 X254.925 Y278.521 Z-1.000 I-1.021 J7.425 F1000.000 
G3 X246.479 Y284.925 Z-1.000 I-7.425 J-1.021 F1000.000 
G0 Z5.000 
G0 X86.479 Y324.925 Z5.000 
G0 X86.479 Y324.925 Z3.000 
G1 X86.479 Y324.925 Z-1.000 F500.000 
G3 X80.075 Y316.479 Z-1.000 I1.021 J-7.425 F1000.000 
G3 X88.521 Y310.075 Z-1.000 I7.425 J1.021 F1000.000 
G3 X86.479 Y324.925 Z-1.000 I-1.021 J7.425 F1000.000 
G0 Z5.000 
G0 X166.479 Y204.925 Z5.000 
G0 X166.479 Y204.925 Z3.000 
G1 X166.479 Y204.925 Z-1.000 F500.000 
G3 X160.075 Y196.479 Z-1.000 I1.021 J-7.425 F1000.000 
G3 X168.521 Y190.075 Z-1.000 I7.425 J1.021 F1000.000 
G3 X174.925 Y198.521 Z-1.000 I-1.021 J7.425 F1000.000 
G3 X166.479 Y204.925 Z-1.000 I-7.425 J-1.021 F1000.000 
G0 Z5.000 
G0 X206.479 Y284.925 Z5.000 
G0 X206.479 Y284.925 Z3.000 
G1 X206.479 Y284.925 Z-1.000 F500.000 
G3 X208.521 Y270.075 Z-1.000 I1.021 J-7.425 F1000.000 
G3 X214.925 Y278.521 Z-1.000 I-1.021 J7.425 F1000.000 
G3 X206.479 Y284.925 Z-1.000 I-7.425 J-1.021 F1000.000 
G0 Z5.000 
G0 X126.479 Y204.925 Z5.000 
G0 X126.479 Y204.925 Z3.000 
G1 X126.479 Y204.925 Z-1.000 F500.000 
G3 X128.521 Y190.075 Z-1.000 I1.021 J-7.425 F1000.000 
G3 X134.925 Y198.521 Z-1.000 I-1.021 J7.425 F1000.000 
G3 X126.479 Y204.925 Z-1.000 I-7.425 J-1.021 F1000.000 
G0 Z5.000 
G0 X206.479 Y164.925 Z5.000 
G0 X206.479 Y164.925 Z3.000 
G1 X206.479 Y164.925 Z-1.000 F500.000 
G3 X200.075 Y156.479 Z-1.000 I1.021 J-7.425 F1000.000 
G3 X208.521 Y150.075 Z-1.000 I7.425 J1.021 F1000.000 
G3 X206.479 Y164.925 Z-1.000 I-1.021 J7.425 F1000.000 
G0 Z5.000 
G0 X246.479 Z5.000 
G0 X246.479 Z3.000 
G1 X246.479 Y164.925 Z-1.000 F500.000 
G3 X240.075 Y156.479 Z-1.000 I1.021 J-7.425 F1000.000 
G3 X248.521 Y150.075 Z-1.000 I7.425 J1.021 F1000.000 
G3 X246.479 Y164.925 Z-1.000 I-1.021 J7.425 F1000.000 
G0 Z5.000 
G0 X86.479 Z5.000 
G0 X86.479 Z3.000 
G1 X86.479 Y164.925 Z-1.000 F500.000 
G3 X80.075 Y156.479 Z-1.000 I1.021 J-7.425 F1000.000 
G3 X88.521 Y150.075 Z-1.000 I7.425 J1.021 F1000.000 
G3 X86.479 Y164.925 Z-1.000 I-1.021 J7.425 F1000.000 
G0 Z5.000 
G0 X46.479 Z5.000 
G0 X46.479 Z3.000 
G1 X46.479 Y164.925 Z-1.000 F500.000 
G3 X40.075 Y156.479 Z-1.000 I1.021 J-7.425 F1000.000 
G3 X48.521 Y150.075 Z-1.000 I7.425 J1.021 F1000.000 
G3 X46.479 Y164.925 Z-1.000 I-1.021 J7.425 F1000.000 
G0 Z5.000 
G0 X166.479 Y324.925 Z5.000 
G0 X166.479 Y324.925 Z3.000 
G1 X166.479 Y324.925 Z-1.000 F500.000 
G3 X160.075 Y316.479 Z-1.000 I1.021 J-7.425 F1000.000 
G3 X168.521 Y310.075 Z-1.000 I7.425 J1.021 F1000.000 
G3 X166.479 Y324.925 Z-1.000 I-1.021 J7.425 F1000.000 
G0 Z5.000 
G0 X46.071 Y327.899 Z5.000 
G0 X46.071 Y327.899 Z3.000 
G1 X46.071 Y327.899 Z-1.000 F500.000 
G3 X37.101 Y316.071 Z-1.000 I1.429 J-10.399 F1000.000 
G3 X48.929 Y307.101 Z-1.000 I10.399 J1.429 F1000.000 
G3 X46.071 Y327.899 Z-1.000 I-1.429 J10.399 F1000.000 
G0 Z5.000 
G0 Y247.899 Z5.000 
G0 Y247.899 Z3.000 
G1 X46.071 Y247.899 Z-1.000 F500.000 
G3 X37.101 Y236.071 Z-1.000 I1.429 J-10.399 F1000.000 
G3 X48.929 Y227.101 Z-1.000 I10.399 J1.429 F1000.000 
G3 X46.071 Y247.899 Z-1.000 I-1.429 J10.399 F1000.000 
G0 Z5.000 
G0 X246.071 Z5.000 
G0 X246.071 Z3.000 
G1 X246.071 Y247.899 Z-1.000 F500.000 
G3 X248.929 Y227.101 Z-1.000 I1.429 J-10.399 F1000.000 
G3 X257.899 Y238.929 Z-1.000 I-1.429 J10.399 F1000.000 
G3 X246.071 Y247.899 Z-1.000 I-10.399 J-1.429 F1000.000 
G0 Z5.000 
G0 X46.071 Y207.899 Z5.000 
G0 X46.071 Y207.899 Z3.000 
G1 X46.071 Y207.899 Z-1.000 F500.000 
G3 X37.101 Y196.071 Z-1.000 I1.429 J-10.399 F1000.000 
G3 X48.929 Y187.101 Z-1.000 I10.399 J1.429 F1000.000 
G3 X57.899 Y198.929 Z-1.000 I-1.429 J10.399 F1000.000 
G3 X46.071 Y207.899 Z-1.000 I-10.399 J-1.429 F1000.000 
G0 Z5.000 
G0 X86.071 Y287.899 Z5.000 
G0 X86.071 Y287.899 Z3.000 
G1 X86.071 Y287.899 Z-1.000 F500.000 
G3 X88.929 Y267.101 Z-1.000 I1.429 J-10.399 F1000.000 
G3 X97.899 Y278.929 Z-1.000 I-1.429 J10.399 F1000.000 
G3 X86.071 Y287.899 Z-1.000 I-10.399 J-1.429 F1000.000 
G0 Z5.000 
G0 X126.071 Z5.000 
G0 X126.071 Z3.000 
G1 X126.071 Y287.899 Z-1.000 F500.000 
G3 X117.101 Y276.071 Z-1.000 I1.429 J-10.399 F1000.000 
G3 X128.929 Y267.101 Z-1.000 I10.399 J1.429 F1000.000 
G3 X137.899 Y278.929 Z-1.000 I-1.429 J10.399 F1000.000 
G3 X126.071 Y287.899 Z-1.000 I-10.399 J-1.429 F1000.000 
G0 Z5.000 
G0 X86.071 Y127.899 Z5.000 
G0 X86.071 Y127.899 Z3.000 
G1 X86.071 Y127.899 Z-1.000 F500.000 
G3 X77.101 Y116.071 Z-1.000 I1.429 J-10.399 F1000.000 
G3 X88.929 Y107.101 Z-1.000 I10.399 J1.429 F1000.000 
G3 X86.071 Y127.899 Z-1.000 I-1.429 J10.399 F1000.000 
G0 Z5.000 
G0 X206.071 Y287.899 Z5.000 
G0 X206.071 Y287.899 Z3.000 
G1 X206.071 Y287.899 Z-1.000 F500.000 
G3 X208.929 Y267.101 Z-1.000 I1.429 J-10.399 F1000.000 
G3 X217.899 Y278.929 Z-1.000 I-1.429 J10.399 F1000.000 
G3 X206.071 Y287.899 Z-1.000 I-10.399 J-1.429 F1000.000 
G0 Z5.000 
G0 X166.071 Y167.899 Z5.000 
G0 X166.071 Y167.899 Z3.000 
G1 X166.071 Y167.899 Z-1.000 F500.000 
G3 X157.101 Y156.071 Z-1.000 I1.429 J-10.399 F1000.000 
G3 X168.929 Y147.101 Z-1.000 I10.399 J1.429 F1000.000 
G3 X166.071 Y167.899 Z-1.000 I-1.429 J10.399 F1000.000 
G0 Z5.000 
G0 X126.071 Y247.899 Z5.000 
G0 X126.071 Y247.899 Z3.000 
G1 X126.071 Y247.899 Z-1.000 F500.000 
G3 X117.101 Y236.071 Z-1.000 I1.429 J-10.399 F1000.000 
G3 X128.929 Y227.101 Z-1.000 I10.399 J1.429 F1000.000 
G3 X126.071 Y247.899 Z-1.000 I-1.429 J10.399 F1000.000 
G0 Z5.000 
G0 X206.071 Y167.899 Z5.000 
G0 X206.071 Y167.899 Z3.000 
G1 X206.071 Y167.899 Z-1.000 F500.000 
G3 X197.101 Y156.071 Z-1.000 I1.429 J-10.399 F1000.000 
G3 X208.929 Y147.101 Z-1.000 I10.399 J1.429 F1000.000 
G3 X206.071 Y167.899 Z-1.000 I-1.429 J10.399 F1000.000 
G0 Z5.000 
G0 X246.071 Z5.000 
G0 X246.071 Z3.000 
G1 X246.071 Y167.899 Z-1.000 F500.000 
G3 X237.101 Y156.071 Z-1.000 I1.429 J-10.399 F1000.000 
G3 X248.929 Y147.101 Z-1.000 I10.399 J1.429 F1000.000 
G3 X246.071 Y167.899 Z-1.000 I-1.429 J10.399 F1000.000 
G0 Z5.000 
G0 X246.071 Y287.899 Z5.000 
G0 X246.071 Y287.899 Z3.000 
G1 X246.071 Y287.899 Z-1.000 F500.000 
G3 X248.929 Y267.101 Z-1.000 I1.429 J-10.399 F1000.000 
G3 X257.899 Y278.929 Z-1.000 I-1.429 J10.399 F1000.000 
G3 X246.071 Y287.899 Z-1.000 I-10.399 J-1.429 F1000.000 
G0 Z5.000 
G0 X126.071 Y167.899 Z5.000 
G0 X126.071 Y167.899 Z3.000 
G1 X126.071 Y167.899 Z-1.000 F500.000 
G3 X117.101 Y156.071 Z-1.000 I1.429 J-10.399 F1000.000 
G3 X128.929 Y147.101 Z-1.000 I10.399 J1.429 F1000.000 
G3 X126.071 Y167.899 Z-1.000 I-1.429 J10.399 F1000.000 
G0 Z5.000 
G0 X246.071 Y207.899 Z5.000 
G0 X246.071 Y207.899 Z3.000 
G1 X246.071 Y207.899 Z-1.000 F500.000 
G3 X248.929 Y187.101 Z-1.000 I1.429 J-10.399 F1000.000 
G3 X257.899 Y198.929 Z-1.000 I-1.429 J10.399 F1000.000 
G3 X246.071 Y207.899 Z-1.000 I-10.399 J-1.429 F1000.000 
G0 Z5.000 
G0 X46.071 Y167.899 Z5.000 
G0 X46.071 Y167.899 Z3.000 
G1 X46.071 Y167.899 Z-1.000 F500.000 
G3 X37.101 Y156.071 Z-1.000 I1.429 J-10.399 F1000.000 
G3 X48.929 Y147.101 Z-1.000 I10.399 J1.429 F1000.000 
G3 X46.071 Y167.899 Z-1.000 I-1.429 J10.399 F1000.000 
G0 Z5.000 
G0 X86.071 Z5.000 
G0 X86.071 Z3.000 
G1 X86.071 Y167.899 Z-1.000 F500.000 
G3 X77.101 Y156.071 Z-1.000 I1.429 J-10.399 F1000.000 
G3 X88.929 Y147.101 Z-1.000 I10.399 J1.429 F1000.000 
G3 X86.071 Y167.899 Z-1.000 I-1.429 J10.399 F1000.000 
G0 Z5.000 
G0 X166.071 Y287.899 Z5.000 
G0 X166.071 Y287.899 Z3.000 
G1 X166.071 Y287.899 Z-1.000 F500.000 
G3 X168.929 Y267.101 Z-1.000 I1.429 J-10.399 F1000.000 
G3 X177.899 Y278.929 Z-1.000 I-1.429 J10.399 F1000.000 
G3 X166.071 Y287.899 Z-1.000 I-10.399 J-1.429 F1000.000 
G0 Z5.000 
G0 X246.071 Y327.899 Z5.000 
G0 X246.071 Y327.899 Z3.000 
G1 X246.071 Y327.899 Z-1.000 F500.000 
G3 X248.929 Y307.101 Z-1.000 I1.429 J-10.399 F1000.000 
G3 X257.899 Y318.929 Z-1.000 I-1.429 J10.399 F1000.000 
G3 X246.071 Y327.899 Z-1.000 I-10.399 J-1.429 F1000.000 
G0 Z5.000 
G0 X86.071 Y327.899 Z5.000 
G0 X86.071 Y327.899 Z3.000 
G1 X86.071 Y327.899 Z-1.000 F500.000 
G3 X77.101 Y316.071 Z-1.000 I1.429 J-10.399 F1000.000 
G3 X88.929 Y307.101 Z-1.000 I10.399 J1.429 F1000.000 
G3 X86.071 Y327.899 Z-1.000 I-1.429 J10.399 F1000.000 
G0 Z5.000 
G0 X206.071 Y247.899 Z5.000 
G0 X206.071 Y247.899 Z3.000 
G1 X206.071 Y247.899 Z-1.000 F500.000 
G3 X208.929 Y227.101 Z-1.000 I1.429 J-10.399 F1000.000 
G3 X206.071 Y247.899 Z-1.000 I-1.429 J10.399 F1000.000 
G0 Z5.000 
G0 X126.071 Y327.899 Z5.000 
G0 X126.071 Y327.899 Z3.000 
G1 X126.071 Y327.899 Z-1.000 F500.000 
G3 X117.101 Y316.071 Z-1.000 I1.429 J-10.399 F1000.000 
G3 X128.929 Y307.101 Z-1.000 I10.399 J1.429 F1000.000 
G3 X126.071 Y327.899 Z-1.000 I-1.429 J10.399 F1000.000 
G0 Z5.000 
G0 X46.071 Y127.899 Z5.000 
G0 X46.071 Y127.899 Z3.000 
G1 X46.071 Y127.899 Z-1.000 F500.000 
G3 X37.101 Y116.071 Z-1.000 I1.429 J-10.399 F1000.000 
G3 X48.929 Y107.101 Z-1.000 I10.399 J1.429 F1000.000 
G3 X46.071 Y127.899 Z-1.000 I-1.429 J10.399 F1000.000 
G0 Z5.000 
G0 X166.071 Z5.000 
G0 X166.071 Z3.000 
G1 X166.071 Y127.899 Z-1.000 F500.000 
G3 X157.101 Y116.071 Z-1.000 I1.429 J-10.399 F1000.000 
G3 X168.929 Y107.101 Z-1.000 I10.399 J1.429 F1000.000 
G3 X166.071 Y127.899 Z-1.000 I-1.429 J10.399 F1000.000 
G0 Z5.000 
G0 Y247.899 Z5.000 
G0 Y247.899 Z3.000 
G1 X166.071 Y247.899 Z-1.000 F500.000 
G3 X168.929 Y227.101 Z-1.000 I1.429 J-10.399 F1000.000 
G3 X166.071 Y247.899 Z-1.000 I-1.429 J10.399 F1000.000 
G0 Z5.000 
G0 X126.071 Y127.899 Z5.000 
G0 X126.071 Y127.899 Z3.000 
G1 X126.071 Y127.899 Z-1.000 F500.000 
G3 X117.101 Y116.071 Z-1.000 I1.429 J-10.399 F1000.000 
G3 X128.929 Y107.101 Z-1.000 I10.399 J1.429 F1000.000 
G3 X126.071 Y127.899 Z-1.000 I-1.429 J10.399 F1000.000 
G0 Z5.000 
G0 X206.071 Z5.000 
G0 X206.071 Z3.000 
G1 X206.071 Y127.899 Z-1.000 F500.000 
G3 X197.101 Y116.071 Z-1.000 I1.429 J-10.399 F1000.000 
G3 X208.929 Y107.101 Z-1.000 I10.399 J1.429 F1000.000 
G3 X206.071 Y127.899 Z-1.000 I-1.429 J10.399 F1000.000 
G0 Z5.000 
G0 Y207.899 Z5.000 
G0 Y207.899 Z3.000 
G1 X206.071 Y207.899 Z-1.000 F500.000 
G3 X197.101 Y196.071 Z-1.000 I1.429 J-10.399 F1000.000 
G3 X208.929 Y187.101 Z-1.000 I10.399 J1.429 F1000.000 
G3 X206.071 Y207.899 Z-1.000 I-1.429 J10.399 F1000.000 
G0 Z5.000 
G0 Y327.899 Z5.000 
G0 Y327.899 Z3.000 
G1 X206.071 Y327.899 Z-1.000 F500.000 
G3 X208.929 Y307.101 Z-1.000 I1.429 J-10.399 F1000.000 
G3 X206.071 Y327.899 Z-1.000 I-1.429 J10.399 F1000.000 
G0 Z5.000 
G0 X166.071 Z5.000 
G0 X166.071 Z3.000 
G1 X166.071 Y327.899 Z-1.000 F500.000 
G3 X168.929 Y307.101 Z-1.000 I1.429 J-10.399 F1000.000 
G3 X177.899 Y318.929 Z-1.000 I-1.429 J10.399 F1000.000 
G3 X166.071 Y327.899 Z-1.000 I-10.399 J-1.429 F1000.000 
G0 Z5.000 
G0 X86.071 Y247.899 Z5.000 
G0 X86.071 Y247.899 Z3.000 
G1 X86.071 Y247.899 Z-1.000 F500.000 
G3 X77.101 Y236.071 Z-1.000 I1.429 J-10.399 F1000.000 
G3 X88.929 Y227.101 Z-1.000 I10.399 J1.429 F1000.000 
G3 X86.071 Y247.899 Z-1.000 I-1.429 J10.399 F1000.000 
G0 Z5.000 
G0 X246.071 Y127.899 Z5.000 
G0 X246.071 Y127.899 Z3.000 
G1 X246.071 Y127.899 Z-1.000 F500.000 
G3 X248.929 Y107.101 Z-1.000 I1.429 J-10.399 F1000.000 
G3 X257.899 Y118.929 Z-1.000 I-1.429 J10.399 F1000.000 
G3 X246.071 Y127.899 Z-1.000 I-10.399 J-1.429 F1000.000 
G0 Z5.000 
G0 X46.071 Y287.899 Z5.000 
G0 X46.071 Y287.899 Z3.000 
G1 X46.071 Y287.899 Z-1.000 F500.000 
G3 X37.101 Y276.071 Z-1.000 I1.429 J-10.399 F1000.000 
G3 X48.929 Y267.101 Z-1.000 I10.399 J1.429 F1000.000 
G3 X57.899 Y278.929 Z-1.000 I-1.429 J10.399 F1000.000 
G3 X46.071 Y287.899 Z-1.000 I-10.399 J-1.429 F1000.000 
G0 Z5.000 
G0 X126.071 Y207.899 Z5.000 
G0 X126.071 Y207.899 Z3.000 
G1 X126.071 Y207.899 Z-1.000 F500.000 
G3 X117.101 Y196.071 Z-1.000 I1.429 J-10.399 F1000.000 
G3 X128.929 Y187.101 Z-1.000 I10.399 J1.429 F1000.000 
G3 X137.899 Y198.929 Z-1.000 I-1.429 J10.399 F1000.000 
G3 X126.071 Y207.899 Z-1.000 I-10.399 J-1.429 F1000.000 
G0 Z5.000 
G0 X86.071 Z5.000 
G0 X86.071 Z3.000 
G1 X86.071 Y207.899 Z-1.000 F500.000 
G3 X88.929 Y187.101 Z-1.000 I1.429 J-10.399 F1000.000 
G3 X97.899 Y198.929 Z-1.000 I-1.429 J10.399 F1000.000 
G3 X86.071 Y207.899 Z-1.000 I-10.399 J-1.429 F1000.000 
G0 Z5.000 
G0 X166.071 Z5.000 
G0 X166.071 Z3.000 
G1 X166.071 Y207.899 Z-1.000 F500.000 
G3 X168.929 Y187.101 Z-1.000 I1.429 J-10.399 F1000.000 
G3 X166.071 Y207.899 Z-1.000 I-1.429 J10.399 F1000.000 
G0 Z5.000 
G0 X125.662 Y250.873 Z5.000 
G0 X125.662 Y250.873 Z3.000 
G1 X125.662 Y250.873 Z-1.000 F500.000 
G3 X129.338 Y224.127 Z-1.000 I1.838 J-13.373 F1000.000 
G3 X140.873 Y239.338 Z-1.000 I-1.838 J13.373 F1000.000 
G3 X125.662 Y250.873 Z-1.000 I-13.373 J-1.838 F1000.000 
G0 Z5.000 
G0 X165.662 Y130.873 Z5.000 
G0 X165.662 Y130.873 Z3.000 
G1 X165.662 Y130.873 Z-1.000 F500.000 
G3 X154.127 Y115.662 Z-1.000 I1.838 J-13.373 F1000.000 
G3 X169.338 Y104.127 Z-1.000 I13.373 J1.838 F1000.000 
G3 X165.662 Y130.873 Z-1.000 I-1.838 J13.373 F1000.000 
G0 Z5.000 
G0 X205.662 Z5.000 
G0 X205.662 Z3.000 
G1 X205.662 Y130.873 Z-1.000 F500.000 
G3 X194.127 Y115.662 Z-1.000 I1.838 J-13.373 F1000.000 
G3 X209.338 Y104.127 Z-1.000 I13.373 J1.838 F1000.000 
G3 X220.873 Y119.338 Z-1.000 I-1.838 J13.373 F1000.000 
G3 X205.662 Y130.873 Z-1.000 I-13.373 J-1.838 F1000.000 
G0 Z5.000 
G0 X165.662 Y250.873 Z5.000 
G0 X165.662 Y250.873 Z3.000 
G1 X165.662 Y250.873 Z-1.000 F500.000 
G3 X169.338 Y224.127 Z-1.000 I1.838 J-13.373 F1000.000 
G3 X165.662 Y250.873 Z-1.000 I-1.838 J13.373 F1000.000 
G0 Z5.000 
G0 X85.662 Z5.000 
G0 X85.662 Z3.000 
G1 X85.662 Y250.873 Z-1.000 F500.000 
G3 X89.338 Y224.127 Z-1.000 I1.838 J-13.373 F1000.000 
G3 X100.873 Y239.338 Z-1.000 I-1.838 J13.373 F1000.000 
G3 X85.662 Y250.873 Z-1.000 I-13.373 J-1.838 F1000.000 
G0 Z5.000 
G0 X245.662 Y330.873 Z5.000 
G0 X245.662 Y330.873 Z3.000 
G1 X245.662 Y330.873 Z-1.000 F500.000 
G3 X249.338 Y304.127 Z-1.000 I1.838 J-13.373 F1000.000 
G3 X260.873 Y319.338 Z-1.000 I-1.838 J13.373 F1000.000 
G3 X245.662 Y330.873 Z-1.000 I-13.373 J-1.838 F1000.000 
G0 Z5.000 
G0 X205.662 Y330.873 Z5.000 
G0 X205.662 Y330.873 Z3.000 
G1 X205.662 Y330.873 Z-1.000 F500.000 
G3 X209.338 Y304.127 Z-1.000 I1.838 J-13.373 F1000.000 
G3 X205.662 Y330.873 Z-1.000 I-1.838 J13.373 F1000.000 
G0 Z5.000 
G0 X85.662 Z5.000 
G0 X85.662 Z3.000 
G1 X85.662 Y330.873 Z-1.000 F500.000 
G3 X89.338 Y304.127 Z-1.000 I1.838 J-13.373 F1000.000 
G3 X100.873 Y319.338 Z-1.000 I-1.838 J13.373 F1000.000 
G3 X85.662 Y330.873 Z-1.000 I-13.373 J-1.838 F1000.000 
G0 Z5.000 
G0 X205.662 Y250.873 Z5.000 
G0 X205.662 Y250.873 Z3.000 
G1 X205.662 Y250.873 Z-1.000 F500.000 
G3 X209.338 Y224.127 Z-1.000 I1.838 J-13.373 F1000.000 
G3 X205.662 Y250.873 Z-1.000 I-1.838 J13.373 F1000.000 
G0 Z5.000 
G0 X165.662 Y330.873 Z5.000 
G0 X165.662 Y330.873 Z3.000 
G1 X165.662 Y330.873 Z-1.000 F500.000 
G3 X169.338 Y304.127 Z-1.000 I1.838 J-13.373 F1000.000 
G3 X180.873 Y319.338 Z-1.000 I-1.838 J13.373 F1000.000 
G3 X165.662 Y330.873 Z-1.000 I-13.373 J-1.838 F1000.000 
G0 Z5.000 
G0 X205.662 Y290.873 Z5.000 
G0 X205.662 Y290.873 Z3.000 
G1 X205.662 Y290.873 Z-1.000 F500.000 
G3 X194.127 Y275.662 Z-1.000 I1.838 J-13.373 F1000.000 
G3 X209.338 Y264.127 Z-1.000 I13.373 J1.838 F1000.000 
G3 X205.662 Y290.873 Z-1.000 I-1.838 J13.373 F1000.000 
G0 Z5.000 
G0 X245.662 Y130.873 Z5.000 
G0 X245.662 Y130.873 Z3.000 
G1 X245.662 Y130.873 Z-1.000 F500.000 
G3 X249.338 Y104.127 Z-1.000 I1.838 J-13.373 F1000.000 
G3 X260.873 Y119.338 Z-1.000 I-1.838 J13.373 F1000.000 
G3 X245.662 Y130.873 Z-1.000 I-13.373 J-1.838 F1000.000 
G0 Z5.000 
G0 X165.662 Y290.873 Z5.000 
G0 X165.662 Y290.873 Z3.000 
G1 X165.662 Y290.873 Z-1.000 F500.000 
G3 X154.127 Y275.662 Z-1.000 I1.838 J-13.373 F1000.000 
G3 X169.338 Y264.127 Z-1.000 I13.373 J1.838 F1000.000 
G3 X165.662 Y290.873 Z-1.000 I-1.838 J13.373 F1000.000 
G0 Z5.000 
G0 X45.662 Z5.000 
G0 X45.662 Z3.000 
G1 X45.662 Y290.873 Z-1.000 F500.000 
G3 X49.338 Y264.127 Z-1.000 I1.838 J-13.373 F1000.000 
G3 X60.873 Y279.338 Z-1.000 I-1.838 J13.373 F1000.000 
G3 X45.662 Y290.873 Z-1.000 I-13.373 J-1.838 F1000.000 
G0 Z5.000 
G0 X125.662 Z5.000 
G0 X125.662 Z3.000 
G1 X125.662 Y290.873 Z-1.000 F500.000 
G3 X129.338 Y264.127 Z-1.000 I1.838 J-13.373 F1000.000 
G3 X140.873 Y279.338 Z-1.000 I-1.838 J13.373 F1000.000 
G3 X125.662 Y290.873 Z-1.000 I-13.373 J-1.838 F1000.000 
G0 Z5.000 
G0 X165.662 Y170.873 Z5.000 
G0 X165.662 Y170.873 Z3.000 
G1 X165.662 Y170.873 Z-1.000 F500.000 
G3 X169.338 Y144.127 Z-1.000 I1.838 J-13.373 F1000.000 
G3 X180.873 Y159.338 Z-1.000 I-1.838 J13.373 F1000.000 
G3 X165.662 Y170.873 Z-1.000 I-13.373 J-1.838 F1000.000 
G0 Z5.000 
G0 X205.662 Z5.000 
G0 X205.662 Z3.000 
G1 X205.662 Y170.873 Z-1.000 F500.000 
G3 X209.338 Y144.127 Z-1.000 I1.838 J-13.373 F1000.000 
G3 X220.873 Y159.338 Z-1.000 I-1.838 J13.373 F1000.000 
G3 X205.662 Y170.873 Z-1.000 I-13.373 J-1.838 F1000.000 
G0 Z5.000 
G0 X245.662 Y170.873 Z5.000 
G0 X245.662 Y170.873 Z3.000 
G1 X245.662 Y170.873 Z-1.000 F500.000 
G3 X249.338 Y144.127 Z-1.000 I1.838 J-13.373 F1000.000 
G3 X260.873 Y159.338 Z-1.000 I-1.838 J13.373 F1000.000 
G3 X245.662 Y170.873 Z-1.000 I-13.373 J-1.838 F1000.000 
G0 Z5.000 
G0 X45.662 Y130.873 Z5.000 
G0 X45.662 Y130.873 Z3.000 
G1 X45.662 Y130.873 Z-1.000 F500.000 
G3 X49.338 Y104.127 Z-1.000 I1.838 J-13.373 F1000.000 
G3 X60.873 Y119.338 Z-1.000 I-1.838 J13.373 F1000.000 
G3 X45.662 Y130.873 Z-1.000 I-13.373 J-1.838 F1000.000 
G0 Z5.000 
G0 X125.662 Y330.873 Z5.000 
G0 X125.662 Y330.873 Z3.000 
G1 X125.662 Y330.873 Z-1.000 F500.000 
G3 X129.338 Y304.127 Z-1.000 I1.838 J-13.373 F1000.000 
G3 X140.873 Y319.338 Z-1.000 I-1.838 J13.373 F1000.000 
G3 X125.662 Y330.873 Z-1.000 I-13.373 J-1.838 F1000.000 
G0 Z5.000 
G0 X45.662 Y250.873 Z5.000 
G0 X45.662 Y250.873 Z3.000 
G1 X45.662 Y250.873 Z-1.000 F500.000 
G3 X49.338 Y224.127 Z-1.000 I1.838 J-13.373 F1000.000 
G3 X60.873 Y239.338 Z-1.000 I-1.838 J13.373 F1000.000 
G3 X45.662 Y250.873 Z-1.000 I-13.373 J-1.838 F1000.000 
G0 Z5.000 
G0 X245.662 Y210.873 Z5.000 
G0 X245.662 Y210.873 Z3.000 
G1 X245.662 Y210.873 Z-1.000 F500.000 
G3 X249.338 Y184.127 Z-1.000 I1.838 J-13.373 F1000.000 
G3 X260.873 Y199.338 Z-1.000 I-1.838 J13.373 F1000.000 
G3 X245.662 Y210.873 Z-1.000 I-13.373 J-1.838 F1000.000 
G0 Z5.000 
G0 X45.662 Y170.873 Z5.000 
G0 X45.662 Y170.873 Z3.000 
G1 X45.662 Y170.873 Z-1.000 F500.000 
G3 X49.338 Y144.127 Z-1.000 I1.838 J-13.373 F1000.000 
G3 X60.873 Y159.338 Z-1.000 I-1.838 J13.373 F1000.000 
G3 X45.662 Y170.873 Z-1.000 I-13.373 J-1.838 F1000.000 
G0 Z5.000 
G0 X85.662 Y210.873 Z5.000 
G0 X85.662 Y210.873 Z3.000 
G1 X85.662 Y210.873 Z-1.000 F500.000 
G3 X89.338 Y184.127 Z-1.000 I1.838 J-13.373 F1000.000 
G3 X100.873 Y199.338 Z-1.000 I-1.838 J13.373 F1000.000 
G3 X85.662 Y210.873 Z-1.000 I-13.373 J-1.838 F1000.000 
G0 Z5.000 
G0 X125.662 Z5.000 
G0 X125.662 Z3.000 
G1 X125.662 Y210.873 Z-1.000 F500.000 
G3 X129.338 Y184.127 Z-1.000 I1.838 J-13.373 F1000.000 
G3 X140.873 Y199.338 Z-1.000 I-1.838 J13.373 F1000.000 
G3 X125.662 Y210.873 Z-1.000 I-13.373 J-1.838 F1000.000 
G0 Z5.000 
G0 X85.662 Y170.873 Z5.000 
G0 X85.662 Y170.873 Z3.000 
G1 X85.662 Y170.873 Z-1.000 F500.000 
G3 X89.338 Y144.127 Z-1.000 I1.838 J-13.373 F1000.000 
G3 X100.873 Y159.338 Z-1.000 I-1.838 J13.373 F1000.000 
G3 X85.662 Y170.873 Z-1.000 I-13.373 J-1.838 F1000.000 
G0 Z5.000 
G0 X125.662 Z5.000 
G0 X125.662 Z3.000 
G1 X125.662 Y170.873 Z-1.000 F500.000 
G3 X129.338 Y144.127 Z-1.000 I1.838 J-13.373 F1000.000 
G3 X140.873 Y159.338 Z-1.000 I-1.838 J13.373 F1000.000 
G3 X125.662 Y170.873 Z-1.000 I-13.373 J-1.838 F1000.000 
G0 Z5.000 
G0 X85.662 Y290.873 Z5.000 
G0 X85.662 Y290.873 Z3.000 
G1 X85.662 Y290.873 Z-1.000 F500.000 
G3 X89.338 Y264.127 Z-1.000 I1.838 J-13.373 F1000.000 
G3 X100.873 Y279.338 Z-1.000 I-1.838 J13.373 F1000.000 
G3 X85.662 Y290.873 Z-1.000 I-13.373 J-1.838 F1000.000 
G0 Z5.000 
G0 X245.662 Z5.000 
G0 X245.662 Z3.000 
G1 X245.662 Y290.873 Z-1.000 F500.000 
G3 X249.338 Y264.127 Z-1.000 I1.838 J-13.373 F1000.000 
G3 X260.873 Y279.338 Z-1.000 I-1.838 J13.373 F1000.000 
G3 X245.662 Y290.873 Z-1.000 I-13.373 J-1.838 F1000.000 
G0 Z5.000 
G0 X165.662 Y210.873 Z5.000 
G0 X165.662 Y210.873 Z3.000 
G1 X165.662 Y210.873 Z-1.000 F500.000 
G3 X169.338 Y184.127 Z-1.000 I1.838 J-13.373 F1000.000 
G3 X165.662 Y210.873 Z-1.000 I-1.838 J13.373 F1000.000 
G0 Z5.000 
G0 X205.662 Z5.000 
G0 X205.662 Z3.000 
G1 X205.662 Y210.873 Z-1.000 F500.000 
G3 X209.338 Y184.127 Z-1.000 I1.838 J-13.373 F1000.000 
G3 X205.662 Y210.873 Z-1.000 I-1.838 J13.373 F1000.000 
G0 Z5.000 
G0 X45.662 Y330.873 Z5.000 
G0 X45.662 Y330.873 Z3.000 
G1 X45.662 Y330.873 Z-1.000 F500.000 
G3 X49.338 Y304.127 Z-1.000 I1.838 J-13.373 F1000.000 
G3 X60.873 Y319.338 Z-1.000 I-1.838 J13.373 F1000.000 
G3 X45.662 Y330.873 Z-1.000 I-13.373 J-1.838 F1000.000 
G0 Z5.000 
G0 X245.662 Y250.873 Z5.000 
G0 X245.662 Y250.873 Z3.000 
G1 X245.662 Y250.873 Z-1.000 F500.000 
G3 X249.338 Y224.127 Z-1.000 I1.838 J-13.373 F1000.000 
G3 X260.873 Y239.338 Z-1.000 I-1.838 J13.373 F1000.000 
G3 X245.662 Y250.873 Z-1.000 I-13.373 J-1.838 F1000.000 
G0 Z5.000 
G0 X45.662 Y210.873 Z5.000 
G0 X45.662 Y210.873 Z3.000 
G1 X45.662 Y210.873 Z-1.000 F500.000 
G3 X49.338 Y184.127 Z-1.000 I1.838 J-13.373 F1000.000 
G3 X60.873 Y199.338 Z-1.000 I-1.838 J13.373 F1000.000 
G3 X45.662 Y210.873 Z-1.000 I-13.373 J-1.838 F1000.000 
G0 Z5.000 
G0 X85.662 Y130.873 Z5.000 
G0 X85.662 Y130.873 Z3.000 
G1 X85.662 Y130.873 Z-1.000 F500.000 
G3 X89.338 Y104.127 Z-1.000 I1.838 J-13.373 F1000.000 
G3 X100.873 Y119.338 Z-1.000 I-1.838 J13.373 F1000.000 
G3 X85.662 Y130.873 Z-1.000 I-13.373 J-1.838 F1000.000 
G0 Z5.000 
G0 X125.662 Z5.000 
G0 X125.662 Z3.000 
G1 X125.662 Y130.873 Z-1.000 F500.000 
G3 X129.338 Y104.127 Z-1.000 I1.838 J-13.373 F1000.000 
G3 X140.873 Y119.338 Z-1.000 I-1.838 J13.373 F1000.000 
G3 X125.662 Y130.873 Z-1.000 I-13.373 J-1.838 F1000.000 
G0 Z5.000 
G0 X247.430 Y317.985 Z5.000 
G0 X247.430 Y317.985 Z3.000 
G1 X247.430 Y317.985 Z-2.000 F500.000 
G3 X247.570 Y317.015 Z-2.000 I0.070 J-0.485 F1000.000 
G3 X247.985 Y317.570 Z-2.000 I-0.070 J0.485 F1000.000 
G3 X247.430 Y317.985 Z-2.000 I-0.485 J-0.070 F1000.000 
G0 Z5.000 
G0 X167.430 Y317.985 Z5.000 
G0 X167.430 Y317.985 Z3.000 
G1 X167.430 Y317.985 Z-2.000 F500.000 
G3 X167.015 Y317.430 Z-2.000 I0.070 J-0.485 F1000.000 
G3 X167.570 Y317.015 Z-2.000 I0.485 J0.070 F1000.000 
G3 X167.430 Y317.985 Z-2.000 I-0.070 J0.485 F1000.000 
G0 Z5.000 
G0 X87.430 Y157.985 Z5.000 
G0 X87.430 Y157.985 Z3.000 
G1 X87.430 Y157.985 Z-2.000 F500.000 
G3 X87.015 Y157.430 Z-2.000 I0.070 J-0.485 F1000.000 
G3 X87.570 Y157.015 Z-2.000 I0.485 J0.070 F1000.000 
G3 X87.430 Y157.985 Z-2.000 I-0.070 J0.485 F1000.000 
G0 Z5.000 
G0 X127.430 Z5.000 
G0 X127.430 Z3.000 
G1 X127.430 Y157.985 Z-2.000 F500.000 
G3 X127.015 Y157.430 Z-2.000 I0.070 J-0.485 F1000.000 
G3 X127.570 Y157.015 Z-2.000 I0.485 J0.070 F1000.000 
G3 X127.430 Y157.985 Z-2.000 I-0.070 J0.485 F1000.000 
G0 Z5.000 
G0 X167.430 Y157.985 Z5.000 
G0 X167.430 Y157.985 Z3.000 
G1 X167.430 Y157.985 Z-2.000 F500.000 
G3 X167.015 Y157.430 Z-2.000 I0.070 J-0.485 F1000.000 
G3 X167.570 Y157.015 Z-2.000 I0.485 J0.070 F1000.000 
G3 X167.430 Y157.985 Z-2.000 I-0.070 J0.485 F1000.000 
G0 Z5.000 
G0 X207.430 Y117.985 Z5.000 
G0 X207.430 Y117.985 Z3.000 
G1 X207.430 Y117.985 Z-2.000 F500.000 
G3 X207.570 Y117.015 Z-2.000 I0.070 J-0.485 F1000.000 
G3 X207.985 Y117.570 Z-2.000 I-0.070 J0.485 F1000.000 
G3 X207.430 Y117.985 Z-2.000 I-0.485 J-0.070 F1000.000 
G0 Z5.000 
G0 X167.430 Y117.985 Z5.000 
G0 X167.430 Y117.985 Z3.000 
G1 X167.430 Y117.985 Z-2.000 F500.000 
G3 X167.015 Y117.430 Z-2.000 I0.070 J-0.485 F1000.000 
G3 X167.570 Y117.015 Z-2.000 I0.485 J0.070 F1000.000 
G3 X167.430 Y117.985 Z-2.000 I-0.070 J0.485 F1000.000 
G0 Z5.000 
G0 X127.430 Y117.985 Z5.000 
G0 X127.430 Y117.985 Z3.000 
G1 X127.430 Y117.985 Z-2.000 F500.000 
G3 X127.570 Y117.015 Z-2.000 I0.070 J-0.485 F1000.000 
G3 X127.985 Y117.570 Z-2.000 I-0.070 J0.485 F1000.000 
G3 X127.430 Y117.985 Z-2.000 I-0.485 J-0.070 F1000.000 
G0 Z5.000 
G0 X87.430 Z5.000 
G0 X87.430 Z3.000 
G1 X87.430 Y117.985 Z-2.000 F500.000 
G3 X87.570 Y117.015 Z-2.000 I0.070 J-0.485 F1000.000 
G3 X87.430 Y117.985 Z-2.000 I-0.070 J0.485 F1000.000 
G0 Z5.000 
G0 X247.430 Z5.000 
G0 X247.430 Z3.000 
G1 X247.430 Y117.985 Z-2.000 F500.000 
G3 X247.570 Y117.015 Z-2.000 I0.070 J-0.485 F1000.000 
G3 X247.985 Y117.570 Z-2.000 I-0.070 J0.485 F1000.000 
G3 X247.430 Y117.985 Z-2.000 I-0.485 J-0.070 F1000.000 
G0 Z5.000 
G0 X47.430 Z5.000 
G0 X47.430 Z3.000 
G1 X47.430 Y117.985 Z-2.000 F500.000 
G3 X47.015 Y117.430 Z-2.000 I0.070 J-0.485 F1000.000 
G3 X47.570 Y117.015 Z-2.000 I0.485 J0.070 F1000.000 
G3 X47.430 Y117.985 Z-2.000 I-0.070 J0.485 F1000.000 
G0 Z5.000 
G0 X167.430 Y237.985 Z5.000 
G0 X167.430 Y237.985 Z3.000 
G1 X167.430 Y237.985 Z-2.000 F500.000 
G3 X167.015 Y237.430 Z-2.000 I0.070 J-0.485 F1000.000 
G3 X167.570 Y237.015 Z-2.000 I0.485 J0.070 F1000.000 
G3 X167.430 Y237.985 Z-2.000 I-0.070 J0.485 F1000.000 
G0 Z5.000 
G0 X127.430 Y237.985 Z5.000 
G0 X127.430 Y237.985 Z3.000 
G1 X127.430 Y237.985 Z-2.000 F500.000 
G3 X127.570 Y237.015 Z-2.000 I0.070 J-0.485 F1000.000 
G3 X127.985 Y237.570 Z-2.000 I-0.070 J0.485 F1000.000 
G3 X127.430 Y237.985 Z-2.000 I-0.485 J-0.070 F1000.000 
G0 Z5.000 
G0 X207.430 Z5.000 
G0 X207.430 Z3.000 
G1 X207.430 Y237.985 Z-2.000 F500.000 
G3 X207.015 Y237.430 Z-2.000 I0.070 J-0.485 F1000.000 
G3 X207.570 Y237.015 Z-2.000 I0.485 J0.070 F1000.000 
G3 X207.985 Y237.570 Z-2.000 I-0.070 J0.485 F1000.000 
G3 X207.430 Y237.985 Z-2.000 I-0.485 J-0.070 F1000.000 
G0 Z5.000 
G0 X47.430 Z5.000 
G0 X47.430 Z3.000 
G1 X47.430 Y237.985 Z-2.000 F500.000 
G3 X47.015 Y237.430 Z-2.000 I0.070 J-0.485 F1000.000 
G3 X47.570 Y237.015 Z-2.000 I0.485 J0.070 F1000.000 
G3 X47.430 Y237.985 Z-2.000 I-0.070 J0.485 F1000.000 
G0 Z5.000 
G0 X127.430 Y277.985 Z5.000 
G0 X127.430 Y277.985 Z3.000 
G1 X127.430 Y277.985 Z-2.000 F500.000 
G3 X127.570 Y277.015 Z-2.000 I0.070 J-0.485 F1000.000 
G3 X127.985 Y277.570 Z-2.000 I-0.070 J0.485 F1000.000 
G3 X127.430 Y277.985 Z-2.000 I-0.485 J-0.070 F1000.000 
G0 Z5.000 
G0 X127.430 Y317.985 Z5.000 
G0 X127.430 Y317.985 Z3.000 
G1 X127.430 Y317.985 Z-2.000 F500.000 
G3 X127.570 Y317.015 Z-2.000 I0.070 J-0.485 F1000.000 
G3 X127.985 Y317.570 Z-2.000 I-0.070 J0.485 F1000.000 
G3 X127.430 Y317.985 Z-2.000 I-0.485 J-0.070 F1000.000 
G0 Z5.000 
G0 X87.430 Z5.000 
G0 X87.430 Z3.000 
G1 X87.430 Y317.985 Z-2.000 F500.000 
G3 X87.015 Y317.430 Z-2.000 I0.070 J-0.485 F1000.000 
G3 X87.570 Y317.015 Z-2.000 I0.485 J0.070 F1000.000 
G3 X87.430 Y317.985 Z-2.000 I-0.070 J0.485 F1000.000 
G0 Z5.000 
G0 X47.430 Z5.000 
G0 X47.430 Z3.000 
G1 X47.430 Y317.985 Z-2.000 F500.000 
G3 X47.015 Y317.430 Z-2.000 I0.070 J-0.485 F1000.000 
G3 X47.570 Y317.015 Z-2.000 I0.485 J0.070 F1000.000 
G3 X47.430 Y317.985 Z-2.000 I-0.070 J0.485 F1000.000 
G0 Z5.000 
G0 X247.430 Y277.985 Z5.000 
G0 X247.430 Y277.985 Z3.000 
G1 X247.430 Y277.985 Z-2.000 F500.000 
G3 X247.570 Y277.015 Z-2.000 I0.070 J-0.485 F1000.000 
G3 X247.985 Y277.570 Z-2.000 I-0.070 J0.485 F1000.000 
G3 X247.430 Y277.985 Z-2.000 I-0.485 J-0.070 F1000.000 
G0 Z5.000 
G0 X207.430 Z5.000 
G0 X207.430 Z3.000 
G1 X207.430 Y277.985 Z-2.000 F500.000 
G3 X207.570 Y277.015 Z-2.000 I0.070 J-0.485 F1000.000 
G3 X207.985 Y277.570 Z-2.000 I-0.070 J0.485 F1000.000 
G3 X207.430 Y277.985 Z-2.000 I-0.485 J-0.070 F1000.000 
G0 Z5.000 
G0 X47.430 Z5.000 
G0 X47.430 Z3.000 
G1 X47.430 Y277.985 Z-2.000 F500.000 
G3 X47.015 Y277.430 Z-2.000 I0.070 J-0.485 F1000.000 
G3 X47.570 Y277.015 Z-2.000 I0.485 J0.070 F1000.000 
G3 X47.430 Y277.985 Z-2.000 I-0.070 J0.485 F1000.000 
G0 Z5.000 
G0 X87.430 Z5.000 
G0 X87.430 Z3.000 
G1 X87.430 Y277.985 Z-2.000 F500.000 
G3 X87.570 Y277.015 Z-2.000 I0.070 J-0.485 F1000.000 
G3 X87.985 Y277.570 Z-2.000 I-0.070 J0.485 F1000.000 
G3 X87.430 Y277.985 Z-2.000 I-0.485 J-0.070 F1000.000 
G0 Z5.000 
G0 X167.430 Z5.000 
G0 X167.430 Z3.000 
G1 X167.430 Y277.985 Z-2.000 F500.000 
G3 X167.570 Y277.015 Z-2.000 I0.070 J-0.485 F1000.000 
G3 X167.985 Y277.570 Z-2.000 I-0.070 J0.485 F1000.000 
G3 X167.430 Y277.985 Z-2.000 I-0.485 J-0.070 F1000.000 
G0 Z5.000 
G0 X87.430 Y237.985 Z5.000 
G0 X87.430 Y237.985 Z3.000 
G1 X87.430 Y237.985 Z-2.000 F500.000 
G3 X87.015 Y237.430 Z-2.000 I0.070 J-0.485 F1000.000 
G3 X87.570 Y237.015 Z-2.000 I0.485 J0.070 F1000.000 
G3 X87.430 Y237.985 Z-2.000 I-0.070 J0.485 F1000.000 
G0 Z5.000 
G0 X247.430 Z5.000 
G0 X247.430 Z3.000 
G1 X247.430 Y237.985 Z-2.000 F500.000 
G3 X247.570 Y237.015 Z-2.000 I0.070 J-0.485 F1000.000 
G3 X247.985 Y237.570 Z-2.000 I-0.070 J0.485 F1000.000 
G3 X247.430 Y237.985 Z-2.000 I-0.485 J-0.070 F1000.000 
G0 Z5.000 
G0 X167.430 Y197.985 Z5.000 
G0 X167.430 Y197.985 Z3.000 
G1 X167.430 Y197.985 Z-2.000 F500.000 
G3 X167.015 Y197.430 Z-2.000 I0.070 J-0.485 F1000.000 
G3 X167.570 Y197.015 Z-2.000 I0.485 J0.070 F1000.000 
G3 X167.430 Y197.985 Z-2.000 I-0.070 J0.485 F1000.000 
G0 Z5.000 
G0 X207.430 Y197.985 Z5.000 
G0 X207.430 Y197.985 Z3.000 
G1 X207.430 Y197.985 Z-2.000 F500.000 
G3 X207.570 Y197.015 Z-2.000 I0.070 J-0.485 F1000.000 
G3 X207.985 Y197.570 Z-2.000 I-0.070 J0.485 F1000.000 
G3 X207.430 Y197.985 Z-2.000 I-0.485 J-0.070 F1000.000 
G0 Z5.000 
G0 X247.430 Z5.000 
G0 X247.430 Z3.000 
G1 X247.430 Y197.985 Z-2.000 F500.000 
G3 X247.570 Y197.015 Z-2.000 I0.070 J-0.485 F1000.000 
G3 X247.985 Y197.570 Z-2.000 I-0.070 J0.485 F1000.000 
G3 X247.430 Y197.985 Z-2.000 I-0.485 J-0.070 F1000.000 
G0 Z5.000 
G0 X87.430 Z5.000 
G0 X87.430 Z3.000 
G1 X87.430 Y197.985 Z-2.000 F500.000 
G3 X87.015 Y197.430 Z-2.000 I0.070 J-0.485 F1000.000 
G3 X87.570 Y197.015 Z-2.000 I0.485 J0.070 F1000.000 
G3 X87.985 Y197.570 Z-2.000 I-0.070 J0.485 F1000.000 
G3 X87.430 Y197.985 Z-2.000 I-0.485 J-0.070 F1000.000 
G0 Z5.000 
G0 X127.430 Z5.000 
G0 X127.430 Z3.000 
G1 X127.430 Y197.985 Z-2.000 F500.000 
G3 X127.570 Y197.015 Z-2.000 I0.070 J-0.485 F1000.000 
G3 X127.985 Y197.570 Z-2.000 I-0.070 J0.485 F1000.000 
G3 X127.430 Y197.985 Z-2.000 I-0.485 J-0.070 F1000.000 
G0 Z5.000 
G0 X47.430 Z5.000 
G0 X47.430 Z3.000 
G1 X47.430 Y197.985 Z-2.000 F500.000 
G3 X47.015 Y197.430 Z-2.000 I0.070 J-0.485 F1000.000 
G3 X47.570 Y197.015 Z-2.000 I0.485 J0.070 F1000.000 
G3 X47.430 Y197.985 Z-2.000 I-0.070 J0.485 F1000.000 
G0 Z5.000 
G0 X247.430 Y157.985 Z5.000 
G0 X247.430 Y157.985 Z3.000 
G1 X247.430 Y157.985 Z-2.000 F500.000 
G3 X247.570 Y157.015 Z-2.000 I0.070 J-0.485 F1000.000 
G3 X247.985 Y157.570 Z-2.000 I-0.070 J0.485 F1000.000 
G3 X247.430 Y157.985 Z-2.000 I-0.485 J-0.070 F1000.000 
G0 Z5.000 
G0 X207.430 Z5.000 
G0 X207.430 Z3.000 
G1 X207.430 Y157.985 Z-2.000 F500.000 
G3 X207.015 Y157.430 Z-2.000 I0.070 J-0.485 F1000.000 
G3 X207.570 Y157.015 Z-2.000 I0.485 J0.070 F1000.000 
G3 X207.430 Y157.985 Z-2.000 I-0.070 J0.485 F1000.000 
G0 Z5.000 
G0 Y317.985 Z5.000 
G0 Y317.985 Z3.000 
G1 X207.430 Y317.985 Z-2.000 F500.000 
G3 X207.570 Y317.015 Z-2.000 I0.070 J-0.485 F1000.000 
G3 X207.430 Y317.985 Z-2.000 I-0.070 J0.485 F1000.000 
G0 Z5.000 
G0 X47.430 Y157.985 Z5.000 
G0 X47.430 Y157.985 Z3.000 
G1 X47.430 Y157.985 Z-2.000 F500.000 
G3 X47.015 Y157.430 Z-2.000 I0.070 J-0.485 F1000.000 
G3 X47.570 Y157.015 Z-2.000 I0.485 J0.070 F1000.000 
G3 X47.430 Y157.985 Z-2.000 I-0.070 J0.485 F1000.000 
G0 Z5.000 
G0 X167.003 Y320.957 Z5.000 
G0 X167.003 Y320.957 Z3.000 
G1 X167.003 Y320.957 Z-2.000 F500.000 
G3 X167.997 Y314.043 Z-2.000 I0.497 J-3.457 F1000.000 
G3 X167.003 Y320.957 Z-2.000 I-0.497 J3.457 F1000.000 
G0 Z5.000 
G0 X47.003 Y320.957 Z5.000 
G0 X47.003 Y320.957 Z3.000 
G1 X47.003 Y320.957 Z-2.000 F500.000 
G3 X47.997 Y314.043 Z-2.000 I0.497 J-3.457 F1000.000 
G3 X50.957 Y317.997 Z-2.000 I-0.497 J3.457 F1000.000 
G3 X47.003 Y320.957 Z-2.000 I-3.457 J-0.497 F1000.000 
G0 Z5.000 
G0 Y120.957 Z5.000 
G0 Y120.957 Z3.000 
G1 X47.003 Y120.957 Z-2.000 F500.000 
G3 X47.997 Y114.043 Z-2.000 I0.497 J-3.457 F1000.000 
G3 X50.957 Y117.997 Z-2.000 I-0.497 J3.457 F1000.000 
G3 X47.003 Y120.957 Z-2.000 I-3.457 J-0.497 F1000.000 
G0 Z5.000 
G0 X167.003 Y160.957 Z5.000 
G0 X167.003 Y160.957 Z3.000 
G1 X167.003 Y160.957 Z-2.000 F500.000 
G3 X164.043 Y157.003 Z-2.000 I0.497 J-3.457 F1000.000 
G3 X167.997 Y154.043 Z-2.000 I3.457 J0.497 F1000.000 
G3 X167.003 Y160.957 Z-2.000 I-0.497 J3.457 F1000.000 
G0 Z5.000 
G0 X87.003 Y240.957 Z5.000 
G0 X87.003 Y240.957 Z3.000 
G1 X87.003 Y240.957 Z-2.000 F500.000 
G3 X87.997 Y234.043 Z-2.000 I0.497 J-3.457 F1000.000 
G3 X87.003 Y240.957 Z-2.000 I-0.497 J3.457 F1000.000 
G0 Z5.000 
G0 X167.003 Z5.000 
G0 X167.003 Z3.000 
G1 X167.003 Y240.957 Z-2.000 F500.000 
G3 X167.997 Y234.043 Z-2.000 I0.497 J-3.457 F1000.000 
G3 X167.003 Y240.957 Z-2.000 I-0.497 J3.457 F1000.000 
G0 Z5.000 
G0 X207.003 Z5.000 
G0 X207.003 Z3.000 
G1 X207.003 Y240.957 Z-2.000 F500.000 
G3 X207.997 Y234.043 Z-2.000 I0.497 J-3.457 F1000.000 
G3 X207.003 Y240.957 Z-2.000 I-0.497 J3.457 F1000.000 
G0 Z5.000 
G0 X247.003 Z5.000 
G0 X247.003 Z3.000 
G1 X247.003 Y240.957 Z-2.000 F500.000 
G3 X244.043 Y237.003 Z-2.000 I0.497 J-3.457 F1000.000 
G3 X247.997 Y234.043 Z-2.000 I3.457 J0.497 F1000.000 
G3 X247.003 Y240.957 Z-2.000 I-0.497 J3.457 F1000.000 
G0 Z5.000 
G0 X47.003 Y200.957 Z5.000 
G0 X47.003 Y200.957 Z3.000 
G1 X47.003 Y200.957 Z-2.000 F500.000 
G3 X47.997 Y194.043 Z-2.000 I0.497 J-3.457 F1000.000 
G3 X50.957 Y197.997 Z-2.000 I-0.497 J3.457 F1000.000 
G3 X47.003 Y200.957 Z-2.000 I-3.457 J-0.497 F1000.000 
G0 Z5.000 
G0 X87.003 Y200.957 Z5.000 
G0 X87.003 Y200.957 Z3.000 
G1 X87.003 Y200.957 Z-2.000 F500.000 
G3 X87.997 Y194.043 Z-2.000 I0.497 J-3.457 F1000.000 
G3 X87.003 Y200.957 Z-2.000 I-0.497 J3.457 F1000.000 
G0 Z5.000 
G0 X127.003 Z5.000 
G0 X127.003 Z3.000 
G1 X127.003 Y200.957 Z-2.000 F500.000 
G3 X127.997 Y194.043 Z-2.000 I0.497 J-3.457 F1000.000 
G3 X127.003 Y200.957 Z-2.000 I-0.497 J3.457 F1000.000 
G0 Z5.000 
G0 Y120.957 Z5.000 
G0 Y120.957 Z3.000 
G1 X127.003 Y120.957 Z-2.000 F500.000 
G3 X127.997 Y114.043 Z-2.000 I0.497 J-3.457 F1000.000 
G3 X127.003 Y120.957 Z-2.000 I-0.497 J3.457 F1000.000 
G0 Z5.000 
G0 X167.003 Z5.000 
G0 X167.003 Z3.000 
G1 X167.003 Y120.957 Z-2.000 F500.000 
G3 X167.997 Y114.043 Z-2.000 I0.497 J-3.457 F1000.000 
G3 X167.003 Y120.957 Z-2.000 I-0.497 J3.457 F1000.000 
G0 Z5.000 
G0 X207.003 Z5.000 
G0 X207.003 Z3.000 
G1 X207.003 Y120.957 Z-2.000 F500.000 
G3 X207.997 Y114.043 Z-2.000 I0.497 J-3.457 F1000.000 
G3 X207.003 Y120.957 Z-2.000 I-0.497 J3.457 F1000.000 
G0 Z5.000 
G0 X247.003 Z5.000 
G0 X247.003 Z3.000 
G1 X247.003 Y120.957 Z-2.000 F500.000 
G3 X244.043 Y117.003 Z-2.000 I0.497 J-3.457 F1000.000 
G3 X247.997 Y114.043 Z-2.000 I3.457 J0.497 F1000.000 
G3 X247.003 Y120.957 Z-2.000 I-0.497 J3.457 F1000.000 
G0 Z5.000 
G0 X207.003 Y200.957 Z5.000 
G0 X207.003 Y200.957 Z3.000 
G1 X207.003 Y200.957 Z-2.000 F500.000 
G3 X207.997 Y194.043 Z-2.000 I0.497 J-3.457 F1000.000 
G3 X207.003 Y200.957 Z-2.000 I-0.497 J3.457 F1000.000 
G0 Z5.000 
G0 X247.003 Z5.000 
G0 X247.003 Z3.000 
G1 X247.003 Y200.957 Z-2.000 F500.000 
G3 X244.043 Y197.003 Z-2.000 I0.497 J-3.457 F1000.000 
G3 X247.997 Y194.043 Z-2.000 I3.457 J0.497 F1000.000 
G3 X247.003 Y200.957 Z-2.000 I-0.497 J3.457 F1000.000 
G0 Z5.000 
G0 X87.003 Y160.957 Z5.000 
G0 X87.003 Y160.957 Z3.000 
G1 X87.003 Y160.957 Z-2.000 F500.000 
G3 X84.043 Y157.003 Z-2.000 I0.497 J-3.457 F1000.000 
G3 X87.997 Y154.043 Z-2.000 I3.457 J0.497 F1000.000 
G3 X87.003 Y160.957 Z-2.000 I-0.497 J3.457 F1000.000 
G0 Z5.000 
G0 X127.003 Z5.000 
G0 X127.003 Z3.000 
G1 X127.003 Y160.957 Z-2.000 F500.000 
G3 X124.043 Y157.003 Z-2.000 I0.497 J-3.457 F1000.000 
G3 X127.997 Y154.043 Z-2.000 I3.457 J0.497 F1000.000 
G3 X127.003 Y160.957 Z-2.000 I-0.497 J3.457 F1000.000 
G0 Z5.000 
G0 X207.003 Z5.000 
G0 X207.003 Z3.000 
G1 X207.003 Y160.957 Z-2.000 F500.000 
G3 X204.043 Y157.003 Z-2.000 I0.497 J-3.457 F1000.000 
G3 X207.997 Y154.043 Z-2.000 I3.457 J0.497 F1000.000 
G3 X207.003 Y160.957 Z-2.000 I-0.497 J3.457 F1000.000 
G0 Z5.000 
G0 X247.003 Z5.000 
G0 X247.003 Z3.000 
G1 X247.003 Y160.957 Z-2.000 F500.000 
G3 X244.043 Y157.003 Z-2.000 I0.497 J-3.457 F1000.000 
G3 X247.997 Y154.043 Z-2.000 I3.457 J0.497 F1000.000 
G3 X247.003 Y160.957 Z-2.000 I-0.497 J3.457 F1000.000 
G0 Z5.000 
G0 X87.003 Y120.957 Z5.000 
G0 X87.003 Y120.957 Z3.000 
G1 X87.003 Y120.957 Z-2.000 F500.000 
G3 X87.997 Y114.043 Z-2.000 I0.497 J-3.457 F1000.000 
G3 X87.003 Y120.957 Z-2.000 I-0.497 J3.457 F1000.000 
G0 Z5.000 
G0 X167.003 Y200.957 Z5.000 
G0 X167.003 Y200.957 Z3.000 
G1 X167.003 Y200.957 Z-2.000 F500.000 
G3 X164.043 Y197.003 Z-2.000 I0.497 J-3.457 F1000.000 
G3 X167.997 Y194.043 Z-2.000 I3.457 J0.497 F1000.000 
G3 X170.957 Y197.997 Z-2.000 I-0.497 J3.457 F1000.000 
G3 X167.003 Y200.957 Z-2.000 I-3.457 J-0.497 F1000.000 
G0 Z5.000 
G0 X247.003 Y320.957 Z5.000 
G0 X247.003 Y320.957 Z3.000 
G1 X247.003 Y320.957 Z-2.000 F500.000 
G3 X244.043 Y317.003 Z-2.000 I0.497 J-3.457 F1000.000 
G3 X247.997 Y314.043 Z-2.000 I3.457 J0.497 F1000.000 
G3 X247.003 Y320.957 Z-2.000 I-0.497 J3.457 F1000.000 
G0 Z5.000 
G0 X47.003 Y280.957 Z5.000 
G0 X47.003 Y280.957 Z3.000 
G1 X47.003 Y280.957 Z-2.000 F500.000 
G3 X47.997 Y274.043 Z-2.000 I0.497 J-3.457 F1000.000 
G3 X50.957 Y277.997 Z-2.000 I-0.497 J3.457 F1000.000 
G3 X47.003 Y280.957 Z-2.000 I-3.457 J-0.497 F1000.000 
G0 Z5.000 
G0 X87.003 Z5.000 
G0 X87.003 Z3.000 
G1 X87.003 Y280.957 Z-2.000 F500.000 
G3 X87.997 Y274.043 Z-2.000 I0.497 J-3.457 F1000.000 
G3 X90.957 Y277.997 Z-2.000 I-0.497 J3.457 F1000.000 
G3 X87.003 Y280.957 Z-2.000 I-3.457 J-0.497 F1000.000 
G0 Z5.000 
G0 X127.003 Z5.000 
G0 X127.003 Z3.000 
G1 X127.003 Y280.957 Z-2.000 F500.000 
G3 X127.997 Y274.043 Z-2.000 I0.497 J-3.457 F1000.000 
G3 X130.957 Y277.997 Z-2.000 I-0.497 J3.457 F1000.000 
G3 X127.003 Y280.957 Z-2.000 I-3.457 J-0.497 F1000.000 
G0 Z5.000 
G0 X167.003 Y280.957 Z5.000 
G0 X167.003 Y280.957 Z3.000 
G1 X167.003 Y280.957 Z-2.000 F500.000 
G3 X167.997 Y274.043 Z-2.000 I0.497 J-3.457 F1000.000 
G3 X170.957 Y277.997 Z-2.000 I-0.497 J3.457 F1000.000 
G3 X167.003 Y280.957 Z-2.000 I-3.457 J-0.497 F1000.000 
G0 Z5.000 
G0 X207.003 Y280.957 Z5.000 
G0 X207.003 Y280.957 Z3.000 
G1 X207.003 Y280.957 Z-2.000 F500.000 
G3 X207.997 Y274.043 Z-2.000 I0.497 J-3.457 F1000.000 
G3 X210.957 Y277.997 Z-2.000 I-0.497 J3.457 F1000.000 
G3 X207.003 Y280.957 Z-2.000 I-3.457 J-0.497 F1000.000 
G0 Z5.000 
G0 X127.003 Y240.957 Z5.000 
G0 X127.003 Y240.957 Z3.000 
G1 X127.003 Y240.957 Z-2.000 F500.000 
G3 X124.043 Y237.003 Z-2.000 I0.497 J-3.457 F1000.000 
G3 X127.997 Y234.043 Z-2.000 I3.457 J0.497 F1000.000 
G3 X130.957 Y237.997 Z-2.000 I-0.497 J3.457 F1000.000 
G3 X127.003 Y240.957 Z-2.000 I-3.457 J-0.497 F1000.000 
G0 Z5.000 
G0 X247.003 Y280.957 Z5.000 
G0 X247.003 Y280.957 Z3.000 
G1 X247.003 Y280.957 Z-2.000 F500.000 
G3 X247.997 Y274.043 Z-2.000 I0.497 J-3.457 F1000.000 
G3 X250.957 Y277.997 Z-2.000 I-0.497 J3.457 F1000.000 
G3 X247.003 Y280.957 Z-2.000 I-3.457 J-0.497 F1000.000 
G0 Z5.000 
G0 X127.003 Y320.957 Z5.000 
G0 X127.003 Y320.957 Z3.000 
G1 X127.003 Y320.957 Z-2.000 F500.000 
G3 X127.997 Y314.043 Z-2.000 I0.497 J-3.457 F1000.000 
G3 X127.003 Y320.957 Z-2.000 I-0.497 J3.457 F1000.000 
G0 Z5.000 
G0 X47.003 Y240.957 Z5.000 
G0 X47.003 Y240.957 Z3.000 
G1 X47.003 Y240.957 Z-2.000 F500.000 
G3 X47.997 Y234.043 Z-2.000 I0.497 J-3.457 F1000.000 
G3 X50.957 Y237.997 Z-2.000 I-0.497 J3.457 F1000.000 
G3 X47.003 Y240.957 Z-2.000 I-3.457 J-0.497 F1000.000 
G0 Z5.000 
G0 Y160.957 Z5.000 
G0 Y160.957 Z3.000 
G1 X47.003 Y160.957 Z-2.000 F500.000 
G3 X44.043 Y157.003 Z-2.000 I0.497 J-3.457 F1000.000 
G3 X47.997 Y154.043 Z-2.000 I3.457 J0.497 F1000.000 
G3 X47.003 Y160.957 Z-2.000 I-0.497 J3.457 F1000.000 
G0 Z5.000 
G0 X207.003 Y320.957 Z5.000 
G0 X207.003 Y320.957 Z3.000 
G1 X207.003 Y320.957 Z-2.000 F500.000 
G3 X207.997 Y314.043 Z-2.000 I0.497 J-3.457 F1000.000 
G3 X207.003 Y320.957 Z-2.000 I-0.497 J3.457 F1000.000 
G0 Z5.000 
G0 X87.003 Z5.000 
G0 X87.003 Z3.000 
G1 X87.003 Y320.957 Z-2.000 F500.000 
G3 X87.997 Y314.043 Z-2.000 I0.497 J-3.457 F1000.000 
G3 X87.003 Y320.957 Z-2.000 I-0.497 J3.457 F1000.000 
G0 Z5.000 
G0 X246.576 Y323.928 Z5.000 
G0 X246.576 Y323.928 Z3.000 
G1 X246.576 Y323.928 Z-2.000 F500.000 
G3 X248.424 Y311.072 Z-2.000 I0.924 J-6.428 F1000.000 
G3 X253.928 Y318.424 Z-2.000 I-0.924 J6.428 F1000.000 
G3 X246.576 Y323.928 Z-2.000 I-6.428 J-0.924 F1000.000 
G0 Z5.000 
G0 X86.576 Y283.928 Z5.000 
G0 X86.576 Y283.928 Z3.000 
G1 X86.576 Y283.928 Z-2.000 F500.000 
G3 X88.424 Y271.072 Z-2.000 I0.924 J-6.428 F1000.000 
G3 X93.928 Y278.424 Z-2.000 I-0.924 J6.428 F1000.000 
G3 X86.576 Y283.928 Z-2.000 I-6.428 J-0.924 F1000.000 
G0 Z5.000 
G0 X86.576 Y323.928 Z5.000 
G0 X86.576 Y323.928 Z3.000 
G1 X86.576 Y323.928 Z-2.000 F500.000 
G3 X88.424 Y311.072 Z-2.000 I0.924 J-6.428 F1000.000 
G3 X86.576 Y323.928 Z-2.000 I-0.924 J6.428 F1000.000 
G0 Z5.000 
G0 X46.576 Z5.000 
G0 X46.576 Z3.000 
G1 X46.576 Y323.928 Z-2.000 F500.000 
G3 X41.072 Y316.576 Z-2.000 I0.924 J-6.428 F1000.000 
G3 X48.424 Y311.072 Z-2.000 I6.428 J0.924 F1000.000 
G3 X46.576 Y323.928 Z-2.000 I-0.924 J6.428 F1000.000 
G0 Z5.000 
G0 Y123.928 Z5.000 
G0 Y123.928 Z3.000 
G1 X46.576 Y123.928 Z-2.000 F500.000 
G3 X41.072 Y116.576 Z-2.000 I0.924 J-6.428 F1000.000 
G3 X48.424 Y111.072 Z-2.000 I6.428 J0.924 F1000.000 
G3 X46.576 Y123.928 Z-2.000 I-0.924 J6.428 F1000.000 
G0 Z5.000 
G0 X46.576 Y283.928 Z5.000 
G0 X46.576 Y283.928 Z3.000 
G1 X46.576 Y283.928 Z-2.000 F500.000 
G3 X48.424 Y271.072 Z-2.000 I0.924 J-6.428 F1000.000 
G3 X53.928 Y278.424 Z-2.000 I-0.924 J6.428 F1000.000 
G3 X46.576 Y283.928 Z-2.000 I-6.428 J-0.924 F1000.000 
G0 Z5.000 
G0 X166.576 Y163.928 Z5.000 
G0 X166.576 Y163.928 Z3.000 
G1 X166.576 Y163.928 Z-2.000 F500.000 
G3 X161.072 Y156.576 Z-2.000 I0.924 J-6.428 F1000.000 
G3 X168.424 Y151.072 Z-2.000 I6.428 J0.924 F1000.000 
G3 X166.576 Y163.928 Z-2.000 I-0.924 J6.428 F1000.000 
G0 Z5.000 
G0 Y323.928 Z5.000 
G0 Y323.928 Z3.000 
G1 X166.576 Y323.928 Z-2.000 F500.000 
G3 X168.424 Y311.072 Z-2.000 I0.924 J-6.428 F1000.000 
G3 X173.928 Y318.424 Z-2.000 I-0.924 J6.428 F1000.000 
G3 X166.576 Y323.928 Z-2.000 I-6.428 J-0.924 F1000.000 
G0 Z5.000 
G0 X86.576 Y123.928 Z5.000 
G0 X86.576 Y123.928 Z3.000 
G1 X86.576 Y123.928 Z-2.000 F500.000 
G3 X88.424 Y111.072 Z-2.000 I0.924 J-6.428 F1000.000 
G3 X86.576 Y123.928 Z-2.000 I-0.924 J6.428 F1000.000 
G0 Z5.000 
G0 X126.576 Z5.000 
G0 X126.576 Z3.000 
G1 X126.576 Y123.928 Z-2.000 F500.000 
G3 X121.072 Y116.576 Z-2.000 I0.924 J-6.428 F1000.000 
G3 X128.424 Y111.072 Z-2.000 I6.428 J0.924 F1000.000 
G3 X126.576 Y123.928 Z-2.000 I-0.924 J6.428 F1000.000 
G0 Z5.000 
G0 X166.576 Z5.000 
G0 X166.576 Z3.000 
G1 X166.576 Y123.928 Z-2.000 F500.000 
G3 X168.424 Y111.072 Z-2.000 I0.924 J-6.428 F1000.000 
G3 X173.928 Y118.424 Z-2.000 I-0.924 J6.428 F1000.000 
G3 X166.576 Y123.928 Z-2.000 I-6.428 J-0.924 F1000.000 
G0 Z5.000 
G0 X206.576 Z5.000 
G0 X206.576 Z3.000 
G1 X206.576 Y123.928 Z-2.000 F500.000 
G3 X208.424 Y111.072 Z-2.000 I0.924 J-6.428 F1000.000 
G3 X206.576 Y123.928 Z-2.000 I-0.924 J6.428 F1000.000 
G0 Z5.000 
G0 X246.576 Z5.000 
G0 X246.576 Z3.000 
G1 X246.576 Y123.928 Z-2.000 F500.000 
G3 X248.424 Y111.072 Z-2.000 I0.924 J-6.428 F1000.000 
G3 X253.928 Y118.424 Z-2.000 I-0.924 J6.428 F1000.000 
G3 X246.576 Y123.928 Z-2.000 I-6.428 J-0.924 F1000.000 
G0 Z5.000 
G0 X126.576 Y323.928 Z5.000 
G0 X126.576 Y323.928 Z3.000 
G1 X126.576 Y323.928 Z-2.000 F500.000 
G3 X121.072 Y316.576 Z-2.000 I0.924 J-6.428 F1000.000 
G3 X128.424 Y311.072 Z-2.000 I6.428 J0.924 F1000.000 
G3 X126.576 Y323.928 Z-2.000 I-0.924 J6.428 F1000.000 
G0 Z5.000 
G0 X126.576 Y283.928 Z5.000 
G0 X126.576 Y283.928 Z3.000 
G1 X126.576 Y283.928 Z-2.000 F500.000 
G3 X128.424 Y271.072 Z-2.000 I0.924 J-6.428 F1000.000 
G3 X133.928 Y278.424 Z-2.000 I-0.924 J6.428 F1000.000 
G3 X126.576 Y283.928 Z-2.000 I-6.428 J-0.924 F1000.000 
G0 Z5.000 
G0 X166.576 Z5.000 
G0 X166.576 Z3.000 
G1 X166.576 Y283.928 Z-2.000 F500.000 
G3 X168.424 Y271.072 Z-2.000 I0.924 J-6.428 F1000.000 
G3 X173.928 Y278.424 Z-2.000 I-0.924 J6.428 F1000.000 
G3 X166.576 Y283.928 Z-2.000 I-6.428 J-0.924 F1000.000 
G0 Z5.000 
G0 X206.576 Z5.000 
G0 X206.576 Z3.000 
G1 X206.576 Y283.928 Z-2.000 F500.000 
G3 X208.424 Y271.072 Z-2.000 I0.924 J-6.428 F1000.000 
G3 X213.928 Y278.424 Z-2.000 I-0.924 J6.428 F1000.000 
G3 X206.576 Y283.928 Z-2.000 I-6.428 J-0.924 F1000.000 
G0 Z5.000 
G0 X246.576 Z5.000 
G0 X246.576 Z3.000 
G1 X246.576 Y283.928 Z-2.000 F500.000 
G3 X248.424 Y271.072 Z-2.000 I0.924 J-6.428 F1000.000 
G3 X253.928 Y278.424 Z-2.000 I-0.924 J6.428 F1000.000 
G3 X246.576 Y283.928 Z-2.000 I-6.428 J-0.924 F1000.000 
G0 Z5.000 
G0 X46.576 Y243.928 Z5.000 
G0 X46.576 Y243.928 Z3.000 
G1 X46.576 Y243.928 Z-2.000 F500.000 
G3 X41.072 Y236.576 Z-2.000 I0.924 J-6.428 F1000.000 
G3 X48.424 Y231.072 Z-2.000 I6.428 J0.924 F1000.000 
G3 X46.576 Y243.928 Z-2.000 I-0.924 J6.428 F1000.000 
G0 Z5.000 
G0 X86.576 Z5.000 
G0 X86.576 Z3.000 
G1 X86.576 Y243.928 Z-2.000 F500.000 
G3 X81.072 Y236.576 Z-2.000 I0.924 J-6.428 F1000.000 
G3 X88.424 Y231.072 Z-2.000 I6.428 J0.924 F1000.000 
G3 X86.576 Y243.928 Z-2.000 I-0.924 J6.428 F1000.000 
G0 Z5.000 
G0 X126.576 Z5.000 
G0 X126.576 Z3.000 
G1 X126.576 Y243.928 Z-2.000 F500.000 
G3 X121.072 Y236.576 Z-2.000 I0.924 J-6.428 F1000.000 
G3 X128.424 Y231.072 Z-2.000 I6.428 J0.924 F1000.000 
G3 X126.576 Y243.928 Z-2.000 I-0.924 J6.428 F1000.000 
G0 Z5.000 
G0 X166.576 Z5.000 
G0 X166.576 Z3.000 
G1 X166.576 Y243.928 Z-2.000 F500.000 
G3 X168.424 Y231.072 Z-2.000 I0.924 J-6.428 F1000.000 
G3 X173.928 Y238.424 Z-2.000 I-0.924 J6.428 F1000.000 
G3 X166.576 Y243.928 Z-2.000 I-6.428 J-0.924 F1000.000 
G0 Z5.000 
G0 X206.576 Z5.000 
G0 X206.576 Z3.000 
G1 X206.576 Y243.928 Z-2.000 F500.000 
G3 X201.072 Y236.576 Z-2.000 I0.924 J-6.428 F1000.000 
G3 X208.424 Y231.072 Z-2.000 I6.428 J0.924 F1000.000 
G3 X206.576 Y243.928 Z-2.000 I-0.924 J6.428 F1000.000 
G0 Z5.000 
G0 X246.576 Z5.000 
G0 X246.576 Z3.000 
G1 X246.576 Y243.928 Z-2.000 F500.000 
G3 X248.424 Y231.072 Z-2.000 I0.924 J-6.428 F1000.000 
G3 X253.928 Y238.424 Z-2.000 I-0.924 J6.428 F1000.000 
G3 X246.576 Y243.928 Z-2.000 I-6.428 J-0.924 F1000.000 
G0 Z5.000 
G0 X166.576 Y203.928 Z5.000 
G0 X166.576 Y203.928 Z3.000 
G1 X166.576 Y203.928 Z-2.000 F500.000 
G3 X168.424 Y191.072 Z-2.000 I0.924 J-6.428 F1000.000 
G3 X173.928 Y198.424 Z-2.000 I-0.924 J6.428 F1000.000 
G3 X166.576 Y203.928 Z-2.000 I-6.428 J-0.924 F1000.000 
G0 Z5.000 
G0 X46.576 Z5.000 
G0 X46.576 Z3.000 
G1 X46.576 Y203.928 Z-2.000 F500.000 
G3 X41.072 Y196.576 Z-2.000 I0.924 J-6.428 F1000.000 
G3 X48.424 Y191.072 Z-2.000 I6.428 J0.924 F1000.000 
G3 X46.576 Y203.928 Z-2.000 I-0.924 J6.428 F1000.000 
G0 Z5.000 
G0 X86.576 Z5.000 
G0 X86.576 Z3.000 
G1 X86.576 Y203.928 Z-2.000 F500.000 
G3 X88.424 Y191.072 Z-2.000 I0.924 J-6.428 F1000.000 
G3 X93.928 Y198.424 Z-2.000 I-0.924 J6.428 F1000.000 
G3 X86.576 Y203.928 Z-2.000 I-6.428 J-0.924 F1000.000 
G0 Z5.000 
G0 X126.576 Z5.000 
G0 X126.576 Z3.000 
G1 X126.576 Y203.928 Z-2.000 F500.000 
G3 X121.072 Y196.576 Z-2.000 I0.924 J-6.428 F1000.000 
G3 X128.424 Y191.072 Z-2.000 I6.428 J0.924 F1000.000 
G3 X126.576 Y203.928 Z-2.000 I-0.924 J6.428 F1000.000 
G0 Z5.000 
G0 X206.576 Z5.000 
G0 X206.576 Z3.000 
G1 X206.576 Y203.928 Z-2.000 F500.000 
G3 X208.424 Y191.072 Z-2.000 I0.924 J-6.428 F1000.000 
G3 X213.928 Y198.424 Z-2.000 I-0.924 J6.428 F1000.000 
G3 X206.576 Y203.928 Z-2.000 I-6.428 J-0.924 F1000.000 
G0 Z5.000 
G0 X246.576 Z5.000 
G0 X246.576 Z3.000 
G1 X246.576 Y203.928 Z-2.000 F500.000 
G3 X248.424 Y191.072 Z-2.000 I0.924 J-6.428 F1000.000 
G3 X253.928 Y198.424 Z-2.000 I-0.924 J6.428 F1000.000 
G3 X246.576 Y203.928 Z-2.000 I-6.428 J-0.924 F1000.000 
G0 Z5.000 
G0 X46.576 Y163.928 Z5.000 
G0 X46.576 Y163.928 Z3.000 
G1 X46.576 Y163.928 Z-2.000 F500.000 
G3 X41.072 Y156.576 Z-2.000 I0.924 J-6.428 F1000.000 
G3 X48.424 Y151.072 Z-2.000 I6.428 J0.924 F1000.000 
G3 X46.576 Y163.928 Z-2.000 I-0.924 J6.428 F1000.000 
G0 Z5.000 
G0 X86.576 Z5.000 
G0 X86.576 Z3.000 
G1 X86.576 Y163.928 Z-2.000 F500.000 
G3 X81.072 Y156.576 Z-2.000 I0.924 J-6.428 F1000.000 
G3 X88.424 Y151.072 Z-2.000 I6.428 J0.924 F1000.000 
G3 X86.576 Y163.928 Z-2.000 I-0.924 J6.428 F1000.000 
G0 Z5.000 
G0 X126.576 Z5.000 
G0 X126.576 Z3.000 
G1 X126.576 Y163.928 Z-2.000 F500.000 
G3 X121.072 Y156.576 Z-2.000 I0.924 J-6.428 F1000.000 
G3 X128.424 Y151.072 Z-2.000 I6.428 J0.924 F1000.000 
G3 X126.576 Y163.928 Z-2.000 I-0.924 J6.428 F1000.000 
G0 Z5.000 
G0 X206.576 Z5.000 
G0 X206.576 Z3.000 
G1 X206.576 Y163.928 Z-2.000 F500.000 
G3 X201.072 Y156.576 Z-2.000 I0.924 J-6.428 F1000.000 
G3 X208.424 Y151.072 Z-2.000 I6.428 J0.924 F1000.000 
G3 X206.576 Y163.928 Z-2.000 I-0.924 J6.428 F1000.000 
G0 Z5.000 
G0 X246.576 Z5.000 
G0 X246.576 Z3.000 
G1 X246.576 Y163.928 Z-2.000 F500.000 
G3 X241.072 Y156.576 Z-2.000 I0.924 J-6.428 F1000.000 
G3 X248.424 Y151.072 Z-2.000 I6.428 J0.924 F1000.000 
G3 X246.576 Y163.928 Z-2.000 I-0.924 J6.428 F1000.000 
G0 Z5.000 
G0 X206.576 Y323.928 Z5.000 
G0 X206.576 Y323.928 Z3.000 
G1 X206.576 Y323.928 Z-2.000 F500.000 
G3 X208.424 Y311.072 Z-2.000 I0.924 J-6.428 F1000.000 
G3 X206.576 Y323.928 Z-2.000 I-0.924 J6.428 F1000.000 
G0 Z5.000 
G0 X126.149 Y206.900 Z5.000 
G0 X126.149 Y206.900 Z3.000 
G1 X126.149 Y206.900 Z-2.000 F500.000 
G3 X118.100 Y196.149 Z-2.000 I1.351 J-9.400 F1000.000 
G3 X128.851 Y188.100 Z-2.000 I9.400 J1.351 F1000.000 
G3 X126.149 Y206.900 Z-2.000 I-1.351 J9.400 F1000.000 
G0 Z5.000 
G0 X206.149 Z5.000 
G0 X206.149 Z3.000 
G1 X206.149 Y206.900 Z-2.000 F500.000 
G3 X208.851 Y188.100 Z-2.000 I1.351 J-9.400 F1000.000 
G3 X216.900 Y198.851 Z-2.000 I-1.351 J9.400 F1000.000 
G3 X206.149 Y206.900 Z-2.000 I-9.400 J-1.351 F1000.000 
G0 Z5.000 
G0 X246.149 Z5.000 
G0 X246.149 Z3.000 
G1 X246.149 Y206.900 Z-2.000 F500.000 
G3 X238.100 Y196.149 Z-2.000 I1.351 J-9.400 F1000.000 
G3 X248.851 Y188.100 Z-2.000 I9.400 J1.351 F1000.000 
G3 X256.900 Y198.851 Z-2.000 I-1.351 J9.400 F1000.000 
G3 X246.149 Y206.900 Z-2.000 I-9.400 J-1.351 F1000.000 
G0 Z5.000 
G0 X86.149 Y166.900 Z5.000 
G0 X86.149 Y166.900 Z3.000 
G1 X86.149 Y166.900 Z-2.000 F500.000 
G3 X78.100 Y156.149 Z-2.000 I1.351 J-9.400 F1000.000 
G3 X88.851 Y148.100 Z-2.000 I9.400 J1.351 F1000.000 
G3 X86.149 Y166.900 Z-2.000 I-1.351 J9.400 F1000.000 
G0 Z5.000 
G0 X126.149 Z5.000 
G0 X126.149 Z3.000 
G1 X126.149 Y166.900 Z-2.000 F500.000 
G3 X118.100 Y156.149 Z-2.000 I1.351 J-9.400 F1000.000 
G3 X128.851 Y148.100 Z-2.000 I9.400 J1.351 F1000.000 
G3 X126.149 Y166.900 Z-2.000 I-1.351 J9.400 F1000.000 
G0 Z5.000 
G0 X206.149 Z5.000 
G0 X206.149 Z3.000 
G1 X206.149 Y166.900 Z-2.000 F500.000 
G3 X198.100 Y156.149 Z-2.000 I1.351 J-9.400 F1000.000 
G3 X208.851 Y148.100 Z-2.000 I9.400 J1.351 F1000.000 
G3 X206.149 Y166.900 Z-2.000 I-1.351 J9.400 F1000.000 
G0 Z5.000 
G0 X246.149 Z5.000 
G0 X246.149 Z3.000 
G1 X246.149 Y166.900 Z-2.000 F500.000 
G3 X238.100 Y156.149 Z-2.000 I1.351 J-9.400 F1000.000 
G3 X248.851 Y148.100 Z-2.000 I9.400 J1.351 F1000.000 
G3 X246.149 Y166.900 Z-2.000 I-1.351 J9.400 F1000.000 
G0 Z5.000 
G0 X46.149 Y126.900 Z5.000 
G0 X46.149 Y126.900 Z3.000 
G1 X46.149 Y126.900 Z-2.000 F500.000 
G3 X38.100 Y116.149 Z-2.000 I1.351 J-9.400 F1000.000 
G3 X48.851 Y108.100 Z-2.000 I9.400 J1.351 F1000.000 
G3 X56.900 Y118.851 Z-2.000 I-1.351 J9.400 F1000.000 
G3 X46.149 Y126.900 Z-2.000 I-9.400 J-1.351 F1000.000 
G0 Z5.000 
G0 X86.149 Z5.000 
G0 X86.149 Z3.000 
G1 X86.149 Y126.900 Z-2.000 F500.000 
G3 X78.100 Y116.149 Z-2.000 I1.351 J-9.400 F1000.000 
G3 X88.851 Y108.100 Z-2.000 I9.400 J1.351 F1000.000 
G3 X86.149 Y126.900 Z-2.000 I-1.351 J9.400 F1000.000 
G0 Z5.000 
G0 X126.149 Z5.000 
G0 X126.149 Z3.000 
G1 X126.149 Y126.900 Z-2.000 F500.000 
G3 X118.100 Y116.149 Z-2.000 I1.351 J-9.400 F1000.000 
G3 X128.851 Y108.100 Z-2.000 I9.400 J1.351 F1000.000 
G3 X126.149 Y126.900 Z-2.000 I-1.351 J9.400 F1000.000 
G0 Z5.000 
G0 X166.149 Z5.000 
G0 X166.149 Z3.000 
G1 X166.149 Y126.900 Z-2.000 F500.000 
G3 X168.851 Y108.100 Z-2.000 I1.351 J-9.400 F1000.000 
G3 X176.900 Y118.851 Z-2.000 I-1.351 J9.400 F1000.000 
G3 X166.149 Y126.900 Z-2.000 I-9.400 J-1.351 F1000.000 
G0 Z5.000 
G0 X126.149 Y286.900 Z5.000 
G0 X126.149 Y286.900 Z3.000 
G1 X126.149 Y286.900 Z-2.000 F500.000 
G3 X128.851 Y268.100 Z-2.000 I1.351 J-9.400 F1000.000 
G3 X136.900 Y278.851 Z-2.000 I-1.351 J9.400 F1000.000 
G3 X126.149 Y286.900 Z-2.000 I-9.400 J-1.351 F1000.000 
G0 Z5.000 
G0 X246.149 Y126.900 Z5.000 
G0 X246.149 Y126.900 Z3.000 
G1 X246.149 Y126.900 Z-2.000 F500.000 
G3 X248.851 Y108.100 Z-2.000 I1.351 J-9.400 F1000.000 
G3 X246.149 Y126.900 Z-2.000 I-1.351 J9.400 F1000.000 
G0 Z5.000 
G0 X46.149 Y326.900 Z5.000 
G0 X46.149 Y326.900 Z3.000 
G1 X46.149 Y326.900 Z-2.000 F500.000 
G3 X48.851 Y308.100 Z-2.000 I1.351 J-9.400 F1000.000 
G3 X46.149 Y326.900 Z-2.000 I-1.351 J9.400 F1000.000 
G0 Z5.000 
G0 X206.149 Z5.000 
G0 X206.149 Z3.000 
G1 X206.149 Y326.900 Z-2.000 F500.000 
G3 X208.851 Y308.100 Z-2.000 I1.351 J-9.400 F1000.000 
G3 X216.900 Y318.851 Z-2.000 I-1.351 J9.400 F1000.000 
G3 X206.149 Y326.900 Z-2.000 I-9.400 J-1.351 F1000.000 
G0 Z5.000 
G0 X126.149 Z5.000 
G0 X126.149 Z3.000 
G1 X126.149 Y326.900 Z-2.000 F500.000 
G3 X118.100 Y316.149 Z-2.000 I1.351 J-9.400 F1000.000 
G3 X128.851 Y308.100 Z-2.000 I9.400 J1.351 F1000.000 
G3 X126.149 Y326.900 Z-2.000 I-1.351 J9.400 F1000.000 
G0 Z5.000 
G0 X86.149 Z5.000 
G0 X86.149 Z3.000 
G1 X86.149 Y326.900 Z-2.000 F500.000 
G3 X88.851 Y308.100 Z-2.000 I1.351 J-9.400 F1000.000 
G3 X96.900 Y318.851 Z-2.000 I-1.351 J9.400 F1000.000 
G3 X86.149 Y326.900 Z-2.000 I-9.400 J-1.351 F1000.000 
G0 Z5.000 
G0 X246.149 Y246.900 Z5.000 
G0 X246.149 Y246.900 Z3.000 
G1 X246.149 Y246.900 Z-2.000 F500.000 
G3 X238.100 Y236.149 Z-2.000 I1.351 J-9.400 F1000.000 
G3 X248.851 Y228.100 Z-2.000 I9.400 J1.351 F1000.000 
G3 X256.900 Y238.851 Z-2.000 I-1.351 J9.400 F1000.000 
G3 X246.149 Y246.900 Z-2.000 I-9.400 J-1.351 F1000.000 
G0 Z5.000 
G0 X86.149 Y206.900 Z5.000 
G0 X86.149 Y206.900 Z3.000 
G1 X86.149 Y206.900 Z-2.000 F500.000 
G3 X88.851 Y188.100 Z-2.000 I1.351 J-9.400 F1000.000 
G3 X96.900 Y198.851 Z-2.000 I-1.351 J9.400 F1000.000 
G3 X86.149 Y206.900 Z-2.000 I-9.400 J-1.351 F1000.000 
G0 Z5.000 
G0 X46.149 Y286.900 Z5.000 
G0 X46.149 Y286.900 Z3.000 
G1 X46.149 Y286.900 Z-2.000 F500.000 
G3 X48.851 Y268.100 Z-2.000 I1.351 J-9.400 F1000.000 
G3 X56.900 Y278.851 Z-2.000 I-1.351 J9.400 F1000.000 
G3 X46.149 Y286.900 Z-2.000 I-9.400 J-1.351 F1000.000 
G0 Z5.000 
G0 X86.149 Y286.900 Z5.000 
G0 X86.149 Y286.900 Z3.000 
G1 X86.149 Y286.900 Z-2.000 F500.000 
G3 X88.851 Y268.100 Z-2.000 I1.351 J-9.400 F1000.000 
G3 X96.900 Y278.851 Z-2.000 I-1.351 J9.400 F1000.000 
G3 X86.149 Y286.900 Z-2.000 I-9.400 J-1.351 F1000.000 
G0 Z5.000 
G0 X206.149 Y126.900 Z5.000 
G0 X206.149 Y126.900 Z3.000 
G1 X206.149 Y126.900 Z-2.000 F500.000 
G3 X198.100 Y116.149 Z-2.000 I1.351 J-9.400 F1000.000 
G3 X208.851 Y108.100 Z-2.000 I9.400 J1.351 F1000.000 
G3 X206.149 Y126.900 Z-2.000 I-1.351 J9.400 F1000.000 
G0 Z5.000 
G0 X246.149 Y326.900 Z5.000 
G0 X246.149 Y326.900 Z3.000 
G1 X246.149 Y326.900 Z-2.000 F500.000 
G3 X238.100 Y316.149 Z-2.000 I1.351 J-9.400 F1000.000 
G3 X248.851 Y308.100 Z-2.000 I9.400 J1.351 F1000.000 
G3 X256.900 Y318.851 Z-2.000 I-1.351 J9.400 F1000.000 
G3 X246.149 Y326.900 Z-2.000 I-9.400 J-1.351 F1000.000 
G0 Z5.000 
G0 X166.149 Z5.000 
G0 X166.149 Z3.000 
G1 X166.149 Y326.900 Z-2.000 F500.000 
G3 X168.851 Y308.100 Z-2.000 I1.351 J-9.400 F1000.000 
G3 X176.900 Y318.851 Z-2.000 I-1.351 J9.400 F1000.000 
G3 X166.149 Y326.900 Z-2.000 I-9.400 J-1.351 F1000.000 
G0 Z5.000 
G0 Y246.900 Z5.000 
G0 Y246.900 Z3.000 
G1 X166.149 Y246.900 Z-2.000 F500.000 
G3 X168.851 Y228.100 Z-2.000 I1.351 J-9.400 F1000.000 
G3 X176.900 Y238.851 Z-2.000 I-1.351 J9.400 F1000.000 
G3 X166.149 Y246.900 Z-2.000 I-9.400 J-1.351 F1000.000 
G0 Z5.000 
G0 X46.149 Y166.900 Z5.000 
G0 X46.149 Y166.900 Z3.000 
G1 X46.149 Y166.900 Z-2.000 F500.000 
G3 X38.100 Y156.149 Z-2.000 I1.351 J-9.400 F1000.000 
G3 X48.851 Y148.100 Z-2.000 I9.400 J1.351 F1000.000 
G3 X46.149 Y166.900 Z-2.000 I-1.351 J9.400 F1000.000 
G0 Z5.000 
G0 X166.149 Y286.900 Z5.000 
G0 X166.149 Y286.900 Z3.000 
G1 X166.149 Y286.900 Z-2.000 F500.000 
G3 X168.851 Y268.100 Z-2.000 I1.351 J-9.400 F1000.000 
G3 X176.900 Y278.851 Z-2.000 I-1.351 J9.400 F1000.000 
G3 X166.149 Y286.900 Z-2.000 I-9.400 J-1.351 F1000.000 
G0 Z5.000 
G0 X206.149 Y286.900 Z5.000 
G0 X206.149 Y286.900 Z3.000 
G1 X206.149 Y286.900 Z-2.000 F500.000 
G3 X208.851 Y268.100 Z-2.000 I1.351 J-9.400 F1000.000 
G3 X216.900 Y278.851 Z-2.000 I-1.351 J9.400 F1000.000 
G3 X206.149 Y286.900 Z-2.000 I-9.400 J-1.351 F1000.000 
G0 Z5.000 
G0 X246.149 Z5.000 
G0 X246.149 Z3.000 
G1 X246.149 Y286.900 Z-2.000 F500.000 
G3 X248.851 Y268.100 Z-2.000 I1.351 J-9.400 F1000.000 
G3 X256.900 Y278.851 Z-2.000 I-1.351 J9.400 F1000.000 
G3 X246.149 Y286.900 Z-2.000 I-9.400 J-1.351 F1000.000 
G0 Z5.000 
G0 X46.149 Y246.900 Z5.000 
G0 X46.149 Y246.900 Z3.000 
G1 X46.149 Y246.900 Z-2.000 F500.000 
G3 X38.100 Y236.149 Z-2.000 I1.351 J-9.400 F1000.000 
G3 X48.851 Y228.100 Z-2.000 I9.400 J1.351 F1000.000 
G3 X56.900 Y238.851 Z-2.000 I-1.351 J9.400 F1000.000 
G3 X46.149 Y246.900 Z-2.000 I-9.400 J-1.351 F1000.000 
G0 Z5.000 
G0 X86.149 Z5.000 
G0 X86.149 Z3.000 
G1 X86.149 Y246.900 Z-2.000 F500.000 
G3 X78.100 Y236.149 Z-2.000 I1.351 J-9.400 F1000.000 
G3 X88.851 Y228.100 Z-2.000 I9.400 J1.351 F1000.000 
G3 X86.149 Y246.900 Z-2.000 I-1.351 J9.400 F1000.000 
G0 Z5.000 
G0 X126.149 Z5.000 
G0 X126.149 Z3.000 
G1 X126.149 Y246.900 Z-2.000 F500.000 
G3 X118.100 Y236.149 Z-2.000 I1.351 J-9.400 F1000.000 
G3 X128.851 Y228.100 Z-2.000 I9.400 J1.351 F1000.000 
G3 X126.149 Y246.900 Z-2.000 I-1.351 J9.400 F1000.000 
G0 Z5.000 
G0 X206.149 Z5.000 
G0 X206.149 Z3.000 
G1 X206.149 Y246.900 Z-2.000 F500.000 
G3 X198.100 Y236.149 Z-2.000 I1.351 J-9.400 F1000.000 
G3 X208.851 Y228.100 Z-2.000 I9.400 J1.351 F1000.000 
G3 X206.149 Y246.900 Z-2.000 I-1.351 J9.400 F1000.000 
G0 Z5.000 
G0 X166.149 Y206.900 Z5.000 
G0 X166.149 Y206.900 Z3.000 
G1 X166.149 Y206.900 Z-2.000 F500.000 
G3 X168.851 Y188.100 Z-2.000 I1.351 J-9.400 F1000.000 
G3 X176.900 Y198.851 Z-2.000 I-1.351 J9.400 F1000.000 
G3 X166.149 Y206.900 Z-2.000 I-9.400 J-1.351 F1000.000 
G0 Z5.000 
G0 X46.149 Z5.000 
G0 X46.149 Z3.000 
G1 X46.149 Y206.900 Z-2.000 F500.000 
G3 X38.100 Y196.149 Z-2.000 I1.351 J-9.400 F1000.000 
G3 X48.851 Y188.100 Z-2.000 I9.400 J1.351 F1000.000 
G3 X56.900 Y198.851 Z-2.000 I-1.351 J9.400 F1000.000 
G3 X46.149 Y206.900 Z-2.000 I-9.400 J-1.351 F1000.000 
G0 Z5.000 
G0 X166.149 Y166.900 Z5.000 
G0 X166.149 Y166.900 Z3.000 
G1 X166.149 Y166.900 Z-2.000 F500.000 
G3 X158.100 Y156.149 Z-2.000 I1.351 J-9.400 F1000.000 
G3 X168.851 Y148.100 Z-2.000 I9.400 J1.351 F1000.000 
G3 X166.149 Y166.900 Z-2.000 I-1.351 J9.400 F1000.000 
G0 Z5.000 
G0 X245.721 Y289.871 Z5.000 
G0 X245.721 Y289.871 Z3.000 
G1 X245.721 Y289.871 Z-2.000 F500.000 
G3 X235.129 Y275.721 Z-2.000 I1.779 J-12.371 F1000.000 
G3 X249.279 Y265.129 Z-2.000 I12.371 J1.779 F1000.000 
G3 X245.721 Y289.871 Z-2.000 I-1.779 J12.371 F1000.000 
G0 Z5.000 
G0 X45.721 Y249.871 Z5.000 
G0 X45.721 Y249.871 Z3.000 
G1 X45.721 Y249.871 Z-2.000 F500.000 
G3 X49.279 Y225.129 Z-2.000 I1.779 J-12.371 F1000.000 
G3 X59.871 Y239.279 Z-2.000 I-1.779 J12.371 F1000.000 
G3 X45.721 Y249.871 Z-2.000 I-12.371 J-1.779 F1000.000 
G0 Z5.000 
G0 X165.721 Y169.871 Z5.000 
G0 X165.721 Y169.871 Z3.000 
G1 X165.721 Y169.871 Z-2.000 F500.000 
G3 X169.279 Y145.129 Z-2.000 I1.779 J-12.371 F1000.000 
G3 X179.871 Y159.279 Z-2.000 I-1.779 J12.371 F1000.000 
G3 X165.721 Y169.871 Z-2.000 I-12.371 J-1.779 F1000.000 
G0 Z5.000 
G0 Y129.871 Z5.000 
G0 Y129.871 Z3.000 
G1 X165.721 Y129.871 Z-2.000 F500.000 
G3 X155.129 Y115.721 Z-2.000 I1.779 J-12.371 F1000.000 
G3 X169.279 Y105.129 Z-2.000 I12.371 J1.779 F1000.000 
G3 X165.721 Y129.871 Z-2.000 I-1.779 J12.371 F1000.000 
G0 Z5.000 
G0 Y249.871 Z5.000 
G0 Y249.871 Z3.000 
G1 X165.721 Y249.871 Z-2.000 F500.000 
G3 X169.279 Y225.129 Z-2.000 I1.779 J-12.371 F1000.000 
G3 X179.871 Y239.279 Z-2.000 I-1.779 J12.371 F1000.000 
G3 X165.721 Y249.871 Z-2.000 I-12.371 J-1.779 F1000.000 
G0 Z5.000 
G0 X125.721 Y129.871 Z5.000 
G0 X125.721 Y129.871 Z3.000 
G1 X125.721 Y129.871 Z-2.000 F500.000 
G3 X129.279 Y105.129 Z-2.000 I1.779 J-12.371 F1000.000 
G3 X139.871 Y119.279 Z-2.000 I-1.779 J12.371 F1000.000 
G3 X125.721 Y129.871 Z-2.000 I-12.371 J-1.779 F1000.000 
G0 Z5.000 
G0 X45.721 Y329.871 Z5.000 
G0 X45.721 Y329.871 Z3.000 
G1 X45.721 Y329.871 Z-2.000 F500.000 
G3 X35.129 Y315.721 Z-2.000 I1.779 J-12.371 F1000.000 
G3 X49.279 Y305.129 Z-2.000 I12.371 J1.779 F1000.000 
G3 X45.721 Y329.871 Z-2.000 I-1.779 J12.371 F1000.000 
G0 Z5.000 
G0 X245.721 Y129.871 Z5.000 
G0 X245.721 Y129.871 Z3.000 
G1 X245.721 Y129.871 Z-2.000 F500.000 
G3 X249.279 Y105.129 Z-2.000 I1.779 J-12.371 F1000.000 
G3 X259.871 Y119.279 Z-2.000 I-1.779 J12.371 F1000.000 
G3 X245.721 Y129.871 Z-2.000 I-12.371 J-1.779 F1000.000 
G0 Z5.000 
G0 X125.721 Y249.871 Z5.000 
G0 X125.721 Y249.871 Z3.000 
G1 X125.721 Y249.871 Z-2.000 F500.000 
G3 X115.129 Y235.721 Z-2.000 I1.779 J-12.371 F1000.000 
G3 X129.279 Y225.129 Z-2.000 I12.371 J1.779 F1000.000 
G3 X125.721 Y249.871 Z-2.000 I-1.779 J12.371 F1000.000 
G0 Z5.000 
G0 X85.721 Z5.000 
G0 X85.721 Z3.000 
G1 X85.721 Y249.871 Z-2.000 F500.000 
G3 X89.279 Y225.129 Z-2.000 I1.779 J-12.371 F1000.000 
G3 X85.721 Y249.871 Z-2.000 I-1.779 J12.371 F1000.000 
G0 Z5.000 
G0 X205.721 Y289.871 Z5.000 
G0 X205.721 Y289.871 Z3.000 
G1 X205.721 Y289.871 Z-2.000 F500.000 
G3 X195.129 Y275.721 Z-2.000 I1.779 J-12.371 F1000.000 
G3 X209.279 Y265.129 Z-2.000 I12.371 J1.779 F1000.000 
G3 X205.721 Y289.871 Z-2.000 I-1.779 J12.371 F1000.000 
G0 Z5.000 
G0 X85.721 Y329.871 Z5.000 
G0 X85.721 Y329.871 Z3.000 
G1 X85.721 Y329.871 Z-2.000 F500.000 
G3 X89.279 Y305.129 Z-2.000 I1.779 J-12.371 F1000.000 
G3 X85.721 Y329.871 Z-2.000 I-1.779 J12.371 F1000.000 
G0 Z5.000 
G0 X245.721 Y169.871 Z5.000 
G0 X245.721 Y169.871 Z3.000 
G1 X245.721 Y169.871 Z-2.000 F500.000 
G3 X249.279 Y145.129 Z-2.000 I1.779 J-12.371 F1000.000 
G3 X259.871 Y159.279 Z-2.000 I-1.779 J12.371 F1000.000 
G3 X245.721 Y169.871 Z-2.000 I-12.371 J-1.779 F1000.000 
G0 Z5.000 
G0 X205.721 Y329.871 Z5.000 
G0 X205.721 Y329.871 Z3.000 
G1 X205.721 Y329.871 Z-2.000 F500.000 
G3 X195.129 Y315.721 Z-2.000 I1.779 J-12.371 F1000.000 
G3 X209.279 Y305.129 Z-2.000 I12.371 J1.779 F1000.000 
G3 X205.721 Y329.871 Z-2.000 I-1.779 J12.371 F1000.000 
G0 Z5.000 
G0 X45.721 Y129.871 Z5.000 
G0 X45.721 Y129.871 Z3.000 
G1 X45.721 Y129.871 Z-2.000 F500.000 
G3 X49.279 Y105.129 Z-2.000 I1.779 J-12.371 F1000.000 
G3 X45.721 Y129.871 Z-2.000 I-1.779 J12.371 F1000.000 
G0 Z5.000 
G0 X85.721 Y209.871 Z5.000 
G0 X85.721 Y209.871 Z3.000 
G1 X85.721 Y209.871 Z-2.000 F500.000 
G3 X89.279 Y185.129 Z-2.000 I1.779 J-12.371 F1000.000 
G3 X99.871 Y199.279 Z-2.000 I-1.779 J12.371 F1000.000 
G3 X85.721 Y209.871 Z-2.000 I-12.371 J-1.779 F1000.000 
G0 Z5.000 
G0 X245.721 Y329.871 Z5.000 
G0 X245.721 Y329.871 Z3.000 
G1 X245.721 Y329.871 Z-2.000 F500.000 
G3 X249.279 Y305.129 Z-2.000 I1.779 J-12.371 F1000.000 
G3 X245.721 Y329.871 Z-2.000 I-1.779 J12.371 F1000.000 
G0 Z5.000 
G0 X205.721 Y249.871 Z5.000 
G0 X205.721 Y249.871 Z3.000 
G1 X205.721 Y249.871 Z-2.000 F500.000 
G3 X195.129 Y235.721 Z-2.000 I1.779 J-12.371 F1000.000 
G3 X209.279 Y225.129 Z-2.000 I12.371 J1.779 F1000.000 
G3 X205.721 Y249.871 Z-2.000 I-1.779 J12.371 F1000.000 
G0 Z5.000 
G0 X85.721 Y129.871 Z5.000 
G0 X85.721 Y129.871 Z3.000 
G1 X85.721 Y129.871 Z-2.000 F500.000 
G3 X89.279 Y105.129 Z-2.000 I1.779 J-12.371 F1000.000 
G3 X99.871 Y119.279 Z-2.000 I-1.779 J12.371 F1000.000 
G3 X85.721 Y129.871 Z-2.000 I-12.371 J-1.779 F1000.000 
G0 Z5.000 
G0 X125.721 Y329.871 Z5.000 
G0 X125.721 Y329.871 Z3.000 
G1 X125.721 Y329.871 Z-2.000 F500.000 
G3 X129.279 Y305.129 Z-2.000 I1.779 J-12.371 F1000.000 
G3 X139.871 Y319.279 Z-2.000 I-1.779 J12.371 F1000.000 
G3 X125.721 Y329.871 Z-2.000 I-12.371 J-1.779 F1000.000 
G0 Z5.000 
G0 X205.721 Y169.871 Z5.000 
G0 X205.721 Y169.871 Z3.000 
G1 X205.721 Y169.871 Z-2.000 F500.000 
G3 X209.279 Y145.129 Z-2.000 I1.779 J-12.371 F1000.000 
G3 X219.871 Y159.279 Z-2.000 I-1.779 J12.371 F1000.000 
G3 X205.721 Y169.871 Z-2.000 I-12.371 J-1.779 F1000.000 
G0 Z5.000 
G0 X125.721 Y289.871 Z5.000 
G0 X125.721 Y289.871 Z3.000 
G1 X125.721 Y289.871 Z-2.000 F500.000 
G3 X115.129 Y275.721 Z-2.000 I1.779 J-12.371 F1000.000 
G3 X129.279 Y265.129 Z-2.000 I12.371 J1.779 F1000.000 
G3 X125.721 Y289.871 Z-2.000 I-1.779 J12.371 F1000.000 
G0 Z5.000 
G0 X85.721 Z5.000 
G0 X85.721 Z3.000 
G1 X85.721 Y289.871 Z-2.000 F500.000 
G3 X75.129 Y275.721 Z-2.000 I1.779 J-12.371 F1000.000 
G3 X89.279 Y265.129 Z-2.000 I12.371 J1.779 F1000.000 
G3 X85.721 Y289.871 Z-2.000 I-1.779 J12.371 F1000.000 
G0 Z5.000 
G0 X245.721 Y249.871 Z5.000 
G0 X245.721 Y249.871 Z3.000 
G1 X245.721 Y249.871 Z-2.000 F500.000 
G3 X235.129 Y235.721 Z-2.000 I1.779 J-12.371 F1000.000 
G3 X249.279 Y225.129 Z-2.000 I12.371 J1.779 F1000.000 
G3 X245.721 Y249.871 Z-2.000 I-1.779 J12.371 F1000.000 
G0 Z5.000 
G0 X165.721 Y289.871 Z5.000 
G0 X165.721 Y289.871 Z3.000 
G1 X165.721 Y289.871 Z-2.000 F500.000 
G3 X155.129 Y275.721 Z-2.000 I1.779 J-12.371 F1000.000 
G3 X169.279 Y265.129 Z-2.000 I12.371 J1.779 F1000.000 
G3 X165.721 Y289.871 Z-2.000 I-1.779 J12.371 F1000.000 
G0 Z5.000 
G0 X45.721 Y169.871 Z5.000 
G0 X45.721 Y169.871 Z3.000 
G1 X45.721 Y169.871 Z-2.000 F500.000 
G3 X49.279 Y145.129 Z-2.000 I1.779 J-12.371 F1000.000 
G3 X59.871 Y159.279 Z-2.000 I-1.779 J12.371 F1000.000 
G3 X45.721 Y169.871 Z-2.000 I-12.371 J-1.779 F1000.000 
G0 Z5.000 
G0 X165.721 Y329.871 Z5.000 
G0 X165.721 Y329.871 Z3.000 
G1 X165.721 Y329.871 Z-2.000 F500.000 
G3 X155.129 Y315.721 Z-2.000 I1.779 J-12.371 F1000.000 
G3 X169.279 Y305.129 Z-2.000 I12.371 J1.779 F1000.000 
G3 X165.721 Y329.871 Z-2.000 I-1.779 J12.371 F1000.000 
G0 Z5.000 
G0 X245.721 Y209.871 Z5.000 
G0 X245.721 Y209.871 Z3.000 
G1 X245.721 Y209.871 Z-2.000 F500.000 
G3 X249.279 Y185.129 Z-2.000 I1.779 J-12.371 F1000.000 
G3 X245.721 Y209.871 Z-2.000 I-1.779 J12.371 F1000.000 
G0 Z5.000 
G0 X205.721 Y129.871 Z5.000 
G0 X205.721 Y129.871 Z3.000 
G1 X205.721 Y129.871 Z-2.000 F500.000 
G3 X209.279 Y105.129 Z-2.000 I1.779 J-12.371 F1000.000 
G3 X205.721 Y129.871 Z-2.000 I-1.779 J12.371 F1000.000 
G0 Z5.000 
G0 X45.721 Y209.871 Z5.000 
G0 X45.721 Y209.871 Z3.000 
G1 X45.721 Y209.871 Z-2.000 F500.000 
G3 X49.279 Y185.129 Z-2.000 I1.779 J-12.371 F1000.000 
G3 X59.871 Y199.279 Z-2.000 I-1.779 J12.371 F1000.000 
G3 X45.721 Y209.871 Z-2.000 I-12.371 J-1.779 F1000.000 
G0 Z5.000 
G0 X125.721 Y169.871 Z5.000 
G0 X125.721 Y169.871 Z3.000 
G1 X125.721 Y169.871 Z-2.000 F500.000 
G3 X129.279 Y145.129 Z-2.000 I1.779 J-12.371 F1000.000 
G3 X139.871 Y159.279 Z-2.000 I-1.779 J12.371 F1000.000 
G3 X125.721 Y169.871 Z-2.000 I-12.371 J-1.779 F1000.000 
G0 Z5.000 
G0 X85.721 Z5.000 
G0 X85.721 Z3.000 
G1 X85.721 Y169.871 Z-2.000 F500.000 
G3 X89.279 Y145.129 Z-2.000 I1.779 J-12.371 F1000.000 
G3 X99.871 Y159.279 Z-2.000 I-1.779 J12.371 F1000.000 
G3 X85.721 Y169.871 Z-2.000 I-12.371 J-1.779 F1000.000 
G0 Z5.000 
G0 X165.721 Y209.871 Z5.000 
G0 X165.721 Y209.871 Z3.000 
G1 X165.721 Y209.871 Z-2.000 F500.000 
G3 X169.279 Y185.129 Z-2.000 I1.779 J-12.371 F1000.000 
G3 X179.871 Y199.279 Z-2.000 I-1.779 J12.371 F1000.000 
G3 X165.721 Y209.871 Z-2.000 I-12.371 J-1.779 F1000.000 
G0 Z5.000 
G0 X125.721 Z5.000 
G0 X125.721 Z3.000 
G1 X125.721 Y209.871 Z-2.000 F500.000 
G3 X115.129 Y195.721 Z-2.000 I1.779 J-12.371 F1000.000 
G3 X129.279 Y185.129 Z-2.000 I12.371 J1.779 F1000.000 
G3 X125.721 Y209.871 Z-2.000 I-1.779 J12.371 F1000.000 
G0 Z5.000 
G0 X205.721 Z5.000 
G0 X205.721 Z3.000 
G1 X205.721 Y209.871 Z-2.000 F500.000 
G3 X209.279 Y185.129 Z-2.000 I1.779 J-12.371 F1000.000 
G3 X205.721 Y209.871 Z-2.000 I-1.779 J12.371 F1000.000 
G0 Z5.000 
G0 X45.721 Y289.871 Z5.000 
G0 X45.721 Y289.871 Z3.000 
G1 X45.721 Y289.871 Z-2.000 F500.000 
G3 X35.129 Y275.721 Z-2.000 I1.779 J-12.371 F1000.000 
G3 X49.279 Y265.129 Z-2.000 I12.371 J1.779 F1000.000 
G3 X45.721 Y289.871 Z-2.000 I-1.779 J12.371 F1000.000 
G0 Z5.000 
G0 X247.320 Y318.475 Z5.000 
G0 X247.320 Y318.475 Z3.000 
G1 X247.320 Y318.475 Z-3.000 F500.000 
G3 X247.680 Y316.525 Z-3.000 I0.180 J-0.975 F1000.000 
G3 X248.475 Y317.680 Z-3.000 I-0.180 J0.975 F1000.000 
G3 X247.320 Y318.475 Z-3.000 I-0.975 J-0.180 F1000.000 
G0 Z5.000 
G0 X87.320 Z5.000 
G0 X87.320 Z3.000 
G1 X87.320 Y318.475 Z-3.000 F500.000 
G3 X87.680 Y316.525 Z-3.000 I0.180 J-0.975 F1000.000 
G3 X88.475 Y317.680 Z-3.000 I-0.180 J0.975 F1000.000 
G3 X87.320 Y318.475 Z-3.000 I-0.975 J-0.180 F1000.000 
G0 Z5.000 
G0 X167.320 Y158.475 Z5.000 
G0 X167.320 Y158.475 Z3.000 
G1 X167.320 Y158.475 Z-3.000 F500.000 
G3 X167.680 Y156.525 Z-3.000 I0.180 J-0.975 F1000.000 
G3 X167.320 Y158.475 Z-3.000 I-0.180 J0.975 F1000.000 
G0 Z5.000 
G0 X127.320 Z5.000 
G0 X127.320 Z3.000 
G1 X127.320 Y158.475 Z-3.000 F500.000 
G3 X127.680 Y156.525 Z-3.000 I0.180 J-0.975 F1000.000 
G3 X127.320 Y158.475 Z-3.000 I-0.180 J0.975 F1000.000 
G0 Z5.000 
G0 X87.320 Z5.000 
G0 X87.320 Z3.000 
G1 X87.320 Y158.475 Z-3.000 F500.000 
G3 X87.680 Y156.525 Z-3.000 I0.180 J-0.975 F1000.000 
G3 X88.475 Y157.680 Z-3.000 I-0.180 J0.975 F1000.000 
G3 X87.320 Y158.475 Z-3.000 I-0.975 J-0.180 F1000.000 
G0 Z5.000 
G0 X47.320 Z5.000 
G0 X47.320 Z3.000 
G1 X47.320 Y158.475 Z-3.000 F500.000 
G3 X47.680 Y156.525 Z-3.000 I0.180 J-0.975 F1000.000 
G3 X47.320 Y158.475 Z-3.000 I-0.180 J0.975 F1000.000 
G0 Z5.000 
G0 X247.320 Y118.475 Z5.000 
G0 X247.320 Y118.475 Z3.000 
G1 X247.320 Y118.475 Z-3.000 F500.000 
G3 X246.525 Y117.320 Z-3.000 I0.180 J-0.975 F1000.000 
G3 X247.680 Y116.525 Z-3.000 I0.975 J0.180 F1000.000 
G3 X247.320 Y118.475 Z-3.000 I-0.180 J0.975 F1000.000 
G0 Z5.000 
G0 X207.320 Z5.000 
G0 X207.320 Z3.000 
G1 X207.320 Y118.475 Z-3.000 F500.000 
G3 X206.525 Y117.320 Z-3.000 I0.180 J-0.975 F1000.000 
G3 X207.680 Y116.525 Z-3.000 I0.975 J0.180 F1000.000 
G3 X207.320 Y118.475 Z-3.000 I-0.180 J0.975 F1000.000 
G0 Z5.000 
G0 X167.320 Y118.475 Z5.000 
G0 X167.320 Y118.475 Z3.000 
G1 X167.320 Y118.475 Z-3.000 F500.000 
G3 X167.680 Y116.525 Z-3.000 I0.180 J-0.975 F1000.000 
G3 X168.475 Y117.680 Z-3.000 I-0.180 J0.975 F1000.000 
G3 X167.320 Y118.475 Z-3.000 I-0.975 J-0.180 F1000.000 
G0 Z5.000 
G0 X127.320 Y118.475 Z5.000 
G0 X127.320 Y118.475 Z3.000 
G1 X127.320 Y118.475 Z-3.000 F500.000 
G3 X126.525 Y117.320 Z-3.000 I0.180 J-0.975 F1000.000 
G3 X127.680 Y116.525 Z-3.000 I0.975 J0.180 F1000.000 
G3 X127.320 Y118.475 Z-3.000 I-0.180 J0.975 F1000.000 
G0 Z5.000 
G0 X47.320 Z5.000 
G0 X47.320 Z3.000 
G1 X47.320 Y118.475 Z-3.000 F500.000 
G3 X46.525 Y117.320 Z-3.000 I0.180 J-0.975 F1000.000 
G3 X47.680 Y116.525 Z-3.000 I0.975 J0.180 F1000.000 
G3 X47.320 Y118.475 Z-3.000 I-0.180 J0.975 F1000.000 
G0 Z5.000 
G0 X247.320 Y238.475 Z5.000 
G0 X247.320 Y238.475 Z3.000 
G1 X247.320 Y238.475 Z-3.000 F500.000 
G3 X246.525 Y237.320 Z-3.000 I0.180 J-0.975 F1000.000 
G3 X247.680 Y236.525 Z-3.000 I0.975 J0.180 F1000.000 
G3 X247.320 Y238.475 Z-3.000 I-0.180 J0.975 F1000.000 
G0 Z5.000 
G0 X247.320 Y278.475 Z5.000 
G0 X247.320 Y278.475 Z3.000 
G1 X247.320 Y278.475 Z-3.000 F500.000 
G3 X247.680 Y276.525 Z-3.000 I0.180 J-0.975 F1000.000 
G3 X247.320 Y278.475 Z-3.000 I-0.180 J0.975 F1000.000 
G0 Z5.000 
G0 X47.320 Y318.475 Z5.000 
G0 X47.320 Y318.475 Z3.000 
G1 X47.320 Y318.475 Z-3.000 F500.000 
G3 X47.680 Y316.525 Z-3.000 I0.180 J-0.975 F1000.000 
G3 X48.475 Y317.680 Z-3.000 I-0.180 J0.975 F1000.000 
G3 X47.320 Y318.475 Z-3.000 I-0.975 J-0.180 F1000.000 
G0 Z5.000 
G0 X207.320 Y278.475 Z5.000 
G0 X207.320 Y278.475 Z3.000 
G1 X207.320 Y278.475 Z-3.000 F500.000 
G3 X206.525 Y277.320 Z-3.000 I0.180 J-0.975 F1000.000 
G3 X207.680 Y276.525 Z-3.000 I0.975 J0.180 F1000.000 
G3 X207.320 Y278.475 Z-3.000 I-0.180 J0.975 F1000.000 
G0 Z5.000 
G0 X167.320 Z5.000 
G0 X167.320 Z3.000 
G1 X167.320 Y278.475 Z-3.000 F500.000 
G3 X167.680 Y276.525 Z-3.000 I0.180 J-0.975 F1000.000 
G3 X167.320 Y278.475 Z-3.000 I-0.180 J0.975 F1000.000 
G0 Z5.000 
G0 X127.320 Z5.000 
G0 X127.320 Z3.000 
G1 X127.320 Y278.475 Z-3.000 F500.000 
G3 X127.680 Y276.525 Z-3.000 I0.180 J-0.975 F1000.000 
G3 X127.320 Y278.475 Z-3.000 I-0.180 J0.975 F1000.000 
G0 Z5.000 
G0 X87.320 Z5.000 
G0 X87.320 Z3.000 
G1 X87.320 Y278.475 Z-3.000 F500.000 
G3 X87.680 Y276.525 Z-3.000 I0.180 J-0.975 F1000.000 
G3 X88.475 Y277.680 Z-3.000 I-0.180 J0.975 F1000.000 
G3 X87.320 Y278.475 Z-3.000 I-0.975 J-0.180 F1000.000 
G0 Z5.000 
G0 X87.320 Y238.475 Z5.000 
G0 X87.320 Y238.475 Z3.000 
G1 X87.320 Y238.475 Z-3.000 F500.000 
G3 X86.525 Y237.320 Z-3.000 I0.180 J-0.975 F1000.000 
G3 X87.680 Y236.525 Z-3.000 I0.975 J0.180 F1000.000 
G3 X87.320 Y238.475 Z-3.000 I-0.180 J0.975 F1000.000 
G0 Z5.000 
G0 X87.320 Y118.475 Z5.000 
G0 X87.320 Y118.475 Z3.000 
G1 X87.320 Y118.475 Z-3.000 F500.000 
G3 X86.525 Y117.320 Z-3.000 I0.180 J-0.975 F1000.000 
G3 X87.680 Y116.525 Z-3.000 I0.975 J0.180 F1000.000 
G3 X87.320 Y118.475 Z-3.000 I-0.180 J0.975 F1000.000 
G0 Z5.000 
G0 X127.320 Y318.475 Z5.000 
G0 X127.320 Y318.475 Z3.000 
G1 X127.320 Y318.475 Z-3.000 F500.000 
