( hardware-v2 Mulden 6x6 – LinuxCNC See-Muldenprofil )
( Z-Null: Oberflaeche Brett oben; XY-Null: unten-links 200x200 )
( Werkzeug 6 mm angenommen – T/M und tool.tbl anpassen )
( Profil: square-rounded, side=29.00, corner_r=4.80, Z_BOTTOM=-3.50, exponent=1.80, stepover=2.20 )
G21 G17 G90
G54
M3 S9000
G0 Z5.0000
G0 X0 Y0
( Mulde ix=0 iy=0 center 14.718 14.718 )
G0 Z5.0000
G0 X26.2176 Y24.4176
G1 X26.2176 Y24.4176 Z-0.0000 F150.0
G1 X26.1562 Y24.8834 F750.0
G1 X25.9764 Y25.3176 F750.0
G1 X25.6903 Y25.6903 F750.0
G1 X25.3176 Y25.9764 F750.0
G1 X24.8834 Y26.1562 F750.0
G1 X24.4176 Y26.2176 F750.0
G1 X5.0176 Y26.2176 F750.0
G1 X4.5517 Y26.1562 F750.0
G1 X4.1176 Y25.9764 F750.0
G1 X3.7448 Y25.6903 F750.0
G1 X3.4587 Y25.3176 F750.0
G1 X3.2789 Y24.8834 F750.0
G1 X3.2176 Y24.4176 F750.0
G1 X3.2176 Y5.0176 F750.0
G1 X3.2789 Y4.5517 F750.0
G1 X3.4587 Y4.1176 F750.0
G1 X3.7448 Y3.7448 F750.0
G1 X4.1176 Y3.4587 F750.0
G1 X4.5517 Y3.2789 F750.0
G1 X5.0176 Y3.2176 F750.0
G1 X24.4176 Y3.2176 F750.0
G1 X24.8834 Y3.2789 F750.0
G1 X25.3176 Y3.4587 F750.0
G1 X25.6903 Y3.7448 F750.0
G1 X25.9764 Y4.1176 F750.0
G1 X26.1562 Y4.5517 F750.0
G1 X26.2176 Y5.0176 F750.0
G1 X26.2176 Y24.4176 F750.0
G0 Z5.0000
G0 X24.0176 Y5.4176
G1 X24.0176 Y5.4176 Z-0.2886 F150.0
G1 X24.0176 Y24.0176 F750.0
G1 X5.4176 Y24.0176 F750.0
G1 X5.4176 Y5.4176 F750.0
G1 X24.0176 Y5.4176 F750.0
G0 Z5.0000
G0 X21.8176 Y7.6176
G1 X21.8176 Y7.6176 Z-1.0051 F150.0
G1 X21.8176 Y21.8176 F750.0
G1 X7.6176 Y21.8176 F750.0
G1 X7.6176 Y7.6176 F750.0
G1 X21.8176 Y7.6176 F750.0
G0 Z5.0000
G0 X19.6176 Y9.8176
G1 X19.6176 Y9.8176 Z-2.0853 F150.0
G1 X19.6176 Y19.6176 F750.0
G1 X9.8176 Y19.6176 F750.0
G1 X9.8176 Y9.8176 F750.0
G1 X19.6176 Y9.8176 F750.0
G0 Z5.0000
G0 X17.4176 Y12.0176
G1 X17.4176 Y12.0176 Z-3.5000 F150.0
G1 X17.4176 Y17.4176 F750.0
G1 X12.0176 Y17.4176 F750.0
G1 X12.0176 Y12.0176 F750.0
G1 X17.4176 Y12.0176 F750.0
G0 Z5.0000
G0 X15.5176 Y14.7176
G1 X15.5176 Y14.7176 Z-3.5000 F150.0
G3 X15.5176 Y14.7176 I-0.8000 J0.0000 F750.0
( Mulde ix=1 iy=0 center 45.353 14.718 )
G0 Z5.0000
G0 X56.8527 Y24.4176
G1 X56.8527 Y24.4176 Z-0.0000 F150.0
G1 X56.7913 Y24.8834 F750.0
G1 X56.6115 Y25.3176 F750.0
G1 X56.3255 Y25.6903 F750.0
G1 X55.9527 Y25.9764 F750.0
G1 X55.5185 Y26.1562 F750.0
G1 X55.0527 Y26.2176 F750.0
G1 X35.6527 Y26.2176 F750.0
G1 X35.1868 Y26.1562 F750.0
G1 X34.7527 Y25.9764 F750.0
G1 X34.3799 Y25.6903 F750.0
G1 X34.0938 Y25.3176 F750.0
G1 X33.9140 Y24.8834 F750.0
G1 X33.8527 Y24.4176 F750.0
G1 X33.8527 Y5.0176 F750.0
G1 X33.9140 Y4.5517 F750.0
G1 X34.0938 Y4.1176 F750.0
G1 X34.3799 Y3.7448 F750.0
G1 X34.7527 Y3.4587 F750.0
G1 X35.1868 Y3.2789 F750.0
G1 X35.6527 Y3.2176 F750.0
G1 X55.0527 Y3.2176 F750.0
G1 X55.5185 Y3.2789 F750.0
G1 X55.9527 Y3.4587 F750.0
G1 X56.3255 Y3.7448 F750.0
G1 X56.6115 Y4.1176 F750.0
G1 X56.7913 Y4.5517 F750.0
G1 X56.8527 Y5.0176 F750.0
G1 X56.8527 Y24.4176 F750.0
G0 Z5.0000
G0 X54.6527 Y5.4176
G1 X54.6527 Y5.4176 Z-0.2886 F150.0
G1 X54.6527 Y24.0176 F750.0
G1 X36.0527 Y24.0176 F750.0
G1 X36.0527 Y5.4176 F750.0
G1 X54.6527 Y5.4176 F750.0
G0 Z5.0000
G0 X52.4527 Y7.6176
G1 X52.4527 Y7.6176 Z-1.0051 F150.0
G1 X52.4527 Y21.8176 F750.0
G1 X38.2527 Y21.8176 F750.0
G1 X38.2527 Y7.6176 F750.0
G1 X52.4527 Y7.6176 F750.0
G0 Z5.0000
G0 X50.2527 Y9.8176
G1 X50.2527 Y9.8176 Z-2.0853 F150.0
G1 X50.2527 Y19.6176 F750.0
G1 X40.4527 Y19.6176 F750.0
G1 X40.4527 Y9.8176 F750.0
G1 X50.2527 Y9.8176 F750.0
G0 Z5.0000
G0 X48.0527 Y12.0176
G1 X48.0527 Y12.0176 Z-3.5000 F150.0
G1 X48.0527 Y17.4176 F750.0
G1 X42.6527 Y17.4176 F750.0
G1 X42.6527 Y12.0176 F750.0
G1 X48.0527 Y12.0176 F750.0
G0 Z5.0000
G0 X46.1527 Y14.7176
G1 X46.1527 Y14.7176 Z-3.5000 F150.0
G3 X46.1527 Y14.7176 I-0.8000 J0.0000 F750.0
( Mulde ix=2 iy=0 center 75.988 14.718 )
G0 Z5.0000
G0 X87.4878 Y24.4176
G1 X87.4878 Y24.4176 Z-0.0000 F150.0
G1 X87.4265 Y24.8834 F750.0
G1 X87.2466 Y25.3176 F750.0
G1 X86.9606 Y25.6903 F750.0
G1 X86.5878 Y25.9764 F750.0
G1 X86.1537 Y26.1562 F750.0
G1 X85.6878 Y26.2176 F750.0
G1 X66.2878 Y26.2176 F750.0
G1 X65.8219 Y26.1562 F750.0
G1 X65.3878 Y25.9764 F750.0
G1 X65.0150 Y25.6903 F750.0
G1 X64.7289 Y25.3176 F750.0
G1 X64.5491 Y24.8834 F750.0
G1 X64.4878 Y24.4176 F750.0
G1 X64.4878 Y5.0176 F750.0
G1 X64.5491 Y4.5517 F750.0
G1 X64.7289 Y4.1176 F750.0
G1 X65.0150 Y3.7448 F750.0
G1 X65.3878 Y3.4587 F750.0
G1 X65.8219 Y3.2789 F750.0
G1 X66.2878 Y3.2176 F750.0
G1 X85.6878 Y3.2176 F750.0
G1 X86.1537 Y3.2789 F750.0
G1 X86.5878 Y3.4587 F750.0
G1 X86.9606 Y3.7448 F750.0
G1 X87.2466 Y4.1176 F750.0
G1 X87.4265 Y4.5517 F750.0
G1 X87.4878 Y5.0176 F750.0
G1 X87.4878 Y24.4176 F750.0
G0 Z5.0000
G0 X85.2878 Y5.4176
G1 X85.2878 Y5.4176 Z-0.2886 F150.0
G1 X85.2878 Y24.0176 F750.0
G1 X66.6878 Y24.0176 F750.0
G1 X66.6878 Y5.4176 F750.0
G1 X85.2878 Y5.4176 F750.0
G0 Z5.0000
G0 X83.0878 Y7.6176
G1 X83.0878 Y7.6176 Z-1.0051 F150.0
G1 X83.0878 Y21.8176 F750.0
G1 X68.8878 Y21.8176 F750.0
G1 X68.8878 Y7.6176 F750.0
G1 X83.0878 Y7.6176 F750.0
G0 Z5.0000
G0 X80.8878 Y9.8176
G1 X80.8878 Y9.8176 Z-2.0853 F150.0
G1 X80.8878 Y19.6176 F750.0
G1 X71.0878 Y19.6176 F750.0
G1 X71.0878 Y9.8176 F750.0
G1 X80.8878 Y9.8176 F750.0
G0 Z5.0000
G0 X78.6878 Y12.0176
G1 X78.6878 Y12.0176 Z-3.5000 F150.0
G1 X78.6878 Y17.4176 F750.0
G1 X73.2878 Y17.4176 F750.0
G1 X73.2878 Y12.0176 F750.0
G1 X78.6878 Y12.0176 F750.0
G0 Z5.0000
G0 X76.7878 Y14.7176
G1 X76.7878 Y14.7176 Z-3.5000 F150.0
G3 X76.7878 Y14.7176 I-0.8000 J0.0000 F750.0
( Mulde ix=3 iy=0 center 106.623 14.718 )
G0 Z5.0000
G0 X118.1229 Y24.4176
G1 X118.1229 Y24.4176 Z-0.0000 F150.0
G1 X118.0616 Y24.8834 F750.0
G1 X117.8817 Y25.3176 F750.0
G1 X117.5957 Y25.6903 F750.0
G1 X117.2229 Y25.9764 F750.0
G1 X116.7888 Y26.1562 F750.0
G1 X116.3229 Y26.2176 F750.0
G1 X96.9229 Y26.2176 F750.0
G1 X96.4570 Y26.1562 F750.0
G1 X96.0229 Y25.9764 F750.0
G1 X95.6501 Y25.6903 F750.0
G1 X95.3641 Y25.3176 F750.0
G1 X95.1842 Y24.8834 F750.0
G1 X95.1229 Y24.4176 F750.0
G1 X95.1229 Y5.0176 F750.0
G1 X95.1842 Y4.5517 F750.0
G1 X95.3641 Y4.1176 F750.0
G1 X95.6501 Y3.7448 F750.0
G1 X96.0229 Y3.4587 F750.0
G1 X96.4570 Y3.2789 F750.0
G1 X96.9229 Y3.2176 F750.0
G1 X116.3229 Y3.2176 F750.0
G1 X116.7888 Y3.2789 F750.0
G1 X117.2229 Y3.4587 F750.0
G1 X117.5957 Y3.7448 F750.0
G1 X117.8817 Y4.1176 F750.0
G1 X118.0616 Y4.5517 F750.0
G1 X118.1229 Y5.0176 F750.0
G1 X118.1229 Y24.4176 F750.0
G0 Z5.0000
G0 X115.9229 Y5.4176
G1 X115.9229 Y5.4176 Z-0.2886 F150.0
G1 X115.9229 Y24.0176 F750.0
G1 X97.3229 Y24.0176 F750.0
G1 X97.3229 Y5.4176 F750.0
G1 X115.9229 Y5.4176 F750.0
G0 Z5.0000
G0 X113.7229 Y7.6176
G1 X113.7229 Y7.6176 Z-1.0051 F150.0
G1 X113.7229 Y21.8176 F750.0
G1 X99.5229 Y21.8176 F750.0
G1 X99.5229 Y7.6176 F750.0
G1 X113.7229 Y7.6176 F750.0
G0 Z5.0000
G0 X111.5229 Y9.8176
G1 X111.5229 Y9.8176 Z-2.0853 F150.0
G1 X111.5229 Y19.6176 F750.0
G1 X101.7229 Y19.6176 F750.0
G1 X101.7229 Y9.8176 F750.0
G1 X111.5229 Y9.8176 F750.0
G0 Z5.0000
G0 X109.3229 Y12.0176
G1 X109.3229 Y12.0176 Z-3.5000 F150.0
G1 X109.3229 Y17.4176 F750.0
G1 X103.9229 Y17.4176 F750.0
G1 X103.9229 Y12.0176 F750.0
G1 X109.3229 Y12.0176 F750.0
G0 Z5.0000
G0 X107.4229 Y14.7176
G1 X107.4229 Y14.7176 Z-3.5000 F150.0
G3 X107.4229 Y14.7176 I-0.8000 J0.0000 F750.0
( Mulde ix=4 iy=0 center 137.258 14.718 )
G0 Z5.0000
G0 X148.7580 Y24.4176
G1 X148.7580 Y24.4176 Z-0.0000 F150.0
G1 X148.6967 Y24.8834 F750.0
G1 X148.5169 Y25.3176 F750.0
G1 X148.2308 Y25.6903 F750.0
G1 X147.8580 Y25.9764 F750.0
G1 X147.4239 Y26.1562 F750.0
G1 X146.9580 Y26.2176 F750.0
G1 X127.5580 Y26.2176 F750.0
G1 X127.0921 Y26.1562 F750.0
G1 X126.6580 Y25.9764 F750.0
G1 X126.2852 Y25.6903 F750.0
G1 X125.9992 Y25.3176 F750.0
G1 X125.8193 Y24.8834 F750.0
G1 X125.7580 Y24.4176 F750.0
G1 X125.7580 Y5.0176 F750.0
G1 X125.8193 Y4.5517 F750.0
G1 X125.9992 Y4.1176 F750.0
G1 X126.2852 Y3.7448 F750.0
G1 X126.6580 Y3.4587 F750.0
G1 X127.0921 Y3.2789 F750.0
G1 X127.5580 Y3.2176 F750.0
G1 X146.9580 Y3.2176 F750.0
G1 X147.4239 Y3.2789 F750.0
G1 X147.8580 Y3.4587 F750.0
G1 X148.2308 Y3.7448 F750.0
G1 X148.5169 Y4.1176 F750.0
G1 X148.6967 Y4.5517 F750.0
G1 X148.7580 Y5.0176 F750.0
G1 X148.7580 Y24.4176 F750.0
G0 Z5.0000
G0 X146.5580 Y5.4176
G1 X146.5580 Y5.4176 Z-0.2886 F150.0
G1 X146.5580 Y24.0176 F750.0
G1 X127.9580 Y24.0176 F750.0
G1 X127.9580 Y5.4176 F750.0
G1 X146.5580 Y5.4176 F750.0
G0 Z5.0000
G0 X144.3580 Y7.6176
G1 X144.3580 Y7.6176 Z-1.0051 F150.0
G1 X144.3580 Y21.8176 F750.0
G1 X130.1580 Y21.8176 F750.0
G1 X130.1580 Y7.6176 F750.0
G1 X144.3580 Y7.6176 F750.0
G0 Z5.0000
G0 X142.1580 Y9.8176
G1 X142.1580 Y9.8176 Z-2.0853 F150.0
G1 X142.1580 Y19.6176 F750.0
G1 X132.3580 Y19.6176 F750.0
G1 X132.3580 Y9.8176 F750.0
G1 X142.1580 Y9.8176 F750.0
G0 Z5.0000
G0 X139.9580 Y12.0176
G1 X139.9580 Y12.0176 Z-3.5000 F150.0
G1 X139.9580 Y17.4176 F750.0
G1 X134.5580 Y17.4176 F750.0
G1 X134.5580 Y12.0176 F750.0
G1 X139.9580 Y12.0176 F750.0
G0 Z5.0000
G0 X138.0580 Y14.7176
G1 X138.0580 Y14.7176 Z-3.5000 F150.0
G3 X138.0580 Y14.7176 I-0.8000 J0.0000 F750.0
( Mulde ix=5 iy=0 center 167.893 14.718 )
G0 Z5.0000
G0 X179.3931 Y24.4176
G1 X179.3931 Y24.4176 Z-0.0000 F150.0
G1 X179.3318 Y24.8834 F750.0
G1 X179.1520 Y25.3176 F750.0
G1 X178.8659 Y25.6903 F750.0
G1 X178.4931 Y25.9764 F750.0
G1 X178.0590 Y26.1562 F750.0
G1 X177.5931 Y26.2176 F750.0
G1 X158.1931 Y26.2176 F750.0
G1 X157.7273 Y26.1562 F750.0
G1 X157.2931 Y25.9764 F750.0
G1 X156.9203 Y25.6903 F750.0
G1 X156.6343 Y25.3176 F750.0
G1 X156.4545 Y24.8834 F750.0
G1 X156.3931 Y24.4176 F750.0
G1 X156.3931 Y5.0176 F750.0
G1 X156.4545 Y4.5517 F750.0
G1 X156.6343 Y4.1176 F750.0
G1 X156.9203 Y3.7448 F750.0
G1 X157.2931 Y3.4587 F750.0
G1 X157.7273 Y3.2789 F750.0
G1 X158.1931 Y3.2176 F750.0
G1 X177.5931 Y3.2176 F750.0
G1 X178.0590 Y3.2789 F750.0
G1 X178.4931 Y3.4587 F750.0
G1 X178.8659 Y3.7448 F750.0
G1 X179.1520 Y4.1176 F750.0
G1 X179.3318 Y4.5517 F750.0
G1 X179.3931 Y5.0176 F750.0
G1 X179.3931 Y24.4176 F750.0
G0 Z5.0000
G0 X177.1931 Y5.4176
G1 X177.1931 Y5.4176 Z-0.2886 F150.0
G1 X177.1931 Y24.0176 F750.0
G1 X158.5931 Y24.0176 F750.0
G1 X158.5931 Y5.4176 F750.0
G1 X177.1931 Y5.4176 F750.0
G0 Z5.0000
G0 X174.9931 Y7.6176
G1 X174.9931 Y7.6176 Z-1.0051 F150.0
G1 X174.9931 Y21.8176 F750.0
G1 X160.7931 Y21.8176 F750.0
G1 X160.7931 Y7.6176 F750.0
G1 X174.9931 Y7.6176 F750.0
G0 Z5.0000
G0 X172.7931 Y9.8176
G1 X172.7931 Y9.8176 Z-2.0853 F150.0
G1 X172.7931 Y19.6176 F750.0
G1 X162.9931 Y19.6176 F750.0
G1 X162.9931 Y9.8176 F750.0
G1 X172.7931 Y9.8176 F750.0
G0 Z5.0000
G0 X170.5931 Y12.0176
G1 X170.5931 Y12.0176 Z-3.5000 F150.0
G1 X170.5931 Y17.4176 F750.0
G1 X165.1931 Y17.4176 F750.0
G1 X165.1931 Y12.0176 F750.0
G1 X170.5931 Y12.0176 F750.0
G0 Z5.0000
G0 X168.6931 Y14.7176
G1 X168.6931 Y14.7176 Z-3.5000 F150.0
G3 X168.6931 Y14.7176 I-0.8000 J0.0000 F750.0
( Mulde ix=5 iy=1 center 167.893 45.353 )
G0 Z5.0000
G0 X179.3931 Y55.0527
G1 X179.3931 Y55.0527 Z-0.0000 F150.0
G1 X179.3318 Y55.5185 F750.0
G1 X179.1520 Y55.9527 F750.0
G1 X178.8659 Y56.3255 F750.0
G1 X178.4931 Y56.6115 F750.0
G1 X178.0590 Y56.7913 F750.0
G1 X177.5931 Y56.8527 F750.0
G1 X158.1931 Y56.8527 F750.0
G1 X157.7273 Y56.7913 F750.0
G1 X157.2931 Y56.6115 F750.0
G1 X156.9203 Y56.3255 F750.0
G1 X156.6343 Y55.9527 F750.0
G1 X156.4545 Y55.5185 F750.0
G1 X156.3931 Y55.0527 F750.0
G1 X156.3931 Y35.6527 F750.0
G1 X156.4545 Y35.1868 F750.0
G1 X156.6343 Y34.7527 F750.0
G1 X156.9203 Y34.3799 F750.0
G1 X157.2931 Y34.0938 F750.0
G1 X157.7273 Y33.9140 F750.0
G1 X158.1931 Y33.8527 F750.0
G1 X177.5931 Y33.8527 F750.0
G1 X178.0590 Y33.9140 F750.0
G1 X178.4931 Y34.0938 F750.0
G1 X178.8659 Y34.3799 F750.0
G1 X179.1520 Y34.7527 F750.0
G1 X179.3318 Y35.1868 F750.0
G1 X179.3931 Y35.6527 F750.0
G1 X179.3931 Y55.0527 F750.0
G0 Z5.0000
G0 X177.1931 Y36.0527
G1 X177.1931 Y36.0527 Z-0.2886 F150.0
G1 X177.1931 Y54.6527 F750.0
G1 X158.5931 Y54.6527 F750.0
G1 X158.5931 Y36.0527 F750.0
G1 X177.1931 Y36.0527 F750.0
G0 Z5.0000
G0 X174.9931 Y38.2527
G1 X174.9931 Y38.2527 Z-1.0051 F150.0
G1 X174.9931 Y52.4527 F750.0
G1 X160.7931 Y52.4527 F750.0
G1 X160.7931 Y38.2527 F750.0
G1 X174.9931 Y38.2527 F750.0
G0 Z5.0000
G0 X172.7931 Y40.4527
G1 X172.7931 Y40.4527 Z-2.0853 F150.0
G1 X172.7931 Y50.2527 F750.0
G1 X162.9931 Y50.2527 F750.0
G1 X162.9931 Y40.4527 F750.0
G1 X172.7931 Y40.4527 F750.0
G0 Z5.0000
G0 X170.5931 Y42.6527
G1 X170.5931 Y42.6527 Z-3.5000 F150.0
G1 X170.5931 Y48.0527 F750.0
G1 X165.1931 Y48.0527 F750.0
G1 X165.1931 Y42.6527 F750.0
G1 X170.5931 Y42.6527 F750.0
G0 Z5.0000
G0 X168.6931 Y45.3527
G1 X168.6931 Y45.3527 Z-3.5000 F150.0
G3 X168.6931 Y45.3527 I-0.8000 J0.0000 F750.0
( Mulde ix=4 iy=1 center 137.258 45.353 )
G0 Z5.0000
G0 X148.7580 Y55.0527
G1 X148.7580 Y55.0527 Z-0.0000 F150.0
G1 X148.6967 Y55.5185 F750.0
G1 X148.5169 Y55.9527 F750.0
G1 X148.2308 Y56.3255 F750.0
G1 X147.8580 Y56.6115 F750.0
G1 X147.4239 Y56.7913 F750.0
G1 X146.9580 Y56.8527 F750.0
G1 X127.5580 Y56.8527 F750.0
G1 X127.0921 Y56.7913 F750.0
G1 X126.6580 Y56.6115 F750.0
G1 X126.2852 Y56.3255 F750.0
G1 X125.9992 Y55.9527 F750.0
G1 X125.8193 Y55.5185 F750.0
G1 X125.7580 Y55.0527 F750.0
G1 X125.7580 Y35.6527 F750.0
G1 X125.8193 Y35.1868 F750.0
G1 X125.9992 Y34.7527 F750.0
G1 X126.2852 Y34.3799 F750.0
G1 X126.6580 Y34.0938 F750.0
G1 X127.0921 Y33.9140 F750.0
G1 X127.5580 Y33.8527 F750.0
G1 X146.9580 Y33.8527 F750.0
G1 X147.4239 Y33.9140 F750.0
G1 X147.8580 Y34.0938 F750.0
G1 X148.2308 Y34.3799 F750.0
G1 X148.5169 Y34.7527 F750.0
G1 X148.6967 Y35.1868 F750.0
G1 X148.7580 Y35.6527 F750.0
G1 X148.7580 Y55.0527 F750.0
G0 Z5.0000
G0 X146.5580 Y36.0527
G1 X146.5580 Y36.0527 Z-0.2886 F150.0
G1 X146.5580 Y54.6527 F750.0
G1 X127.9580 Y54.6527 F750.0
G1 X127.9580 Y36.0527 F750.0
G1 X146.5580 Y36.0527 F750.0
G0 Z5.0000
G0 X144.3580 Y38.2527
G1 X144.3580 Y38.2527 Z-1.0051 F150.0
G1 X144.3580 Y52.4527 F750.0
G1 X130.1580 Y52.4527 F750.0
G1 X130.1580 Y38.2527 F750.0
G1 X144.3580 Y38.2527 F750.0
G0 Z5.0000
G0 X142.1580 Y40.4527
G1 X142.1580 Y40.4527 Z-2.0853 F150.0
G1 X142.1580 Y50.2527 F750.0
G1 X132.3580 Y50.2527 F750.0
G1 X132.3580 Y40.4527 F750.0
G1 X142.1580 Y40.4527 F750.0
G0 Z5.0000
G0 X139.9580 Y42.6527
G1 X139.9580 Y42.6527 Z-3.5000 F150.0
G1 X139.9580 Y48.0527 F750.0
G1 X134.5580 Y48.0527 F750.0
G1 X134.5580 Y42.6527 F750.0
G1 X139.9580 Y42.6527 F750.0
G0 Z5.0000
G0 X138.0580 Y45.3527
G1 X138.0580 Y45.3527 Z-3.5000 F150.0
G3 X138.0580 Y45.3527 I-0.8000 J0.0000 F750.0
( Mulde ix=3 iy=1 center 106.623 45.353 )
G0 Z5.0000
G0 X118.1229 Y55.0527
G1 X118.1229 Y55.0527 Z-0.0000 F150.0
G1 X118.0616 Y55.5185 F750.0
G1 X117.8817 Y55.9527 F750.0
G1 X117.5957 Y56.3255 F750.0
G1 X117.2229 Y56.6115 F750.0
G1 X116.7888 Y56.7913 F750.0
G1 X116.3229 Y56.8527 F750.0
G1 X96.9229 Y56.8527 F750.0
G1 X96.4570 Y56.7913 F750.0
G1 X96.0229 Y56.6115 F750.0
G1 X95.6501 Y56.3255 F750.0
G1 X95.3641 Y55.9527 F750.0
G1 X95.1842 Y55.5185 F750.0
G1 X95.1229 Y55.0527 F750.0
G1 X95.1229 Y35.6527 F750.0
G1 X95.1842 Y35.1868 F750.0
G1 X95.3641 Y34.7527 F750.0
G1 X95.6501 Y34.3799 F750.0
G1 X96.0229 Y34.0938 F750.0
G1 X96.4570 Y33.9140 F750.0
G1 X96.9229 Y33.8527 F750.0
G1 X116.3229 Y33.8527 F750.0
G1 X116.7888 Y33.9140 F750.0
G1 X117.2229 Y34.0938 F750.0
G1 X117.5957 Y34.3799 F750.0
G1 X117.8817 Y34.7527 F750.0
G1 X118.0616 Y35.1868 F750.0
G1 X118.1229 Y35.6527 F750.0
G1 X118.1229 Y55.0527 F750.0
G0 Z5.0000
G0 X115.9229 Y36.0527
G1 X115.9229 Y36.0527 Z-0.2886 F150.0
G1 X115.9229 Y54.6527 F750.0
G1 X97.3229 Y54.6527 F750.0
G1 X97.3229 Y36.0527 F750.0
G1 X115.9229 Y36.0527 F750.0
G0 Z5.0000
G0 X113.7229 Y38.2527
G1 X113.7229 Y38.2527 Z-1.0051 F150.0
G1 X113.7229 Y52.4527 F750.0
G1 X99.5229 Y52.4527 F750.0
G1 X99.5229 Y38.2527 F750.0
G1 X113.7229 Y38.2527 F750.0
G0 Z5.0000
G0 X111.5229 Y40.4527
G1 X111.5229 Y40.4527 Z-2.0853 F150.0
G1 X111.5229 Y50.2527 F750.0
G1 X101.7229 Y50.2527 F750.0
G1 X101.7229 Y40.4527 F750.0
G1 X111.5229 Y40.4527 F750.0
G0 Z5.0000
G0 X109.3229 Y42.6527
G1 X109.3229 Y42.6527 Z-3.5000 F150.0
G1 X109.3229 Y48.0527 F750.0
G1 X103.9229 Y48.0527 F750.0
G1 X103.9229 Y42.6527 F750.0
G1 X109.3229 Y42.6527 F750.0
G0 Z5.0000
G0 X107.4229 Y45.3527
G1 X107.4229 Y45.3527 Z-3.5000 F150.0
G3 X107.4229 Y45.3527 I-0.8000 J0.0000 F750.0
( Mulde ix=2 iy=1 center 75.988 45.353 )
G0 Z5.0000
G0 X87.4878 Y55.0527
G1 X87.4878 Y55.0527 Z-0.0000 F150.0
G1 X87.4265 Y55.5185 F750.0
G1 X87.2466 Y55.9527 F750.0
G1 X86.9606 Y56.3255 F750.0
G1 X86.5878 Y56.6115 F750.0
G1 X86.1537 Y56.7913 F750.0
G1 X85.6878 Y56.8527 F750.0
G1 X66.2878 Y56.8527 F750.0
G1 X65.8219 Y56.7913 F750.0
G1 X65.3878 Y56.6115 F750.0
G1 X65.0150 Y56.3255 F750.0
G1 X64.7289 Y55.9527 F750.0
G1 X64.5491 Y55.5185 F750.0
G1 X64.4878 Y55.0527 F750.0
G1 X64.4878 Y35.6527 F750.0
G1 X64.5491 Y35.1868 F750.0
G1 X64.7289 Y34.7527 F750.0
G1 X65.0150 Y34.3799 F750.0
G1 X65.3878 Y34.0938 F750.0
G1 X65.8219 Y33.9140 F750.0
G1 X66.2878 Y33.8527 F750.0
G1 X85.6878 Y33.8527 F750.0
G1 X86.1537 Y33.9140 F750.0
G1 X86.5878 Y34.0938 F750.0
G1 X86.9606 Y34.3799 F750.0
G1 X87.2466 Y34.7527 F750.0
G1 X87.4265 Y35.1868 F750.0
G1 X87.4878 Y35.6527 F750.0
G1 X87.4878 Y55.0527 F750.0
G0 Z5.0000
G0 X85.2878 Y36.0527
G1 X85.2878 Y36.0527 Z-0.2886 F150.0
G1 X85.2878 Y54.6527 F750.0
G1 X66.6878 Y54.6527 F750.0
G1 X66.6878 Y36.0527 F750.0
G1 X85.2878 Y36.0527 F750.0
G0 Z5.0000
G0 X83.0878 Y38.2527
G1 X83.0878 Y38.2527 Z-1.0051 F150.0
G1 X83.0878 Y52.4527 F750.0
G1 X68.8878 Y52.4527 F750.0
G1 X68.8878 Y38.2527 F750.0
G1 X83.0878 Y38.2527 F750.0
G0 Z5.0000
G0 X80.8878 Y40.4527
G1 X80.8878 Y40.4527 Z-2.0853 F150.0
G1 X80.8878 Y50.2527 F750.0
G1 X71.0878 Y50.2527 F750.0
G1 X71.0878 Y40.4527 F750.0
G1 X80.8878 Y40.4527 F750.0
G0 Z5.0000
G0 X78.6878 Y42.6527
G1 X78.6878 Y42.6527 Z-3.5000 F150.0
G1 X78.6878 Y48.0527 F750.0
G1 X73.2878 Y48.0527 F750.0
G1 X73.2878 Y42.6527 F750.0
G1 X78.6878 Y42.6527 F750.0
G0 Z5.0000
G0 X76.7878 Y45.3527
G1 X76.7878 Y45.3527 Z-3.5000 F150.0
G3 X76.7878 Y45.3527 I-0.8000 J0.0000 F750.0
( Mulde ix=1 iy=1 center 45.353 45.353 )
G0 Z5.0000
G0 X56.8527 Y55.0527
G1 X56.8527 Y55.0527 Z-0.0000 F150.0
G1 X56.7913 Y55.5185 F750.0
G1 X56.6115 Y55.9527 F750.0
G1 X56.3255 Y56.3255 F750.0
G1 X55.9527 Y56.6115 F750.0
G1 X55.5185 Y56.7913 F750.0
G1 X55.0527 Y56.8527 F750.0
G1 X35.6527 Y56.8527 F750.0
G1 X35.1868 Y56.7913 F750.0
G1 X34.7527 Y56.6115 F750.0
G1 X34.3799 Y56.3255 F750.0
G1 X34.0938 Y55.9527 F750.0
G1 X33.9140 Y55.5185 F750.0
G1 X33.8527 Y55.0527 F750.0
G1 X33.8527 Y35.6527 F750.0
G1 X33.9140 Y35.1868 F750.0
G1 X34.0938 Y34.7527 F750.0
G1 X34.3799 Y34.3799 F750.0
G1 X34.7527 Y34.0938 F750.0
G1 X35.1868 Y33.9140 F750.0
G1 X35.6527 Y33.8527 F750.0
G1 X55.0527 Y33.8527 F750.0
G1 X55.5185 Y33.9140 F750.0
G1 X55.9527 Y34.0938 F750.0
G1 X56.3255 Y34.3799 F750.0
G1 X56.6115 Y34.7527 F750.0
G1 X56.7913 Y35.1868 F750.0
G1 X56.8527 Y35.6527 F750.0
G1 X56.8527 Y55.0527 F750.0
G0 Z5.0000
G0 X54.6527 Y36.0527
G1 X54.6527 Y36.0527 Z-0.2886 F150.0
G1 X54.6527 Y54.6527 F750.0
G1 X36.0527 Y54.6527 F750.0
G1 X36.0527 Y36.0527 F750.0
G1 X54.6527 Y36.0527 F750.0
G0 Z5.0000
G0 X52.4527 Y38.2527
G1 X52.4527 Y38.2527 Z-1.0051 F150.0
G1 X52.4527 Y52.4527 F750.0
G1 X38.2527 Y52.4527 F750.0
G1 X38.2527 Y38.2527 F750.0
G1 X52.4527 Y38.2527 F750.0
G0 Z5.0000
G0 X50.2527 Y40.4527
G1 X50.2527 Y40.4527 Z-2.0853 F150.0
G1 X50.2527 Y50.2527 F750.0
G1 X40.4527 Y50.2527 F750.0
G1 X40.4527 Y40.4527 F750.0
G1 X50.2527 Y40.4527 F750.0
G0 Z5.0000
G0 X48.0527 Y42.6527
G1 X48.0527 Y42.6527 Z-3.5000 F150.0
G1 X48.0527 Y48.0527 F750.0
G1 X42.6527 Y48.0527 F750.0
G1 X42.6527 Y42.6527 F750.0
G1 X48.0527 Y42.6527 F750.0
G0 Z5.0000
G0 X46.1527 Y45.3527
G1 X46.1527 Y45.3527 Z-3.5000 F150.0
G3 X46.1527 Y45.3527 I-0.8000 J0.0000 F750.0
( Mulde ix=0 iy=1 center 14.718 45.353 )
G0 Z5.0000
G0 X26.2176 Y55.0527
G1 X26.2176 Y55.0527 Z-0.0000 F150.0
G1 X26.1562 Y55.5185 F750.0
G1 X25.9764 Y55.9527 F750.0
G1 X25.6903 Y56.3255 F750.0
G1 X25.3176 Y56.6115 F750.0
G1 X24.8834 Y56.7913 F750.0
G1 X24.4176 Y56.8527 F750.0
G1 X5.0176 Y56.8527 F750.0
G1 X4.5517 Y56.7913 F750.0
G1 X4.1176 Y56.6115 F750.0
G1 X3.7448 Y56.3255 F750.0
G1 X3.4587 Y55.9527 F750.0
G1 X3.2789 Y55.5185 F750.0
G1 X3.2176 Y55.0527 F750.0
G1 X3.2176 Y35.6527 F750.0
G1 X3.2789 Y35.1868 F750.0
G1 X3.4587 Y34.7527 F750.0
G1 X3.7448 Y34.3799 F750.0
G1 X4.1176 Y34.0938 F750.0
G1 X4.5517 Y33.9140 F750.0
G1 X5.0176 Y33.8527 F750.0
G1 X24.4176 Y33.8527 F750.0
G1 X24.8834 Y33.9140 F750.0
G1 X25.3176 Y34.0938 F750.0
G1 X25.6903 Y34.3799 F750.0
G1 X25.9764 Y34.7527 F750.0
G1 X26.1562 Y35.1868 F750.0
G1 X26.2176 Y35.6527 F750.0
G1 X26.2176 Y55.0527 F750.0
G0 Z5.0000
G0 X24.0176 Y36.0527
G1 X24.0176 Y36.0527 Z-0.2886 F150.0
G1 X24.0176 Y54.6527 F750.0
G1 X5.4176 Y54.6527 F750.0
G1 X5.4176 Y36.0527 F750.0
G1 X24.0176 Y36.0527 F750.0
G0 Z5.0000
G0 X21.8176 Y38.2527
G1 X21.8176 Y38.2527 Z-1.0051 F150.0
G1 X21.8176 Y52.4527 F750.0
G1 X7.6176 Y52.4527 F750.0
G1 X7.6176 Y38.2527 F750.0
G1 X21.8176 Y38.2527 F750.0
G0 Z5.0000
G0 X19.6176 Y40.4527
G1 X19.6176 Y40.4527 Z-2.0853 F150.0
G1 X19.6176 Y50.2527 F750.0
G1 X9.8176 Y50.2527 F750.0
G1 X9.8176 Y40.4527 F750.0
G1 X19.6176 Y40.4527 F750.0
G0 Z5.0000
G0 X17.4176 Y42.6527
G1 X17.4176 Y42.6527 Z-3.5000 F150.0
G1 X17.4176 Y48.0527 F750.0
G1 X12.0176 Y48.0527 F750.0
G1 X12.0176 Y42.6527 F750.0
G1 X17.4176 Y42.6527 F750.0
G0 Z5.0000
G0 X15.5176 Y45.3527
G1 X15.5176 Y45.3527 Z-3.5000 F150.0
G3 X15.5176 Y45.3527 I-0.8000 J0.0000 F750.0
( Mulde ix=0 iy=2 center 14.718 75.988 )
G0 Z5.0000
G0 X26.2176 Y85.6878
G1 X26.2176 Y85.6878 Z-0.0000 F150.0
G1 X26.1562 Y86.1537 F750.0
G1 X25.9764 Y86.5878 F750.0
G1 X25.6903 Y86.9606 F750.0
G1 X25.3176 Y87.2466 F750.0
G1 X24.8834 Y87.4265 F750.0
G1 X24.4176 Y87.4878 F750.0
G1 X5.0176 Y87.4878 F750.0
G1 X4.5517 Y87.4265 F750.0
G1 X4.1176 Y87.2466 F750.0
G1 X3.7448 Y86.9606 F750.0
G1 X3.4587 Y86.5878 F750.0
G1 X3.2789 Y86.1537 F750.0
G1 X3.2176 Y85.6878 F750.0
G1 X3.2176 Y66.2878 F750.0
G1 X3.2789 Y65.8219 F750.0
G1 X3.4587 Y65.3878 F750.0
G1 X3.7448 Y65.0150 F750.0
G1 X4.1176 Y64.7289 F750.0
G1 X4.5517 Y64.5491 F750.0
G1 X5.0176 Y64.4878 F750.0
G1 X24.4176 Y64.4878 F750.0
G1 X24.8834 Y64.5491 F750.0
G1 X25.3176 Y64.7289 F750.0
G1 X25.6903 Y65.0150 F750.0
G1 X25.9764 Y65.3878 F750.0
G1 X26.1562 Y65.8219 F750.0
G1 X26.2176 Y66.2878 F750.0
G1 X26.2176 Y85.6878 F750.0
G0 Z5.0000
G0 X24.0176 Y66.6878
G1 X24.0176 Y66.6878 Z-0.2886 F150.0
G1 X24.0176 Y85.2878 F750.0
G1 X5.4176 Y85.2878 F750.0
G1 X5.4176 Y66.6878 F750.0
G1 X24.0176 Y66.6878 F750.0
G0 Z5.0000
G0 X21.8176 Y68.8878
G1 X21.8176 Y68.8878 Z-1.0051 F150.0
G1 X21.8176 Y83.0878 F750.0
G1 X7.6176 Y83.0878 F750.0
G1 X7.6176 Y68.8878 F750.0
G1 X21.8176 Y68.8878 F750.0
G0 Z5.0000
G0 X19.6176 Y71.0878
G1 X19.6176 Y71.0878 Z-2.0853 F150.0
G1 X19.6176 Y80.8878 F750.0
G1 X9.8176 Y80.8878 F750.0
G1 X9.8176 Y71.0878 F750.0
G1 X19.6176 Y71.0878 F750.0
G0 Z5.0000
G0 X17.4176 Y73.2878
G1 X17.4176 Y73.2878 Z-3.5000 F150.0
G1 X17.4176 Y78.6878 F750.0
G1 X12.0176 Y78.6878 F750.0
G1 X12.0176 Y73.2878 F750.0
G1 X17.4176 Y73.2878 F750.0
G0 Z5.0000
G0 X15.5176 Y75.9878
G1 X15.5176 Y75.9878 Z-3.5000 F150.0
G3 X15.5176 Y75.9878 I-0.8000 J0.0000 F750.0
( Mulde ix=1 iy=2 center 45.353 75.988 )
G0 Z5.0000
G0 X56.8527 Y85.6878
G1 X56.8527 Y85.6878 Z-0.0000 F150.0
G1 X56.7913 Y86.1537 F750.0
G1 X56.6115 Y86.5878 F750.0
G1 X56.3255 Y86.9606 F750.0
G1 X55.9527 Y87.2466 F750.0
G1 X55.5185 Y87.4265 F750.0
G1 X55.0527 Y87.4878 F750.0
G1 X35.6527 Y87.4878 F750.0
G1 X35.1868 Y87.4265 F750.0
G1 X34.7527 Y87.2466 F750.0
G1 X34.3799 Y86.9606 F750.0
G1 X34.0938 Y86.5878 F750.0
G1 X33.9140 Y86.1537 F750.0
G1 X33.8527 Y85.6878 F750.0
G1 X33.8527 Y66.2878 F750.0
G1 X33.9140 Y65.8219 F750.0
G1 X34.0938 Y65.3878 F750.0
G1 X34.3799 Y65.0150 F750.0
G1 X34.7527 Y64.7289 F750.0
G1 X35.1868 Y64.5491 F750.0
G1 X35.6527 Y64.4878 F750.0
G1 X55.0527 Y64.4878 F750.0
G1 X55.5185 Y64.5491 F750.0
G1 X55.9527 Y64.7289 F750.0
G1 X56.3255 Y65.0150 F750.0
G1 X56.6115 Y65.3878 F750.0
G1 X56.7913 Y65.8219 F750.0
G1 X56.8527 Y66.2878 F750.0
G1 X56.8527 Y85.6878 F750.0
G0 Z5.0000
G0 X54.6527 Y66.6878
G1 X54.6527 Y66.6878 Z-0.2886 F150.0
G1 X54.6527 Y85.2878 F750.0
G1 X36.0527 Y85.2878 F750.0
G1 X36.0527 Y66.6878 F750.0
G1 X54.6527 Y66.6878 F750.0
G0 Z5.0000
G0 X52.4527 Y68.8878
G1 X52.4527 Y68.8878 Z-1.0051 F150.0
G1 X52.4527 Y83.0878 F750.0
G1 X38.2527 Y83.0878 F750.0
G1 X38.2527 Y68.8878 F750.0
G1 X52.4527 Y68.8878 F750.0
G0 Z5.0000
G0 X50.2527 Y71.0878
G1 X50.2527 Y71.0878 Z-2.0853 F150.0
G1 X50.2527 Y80.8878 F750.0
G1 X40.4527 Y80.8878 F750.0
G1 X40.4527 Y71.0878 F750.0
G1 X50.2527 Y71.0878 F750.0
G0 Z5.0000
G0 X48.0527 Y73.2878
G1 X48.0527 Y73.2878 Z-3.5000 F150.0
G1 X48.0527 Y78.6878 F750.0
G1 X42.6527 Y78.6878 F750.0
G1 X42.6527 Y73.2878 F750.0
G1 X48.0527 Y73.2878 F750.0
G0 Z5.0000
G0 X46.1527 Y75.9878
G1 X46.1527 Y75.9878 Z-3.5000 F150.0
G3 X46.1527 Y75.9878 I-0.8000 J0.0000 F750.0
( Mulde ix=2 iy=2 center 75.988 75.988 )
G0 Z5.0000
G0 X87.4878 Y85.6878
G1 X87.4878 Y85.6878 Z-0.0000 F150.0
G1 X87.4265 Y86.1537 F750.0
G1 X87.2466 Y86.5878 F750.0
G1 X86.9606 Y86.9606 F750.0
G1 X86.5878 Y87.2466 F750.0
G1 X86.1537 Y87.4265 F750.0
G1 X85.6878 Y87.4878 F750.0
G1 X66.2878 Y87.4878 F750.0
G1 X65.8219 Y87.4265 F750.0
G1 X65.3878 Y87.2466 F750.0
G1 X65.0150 Y86.9606 F750.0
G1 X64.7289 Y86.5878 F750.0
G1 X64.5491 Y86.1537 F750.0
G1 X64.4878 Y85.6878 F750.0
G1 X64.4878 Y66.2878 F750.0
G1 X64.5491 Y65.8219 F750.0
G1 X64.7289 Y65.3878 F750.0
G1 X65.0150 Y65.0150 F750.0
G1 X65.3878 Y64.7289 F750.0
G1 X65.8219 Y64.5491 F750.0
G1 X66.2878 Y64.4878 F750.0
G1 X85.6878 Y64.4878 F750.0
G1 X86.1537 Y64.5491 F750.0
G1 X86.5878 Y64.7289 F750.0
G1 X86.9606 Y65.0150 F750.0
G1 X87.2466 Y65.3878 F750.0
G1 X87.4265 Y65.8219 F750.0
G1 X87.4878 Y66.2878 F750.0
G1 X87.4878 Y85.6878 F750.0
G0 Z5.0000
G0 X85.2878 Y66.6878
G1 X85.2878 Y66.6878 Z-0.2886 F150.0
G1 X85.2878 Y85.2878 F750.0
G1 X66.6878 Y85.2878 F750.0
G1 X66.6878 Y66.6878 F750.0
G1 X85.2878 Y66.6878 F750.0
G0 Z5.0000
G0 X83.0878 Y68.8878
G1 X83.0878 Y68.8878 Z-1.0051 F150.0
G1 X83.0878 Y83.0878 F750.0
G1 X68.8878 Y83.0878 F750.0
G1 X68.8878 Y68.8878 F750.0
G1 X83.0878 Y68.8878 F750.0
G0 Z5.0000
G0 X80.8878 Y71.0878
G1 X80.8878 Y71.0878 Z-2.0853 F150.0
G1 X80.8878 Y80.8878 F750.0
G1 X71.0878 Y80.8878 F750.0
G1 X71.0878 Y71.0878 F750.0
G1 X80.8878 Y71.0878 F750.0
G0 Z5.0000
G0 X78.6878 Y73.2878
G1 X78.6878 Y73.2878 Z-3.5000 F150.0
G1 X78.6878 Y78.6878 F750.0
G1 X73.2878 Y78.6878 F750.0
G1 X73.2878 Y73.2878 F750.0
G1 X78.6878 Y73.2878 F750.0
G0 Z5.0000
G0 X76.7878 Y75.9878
G1 X76.7878 Y75.9878 Z-3.5000 F150.0
G3 X76.7878 Y75.9878 I-0.8000 J0.0000 F750.0
( Mulde ix=3 iy=2 center 106.623 75.988 )
G0 Z5.0000
G0 X118.1229 Y85.6878
G1 X118.1229 Y85.6878 Z-0.0000 F150.0
G1 X118.0616 Y86.1537 F750.0
G1 X117.8817 Y86.5878 F750.0
G1 X117.5957 Y86.9606 F750.0
G1 X117.2229 Y87.2466 F750.0
G1 X116.7888 Y87.4265 F750.0
G1 X116.3229 Y87.4878 F750.0
G1 X96.9229 Y87.4878 F750.0
G1 X96.4570 Y87.4265 F750.0
G1 X96.0229 Y87.2466 F750.0
G1 X95.6501 Y86.9606 F750.0
G1 X95.3641 Y86.5878 F750.0
G1 X95.1842 Y86.1537 F750.0
G1 X95.1229 Y85.6878 F750.0
G1 X95.1229 Y66.2878 F750.0
G1 X95.1842 Y65.8219 F750.0
G1 X95.3641 Y65.3878 F750.0
G1 X95.6501 Y65.0150 F750.0
G1 X96.0229 Y64.7289 F750.0
G1 X96.4570 Y64.5491 F750.0
G1 X96.9229 Y64.4878 F750.0
G1 X116.3229 Y64.4878 F750.0
G1 X116.7888 Y64.5491 F750.0
G1 X117.2229 Y64.7289 F750.0
G1 X117.5957 Y65.0150 F750.0
G1 X117.8817 Y65.3878 F750.0
G1 X118.0616 Y65.8219 F750.0
G1 X118.1229 Y66.2878 F750.0
G1 X118.1229 Y85.6878 F750.0
G0 Z5.0000
G0 X115.9229 Y66.6878
G1 X115.9229 Y66.6878 Z-0.2886 F150.0
G1 X115.9229 Y85.2878 F750.0
G1 X97.3229 Y85.2878 F750.0
G1 X97.3229 Y66.6878 F750.0
G1 X115.9229 Y66.6878 F750.0
G0 Z5.0000
G0 X113.7229 Y68.8878
G1 X113.7229 Y68.8878 Z-1.0051 F150.0
G1 X113.7229 Y83.0878 F750.0
G1 X99.5229 Y83.0878 F750.0
G1 X99.5229 Y68.8878 F750.0
G1 X113.7229 Y68.8878 F750.0
G0 Z5.0000
G0 X111.5229 Y71.0878
G1 X111.5229 Y71.0878 Z-2.0853 F150.0
G1 X111.5229 Y80.8878 F750.0
G1 X101.7229 Y80.8878 F750.0
G1 X101.7229 Y71.0878 F750.0
G1 X111.5229 Y71.0878 F750.0
G0 Z5.0000
G0 X109.3229 Y73.2878
G1 X109.3229 Y73.2878 Z-3.5000 F150.0
G1 X109.3229 Y78.6878 F750.0
G1 X103.9229 Y78.6878 F750.0
G1 X103.9229 Y73.2878 F750.0
G1 X109.3229 Y73.2878 F750.0
G0 Z5.0000
G0 X107.4229 Y75.9878
G1 X107.4229 Y75.9878 Z-3.5000 F150.0
G3 X107.4229 Y75.9878 I-0.8000 J0.0000 F750.0
( Mulde ix=4 iy=2 center 137.258 75.988 )
G0 Z5.0000
G0 X148.7580 Y85.6878
G1 X148.7580 Y85.6878 Z-0.0000 F150.0
G1 X148.6967 Y86.1537 F750.0
G1 X148.5169 Y86.5878 F750.0
G1 X148.2308 Y86.9606 F750.0
G1 X147.8580 Y87.2466 F750.0
G1 X147.4239 Y87.4265 F750.0
G1 X146.9580 Y87.4878 F750.0
G1 X127.5580 Y87.4878 F750.0
G1 X127.0921 Y87.4265 F750.0
G1 X126.6580 Y87.2466 F750.0
G1 X126.2852 Y86.9606 F750.0
G1 X125.9992 Y86.5878 F750.0
G1 X125.8193 Y86.1537 F750.0
G1 X125.7580 Y85.6878 F750.0
G1 X125.7580 Y66.2878 F750.0
G1 X125.8193 Y65.8219 F750.0
G1 X125.9992 Y65.3878 F750.0
G1 X126.2852 Y65.0150 F750.0
G1 X126.6580 Y64.7289 F750.0
G1 X127.0921 Y64.5491 F750.0
G1 X127.5580 Y64.4878 F750.0
G1 X146.9580 Y64.4878 F750.0
G1 X147.4239 Y64.5491 F750.0
G1 X147.8580 Y64.7289 F750.0
G1 X148.2308 Y65.0150 F750.0
G1 X148.5169 Y65.3878 F750.0
G1 X148.6967 Y65.8219 F750.0
G1 X148.7580 Y66.2878 F750.0
G1 X148.7580 Y85.6878 F750.0
G0 Z5.0000
G0 X146.5580 Y66.6878
G1 X146.5580 Y66.6878 Z-0.2886 F150.0
G1 X146.5580 Y85.2878 F750.0
G1 X127.9580 Y85.2878 F750.0
G1 X127.9580 Y66.6878 F750.0
G1 X146.5580 Y66.6878 F750.0
G0 Z5.0000
G0 X144.3580 Y68.8878
G1 X144.3580 Y68.8878 Z-1.0051 F150.0
G1 X144.3580 Y83.0878 F750.0
G1 X130.1580 Y83.0878 F750.0
G1 X130.1580 Y68.8878 F750.0
G1 X144.3580 Y68.8878 F750.0
G0 Z5.0000
G0 X142.1580 Y71.0878
G1 X142.1580 Y71.0878 Z-2.0853 F150.0
G1 X142.1580 Y80.8878 F750.0
G1 X132.3580 Y80.8878 F750.0
G1 X132.3580 Y71.0878 F750.0
G1 X142.1580 Y71.0878 F750.0
G0 Z5.0000
G0 X139.9580 Y73.2878
G1 X139.9580 Y73.2878 Z-3.5000 F150.0
G1 X139.9580 Y78.6878 F750.0
G1 X134.5580 Y78.6878 F750.0
G1 X134.5580 Y73.2878 F750.0
G1 X139.9580 Y73.2878 F750.0
G0 Z5.0000
G0 X138.0580 Y75.9878
G1 X138.0580 Y75.9878 Z-3.5000 F150.0
G3 X138.0580 Y75.9878 I-0.8000 J0.0000 F750.0
( Mulde ix=5 iy=2 center 167.893 75.988 )
G0 Z5.0000
G0 X179.3931 Y85.6878
G1 X179.3931 Y85.6878 Z-0.0000 F150.0
G1 X179.3318 Y86.1537 F750.0
G1 X179.1520 Y86.5878 F750.0
G1 X178.8659 Y86.9606 F750.0
G1 X178.4931 Y87.2466 F750.0
G1 X178.0590 Y87.4265 F750.0
G1 X177.5931 Y87.4878 F750.0
G1 X158.1931 Y87.4878 F750.0
G1 X157.7273 Y87.4265 F750.0
G1 X157.2931 Y87.2466 F750.0
G1 X156.9203 Y86.9606 F750.0
G1 X156.6343 Y86.5878 F750.0
G1 X156.4545 Y86.1537 F750.0
G1 X156.3931 Y85.6878 F750.0
G1 X156.3931 Y66.2878 F750.0
G1 X156.4545 Y65.8219 F750.0
G1 X156.6343 Y65.3878 F750.0
G1 X156.9203 Y65.0150 F750.0
G1 X157.2931 Y64.7289 F750.0
G1 X157.7273 Y64.5491 F750.0
G1 X158.1931 Y64.4878 F750.0
G1 X177.5931 Y64.4878 F750.0
G1 X178.0590 Y64.5491 F750.0
G1 X178.4931 Y64.7289 F750.0
G1 X178.8659 Y65.0150 F750.0
G1 X179.1520 Y65.3878 F750.0
G1 X179.3318 Y65.8219 F750.0
G1 X179.3931 Y66.2878 F750.0
G1 X179.3931 Y85.6878 F750.0
G0 Z5.0000
G0 X177.1931 Y66.6878
G1 X177.1931 Y66.6878 Z-0.2886 F150.0
G1 X177.1931 Y85.2878 F750.0
G1 X158.5931 Y85.2878 F750.0
G1 X158.5931 Y66.6878 F750.0
G1 X177.1931 Y66.6878 F750.0
G0 Z5.0000
G0 X174.9931 Y68.8878
G1 X174.9931 Y68.8878 Z-1.0051 F150.0
G1 X174.9931 Y83.0878 F750.0
G1 X160.7931 Y83.0878 F750.0
G1 X160.7931 Y68.8878 F750.0
G1 X174.9931 Y68.8878 F750.0
G0 Z5.0000
G0 X172.7931 Y71.0878
G1 X172.7931 Y71.0878 Z-2.0853 F150.0
G1 X172.7931 Y80.8878 F750.0
G1 X162.9931 Y80.8878 F750.0
G1 X162.9931 Y71.0878 F750.0
G1 X172.7931 Y71.0878 F750.0
G0 Z5.0000
G0 X170.5931 Y73.2878
G1 X170.5931 Y73.2878 Z-3.5000 F150.0
G1 X170.5931 Y78.6878 F750.0
G1 X165.1931 Y78.6878 F750.0
G1 X165.1931 Y73.2878 F750.0
G1 X170.5931 Y73.2878 F750.0
G0 Z5.0000
G0 X168.6931 Y75.9878
G1 X168.6931 Y75.9878 Z-3.5000 F150.0
G3 X168.6931 Y75.9878 I-0.8000 J0.0000 F750.0
( Mulde ix=5 iy=3 center 167.893 106.623 )
G0 Z5.0000
G0 X179.3931 Y116.3229
G1 X179.3931 Y116.3229 Z-0.0000 F150.0
G1 X179.3318 Y116.7888 F750.0
G1 X179.1520 Y117.2229 F750.0
G1 X178.8659 Y117.5957 F750.0
G1 X178.4931 Y117.8817 F750.0
G1 X178.0590 Y118.0616 F750.0
G1 X177.5931 Y118.1229 F750.0
G1 X158.1931 Y118.1229 F750.0
G1 X157.7273 Y118.0616 F750.0
G1 X157.2931 Y117.8817 F750.0
G1 X156.9203 Y117.5957 F750.0
G1 X156.6343 Y117.2229 F750.0
G1 X156.4545 Y116.7888 F750.0
G1 X156.3931 Y116.3229 F750.0
G1 X156.3931 Y96.9229 F750.0
G1 X156.4545 Y96.4570 F750.0
G1 X156.6343 Y96.0229 F750.0
G1 X156.9203 Y95.6501 F750.0
G1 X157.2931 Y95.3641 F750.0
G1 X157.7273 Y95.1842 F750.0
G1 X158.1931 Y95.1229 F750.0
G1 X177.5931 Y95.1229 F750.0
G1 X178.0590 Y95.1842 F750.0
G1 X178.4931 Y95.3641 F750.0
G1 X178.8659 Y95.6501 F750.0
G1 X179.1520 Y96.0229 F750.0
G1 X179.3318 Y96.4570 F750.0
G1 X179.3931 Y96.9229 F750.0
G1 X179.3931 Y116.3229 F750.0
G0 Z5.0000
G0 X177.1931 Y97.3229
G1 X177.1931 Y97.3229 Z-0.2886 F150.0
G1 X177.1931 Y115.9229 F750.0
G1 X158.5931 Y115.9229 F750.0
G1 X158.5931 Y97.3229 F750.0
G1 X177.1931 Y97.3229 F750.0
G0 Z5.0000
G0 X174.9931 Y99.5229
G1 X174.9931 Y99.5229 Z-1.0051 F150.0
G1 X174.9931 Y113.7229 F750.0
G1 X160.7931 Y113.7229 F750.0
G1 X160.7931 Y99.5229 F750.0
G1 X174.9931 Y99.5229 F750.0
G0 Z5.0000
G0 X172.7931 Y101.7229
G1 X172.7931 Y101.7229 Z-2.0853 F150.0
G1 X172.7931 Y111.5229 F750.0
G1 X162.9931 Y111.5229 F750.0
G1 X162.9931 Y101.7229 F750.0
G1 X172.7931 Y101.7229 F750.0
G0 Z5.0000
G0 X170.5931 Y103.9229
G1 X170.5931 Y103.9229 Z-3.5000 F150.0
G1 X170.5931 Y109.3229 F750.0
G1 X165.1931 Y109.3229 F750.0
G1 X165.1931 Y103.9229 F750.0
G1 X170.5931 Y103.9229 F750.0
G0 Z5.0000
G0 X168.6931 Y106.6229
G1 X168.6931 Y106.6229 Z-3.5000 F150.0
G3 X168.6931 Y106.6229 I-0.8000 J0.0000 F750.0
( Mulde ix=4 iy=3 center 137.258 106.623 )
G0 Z5.0000
G0 X148.7580 Y116.3229
G1 X148.7580 Y116.3229 Z-0.0000 F150.0
G1 X148.6967 Y116.7888 F750.0
G1 X148.5169 Y117.2229 F750.0
G1 X148.2308 Y117.5957 F750.0
G1 X147.8580 Y117.8817 F750.0
G1 X147.4239 Y118.0616 F750.0
G1 X146.9580 Y118.1229 F750.0
G1 X127.5580 Y118.1229 F750.0
G1 X127.0921 Y118.0616 F750.0
G1 X126.6580 Y117.8817 F750.0
G1 X126.2852 Y117.5957 F750.0
G1 X125.9992 Y117.2229 F750.0
G1 X125.8193 Y116.7888 F750.0
G1 X125.7580 Y116.3229 F750.0
G1 X125.7580 Y96.9229 F750.0
G1 X125.8193 Y96.4570 F750.0
G1 X125.9992 Y96.0229 F750.0
G1 X126.2852 Y95.6501 F750.0
G1 X126.6580 Y95.3641 F750.0
G1 X127.0921 Y95.1842 F750.0
G1 X127.5580 Y95.1229 F750.0
G1 X146.9580 Y95.1229 F750.0
G1 X147.4239 Y95.1842 F750.0
G1 X147.8580 Y95.3641 F750.0
G1 X148.2308 Y95.6501 F750.0
G1 X148.5169 Y96.0229 F750.0
G1 X148.6967 Y96.4570 F750.0
G1 X148.7580 Y96.9229 F750.0
G1 X148.7580 Y116.3229 F750.0
G0 Z5.0000
G0 X146.5580 Y97.3229
G1 X146.5580 Y97.3229 Z-0.2886 F150.0
G1 X146.5580 Y115.9229 F750.0
G1 X127.9580 Y115.9229 F750.0
G1 X127.9580 Y97.3229 F750.0
G1 X146.5580 Y97.3229 F750.0
G0 Z5.0000
G0 X144.3580 Y99.5229
G1 X144.3580 Y99.5229 Z-1.0051 F150.0
G1 X144.3580 Y113.7229 F750.0
G1 X130.1580 Y113.7229 F750.0
G1 X130.1580 Y99.5229 F750.0
G1 X144.3580 Y99.5229 F750.0
G0 Z5.0000
G0 X142.1580 Y101.7229
G1 X142.1580 Y101.7229 Z-2.0853 F150.0
G1 X142.1580 Y111.5229 F750.0
G1 X132.3580 Y111.5229 F750.0
G1 X132.3580 Y101.7229 F750.0
G1 X142.1580 Y101.7229 F750.0
G0 Z5.0000
G0 X139.9580 Y103.9229
G1 X139.9580 Y103.9229 Z-3.5000 F150.0
G1 X139.9580 Y109.3229 F750.0
G1 X134.5580 Y109.3229 F750.0
G1 X134.5580 Y103.9229 F750.0
G1 X139.9580 Y103.9229 F750.0
G0 Z5.0000
G0 X138.0580 Y106.6229
G1 X138.0580 Y106.6229 Z-3.5000 F150.0
G3 X138.0580 Y106.6229 I-0.8000 J0.0000 F750.0
( Mulde ix=3 iy=3 center 106.623 106.623 )
G0 Z5.0000
G0 X118.1229 Y116.3229
G1 X118.1229 Y116.3229 Z-0.0000 F150.0
G1 X118.0616 Y116.7888 F750.0
G1 X117.8817 Y117.2229 F750.0
G1 X117.5957 Y117.5957 F750.0
G1 X117.2229 Y117.8817 F750.0
G1 X116.7888 Y118.0616 F750.0
G1 X116.3229 Y118.1229 F750.0
G1 X96.9229 Y118.1229 F750.0
G1 X96.4570 Y118.0616 F750.0
G1 X96.0229 Y117.8817 F750.0
G1 X95.6501 Y117.5957 F750.0
G1 X95.3641 Y117.2229 F750.0
G1 X95.1842 Y116.7888 F750.0
G1 X95.1229 Y116.3229 F750.0
G1 X95.1229 Y96.9229 F750.0
G1 X95.1842 Y96.4570 F750.0
G1 X95.3641 Y96.0229 F750.0
G1 X95.6501 Y95.6501 F750.0
G1 X96.0229 Y95.3641 F750.0
G1 X96.4570 Y95.1842 F750.0
G1 X96.9229 Y95.1229 F750.0
G1 X116.3229 Y95.1229 F750.0
G1 X116.7888 Y95.1842 F750.0
G1 X117.2229 Y95.3641 F750.0
G1 X117.5957 Y95.6501 F750.0
G1 X117.8817 Y96.0229 F750.0
G1 X118.0616 Y96.4570 F750.0
G1 X118.1229 Y96.9229 F750.0
G1 X118.1229 Y116.3229 F750.0
G0 Z5.0000
G0 X115.9229 Y97.3229
G1 X115.9229 Y97.3229 Z-0.2886 F150.0
G1 X115.9229 Y115.9229 F750.0
G1 X97.3229 Y115.9229 F750.0
G1 X97.3229 Y97.3229 F750.0
G1 X115.9229 Y97.3229 F750.0
G0 Z5.0000
G0 X113.7229 Y99.5229
G1 X113.7229 Y99.5229 Z-1.0051 F150.0
G1 X113.7229 Y113.7229 F750.0
G1 X99.5229 Y113.7229 F750.0
G1 X99.5229 Y99.5229 F750.0
G1 X113.7229 Y99.5229 F750.0
G0 Z5.0000
G0 X111.5229 Y101.7229
G1 X111.5229 Y101.7229 Z-2.0853 F150.0
G1 X111.5229 Y111.5229 F750.0
G1 X101.7229 Y111.5229 F750.0
G1 X101.7229 Y101.7229 F750.0
G1 X111.5229 Y101.7229 F750.0
G0 Z5.0000
G0 X109.3229 Y103.9229
G1 X109.3229 Y103.9229 Z-3.5000 F150.0
G1 X109.3229 Y109.3229 F750.0
G1 X103.9229 Y109.3229 F750.0
G1 X103.9229 Y103.9229 F750.0
G1 X109.3229 Y103.9229 F750.0
G0 Z5.0000
G0 X107.4229 Y106.6229
G1 X107.4229 Y106.6229 Z-3.5000 F150.0
G3 X107.4229 Y106.6229 I-0.8000 J0.0000 F750.0
( Mulde ix=2 iy=3 center 75.988 106.623 )
G0 Z5.0000
G0 X87.4878 Y116.3229
G1 X87.4878 Y116.3229 Z-0.0000 F150.0
G1 X87.4265 Y116.7888 F750.0
G1 X87.2466 Y117.2229 F750.0
G1 X86.9606 Y117.5957 F750.0
G1 X86.5878 Y117.8817 F750.0
G1 X86.1537 Y118.0616 F750.0
G1 X85.6878 Y118.1229 F750.0
G1 X66.2878 Y118.1229 F750.0
G1 X65.8219 Y118.0616 F750.0
G1 X65.3878 Y117.8817 F750.0
G1 X65.0150 Y117.5957 F750.0
G1 X64.7289 Y117.2229 F750.0
G1 X64.5491 Y116.7888 F750.0
G1 X64.4878 Y116.3229 F750.0
G1 X64.4878 Y96.9229 F750.0
G1 X64.5491 Y96.4570 F750.0
G1 X64.7289 Y96.0229 F750.0
G1 X65.0150 Y95.6501 F750.0
G1 X65.3878 Y95.3641 F750.0
G1 X65.8219 Y95.1842 F750.0
G1 X66.2878 Y95.1229 F750.0
G1 X85.6878 Y95.1229 F750.0
G1 X86.1537 Y95.1842 F750.0
G1 X86.5878 Y95.3641 F750.0
G1 X86.9606 Y95.6501 F750.0
G1 X87.2466 Y96.0229 F750.0
G1 X87.4265 Y96.4570 F750.0
G1 X87.4878 Y96.9229 F750.0
G1 X87.4878 Y116.3229 F750.0
G0 Z5.0000
G0 X85.2878 Y97.3229
G1 X85.2878 Y97.3229 Z-0.2886 F150.0
G1 X85.2878 Y115.9229 F750.0
G1 X66.6878 Y115.9229 F750.0
G1 X66.6878 Y97.3229 F750.0
G1 X85.2878 Y97.3229 F750.0
G0 Z5.0000
G0 X83.0878 Y99.5229
G1 X83.0878 Y99.5229 Z-1.0051 F150.0
G1 X83.0878 Y113.7229 F750.0
G1 X68.8878 Y113.7229 F750.0
G1 X68.8878 Y99.5229 F750.0
G1 X83.0878 Y99.5229 F750.0
G0 Z5.0000
G0 X80.8878 Y101.7229
G1 X80.8878 Y101.7229 Z-2.0853 F150.0
G1 X80.8878 Y111.5229 F750.0
G1 X71.0878 Y111.5229 F750.0
G1 X71.0878 Y101.7229 F750.0
G1 X80.8878 Y101.7229 F750.0
G0 Z5.0000
G0 X78.6878 Y103.9229
G1 X78.6878 Y103.9229 Z-3.5000 F150.0
G1 X78.6878 Y109.3229 F750.0
G1 X73.2878 Y109.3229 F750.0
G1 X73.2878 Y103.9229 F750.0
G1 X78.6878 Y103.9229 F750.0
G0 Z5.0000
G0 X76.7878 Y106.6229
G1 X76.7878 Y106.6229 Z-3.5000 F150.0
G3 X76.7878 Y106.6229 I-0.8000 J0.0000 F750.0
( Mulde ix=1 iy=3 center 45.353 106.623 )
G0 Z5.0000
G0 X56.8527 Y116.3229
G1 X56.8527 Y116.3229 Z-0.0000 F150.0
G1 X56.7913 Y116.7888 F750.0
G1 X56.6115 Y117.2229 F750.0
G1 X56.3255 Y117.5957 F750.0
G1 X55.9527 Y117.8817 F750.0
G1 X55.5185 Y118.0616 F750.0
G1 X55.0527 Y118.1229 F750.0
G1 X35.6527 Y118.1229 F750.0
G1 X35.1868 Y118.0616 F750.0
G1 X34.7527 Y117.8817 F750.0
G1 X34.3799 Y117.5957 F750.0
G1 X34.0938 Y117.2229 F750.0
G1 X33.9140 Y116.7888 F750.0
G1 X33.8527 Y116.3229 F750.0
G1 X33.8527 Y96.9229 F750.0
G1 X33.9140 Y96.4570 F750.0
G1 X34.0938 Y96.0229 F750.0
G1 X34.3799 Y95.6501 F750.0
G1 X34.7527 Y95.3641 F750.0
G1 X35.1868 Y95.1842 F750.0
G1 X35.6527 Y95.1229 F750.0
G1 X55.0527 Y95.1229 F750.0
G1 X55.5185 Y95.1842 F750.0
G1 X55.9527 Y95.3641 F750.0
G1 X56.3255 Y95.6501 F750.0
G1 X56.6115 Y96.0229 F750.0
G1 X56.7913 Y96.4570 F750.0
G1 X56.8527 Y96.9229 F750.0
G1 X56.8527 Y116.3229 F750.0
G0 Z5.0000
G0 X54.6527 Y97.3229
G1 X54.6527 Y97.3229 Z-0.2886 F150.0
G1 X54.6527 Y115.9229 F750.0
G1 X36.0527 Y115.9229 F750.0
G1 X36.0527 Y97.3229 F750.0
G1 X54.6527 Y97.3229 F750.0
G0 Z5.0000
G0 X52.4527 Y99.5229
G1 X52.4527 Y99.5229 Z-1.0051 F150.0
G1 X52.4527 Y113.7229 F750.0
G1 X38.2527 Y113.7229 F750.0
G1 X38.2527 Y99.5229 F750.0
G1 X52.4527 Y99.5229 F750.0
G0 Z5.0000
G0 X50.2527 Y101.7229
G1 X50.2527 Y101.7229 Z-2.0853 F150.0
G1 X50.2527 Y111.5229 F750.0
G1 X40.4527 Y111.5229 F750.0
G1 X40.4527 Y101.7229 F750.0
G1 X50.2527 Y101.7229 F750.0
G0 Z5.0000
G0 X48.0527 Y103.9229
G1 X48.0527 Y103.9229 Z-3.5000 F150.0
G1 X48.0527 Y109.3229 F750.0
G1 X42.6527 Y109.3229 F750.0
G1 X42.6527 Y103.9229 F750.0
G1 X48.0527 Y103.9229 F750.0
G0 Z5.0000
G0 X46.1527 Y106.6229
G1 X46.1527 Y106.6229 Z-3.5000 F150.0
G3 X46.1527 Y106.6229 I-0.8000 J0.0000 F750.0
( Mulde ix=0 iy=3 center 14.718 106.623 )
G0 Z5.0000
G0 X26.2176 Y116.3229
G1 X26.2176 Y116.3229 Z-0.0000 F150.0
G1 X26.1562 Y116.7888 F750.0
G1 X25.9764 Y117.2229 F750.0
G1 X25.6903 Y117.5957 F750.0
G1 X25.3176 Y117.8817 F750.0
G1 X24.8834 Y118.0616 F750.0
G1 X24.4176 Y118.1229 F750.0
G1 X5.0176 Y118.1229 F750.0
G1 X4.5517 Y118.0616 F750.0
G1 X4.1176 Y117.8817 F750.0
G1 X3.7448 Y117.5957 F750.0
G1 X3.4587 Y117.2229 F750.0
G1 X3.2789 Y116.7888 F750.0
G1 X3.2176 Y116.3229 F750.0
G1 X3.2176 Y96.9229 F750.0
G1 X3.2789 Y96.4570 F750.0
G1 X3.4587 Y96.0229 F750.0
G1 X3.7448 Y95.6501 F750.0
G1 X4.1176 Y95.3641 F750.0
G1 X4.5517 Y95.1842 F750.0
G1 X5.0176 Y95.1229 F750.0
G1 X24.4176 Y95.1229 F750.0
G1 X24.8834 Y95.1842 F750.0
G1 X25.3176 Y95.3641 F750.0
G1 X25.6903 Y95.6501 F750.0
G1 X25.9764 Y96.0229 F750.0
G1 X26.1562 Y96.4570 F750.0
G1 X26.2176 Y96.9229 F750.0
G1 X26.2176 Y116.3229 F750.0
G0 Z5.0000
G0 X24.0176 Y97.3229
G1 X24.0176 Y97.3229 Z-0.2886 F150.0
G1 X24.0176 Y115.9229 F750.0
G1 X5.4176 Y115.9229 F750.0
G1 X5.4176 Y97.3229 F750.0
G1 X24.0176 Y97.3229 F750.0
G0 Z5.0000
G0 X21.8176 Y99.5229
G1 X21.8176 Y99.5229 Z-1.0051 F150.0
G1 X21.8176 Y113.7229 F750.0
G1 X7.6176 Y113.7229 F750.0
G1 X7.6176 Y99.5229 F750.0
G1 X21.8176 Y99.5229 F750.0
G0 Z5.0000
G0 X19.6176 Y101.7229
G1 X19.6176 Y101.7229 Z-2.0853 F150.0
G1 X19.6176 Y111.5229 F750.0
G1 X9.8176 Y111.5229 F750.0
G1 X9.8176 Y101.7229 F750.0
G1 X19.6176 Y101.7229 F750.0
G0 Z5.0000
G0 X17.4176 Y103.9229
G1 X17.4176 Y103.9229 Z-3.5000 F150.0
G1 X17.4176 Y109.3229 F750.0
G1 X12.0176 Y109.3229 F750.0
G1 X12.0176 Y103.9229 F750.0
G1 X17.4176 Y103.9229 F750.0
G0 Z5.0000
G0 X15.5176 Y106.6229
G1 X15.5176 Y106.6229 Z-3.5000 F150.0
G3 X15.5176 Y106.6229 I-0.8000 J0.0000 F750.0
( Mulde ix=0 iy=4 center 14.718 137.258 )
G0 Z5.0000
G0 X26.2176 Y146.9580
G1 X26.2176 Y146.9580 Z-0.0000 F150.0
G1 X26.1562 Y147.4239 F750.0
G1 X25.9764 Y147.8580 F750.0
G1 X25.6903 Y148.2308 F750.0
G1 X25.3176 Y148.5169 F750.0
G1 X24.8834 Y148.6967 F750.0
G1 X24.4176 Y148.7580 F750.0
G1 X5.0176 Y148.7580 F750.0
G1 X4.5517 Y148.6967 F750.0
G1 X4.1176 Y148.5169 F750.0
G1 X3.7448 Y148.2308 F750.0
G1 X3.4587 Y147.8580 F750.0
G1 X3.2789 Y147.4239 F750.0
G1 X3.2176 Y146.9580 F750.0
G1 X3.2176 Y127.5580 F750.0
G1 X3.2789 Y127.0921 F750.0
G1 X3.4587 Y126.6580 F750.0
G1 X3.7448 Y126.2852 F750.0
G1 X4.1176 Y125.9992 F750.0
G1 X4.5517 Y125.8193 F750.0
G1 X5.0176 Y125.7580 F750.0
G1 X24.4176 Y125.7580 F750.0
G1 X24.8834 Y125.8193 F750.0
G1 X25.3176 Y125.9992 F750.0
G1 X25.6903 Y126.2852 F750.0
G1 X25.9764 Y126.6580 F750.0
G1 X26.1562 Y127.0921 F750.0
G1 X26.2176 Y127.5580 F750.0
G1 X26.2176 Y146.9580 F750.0
G0 Z5.0000
G0 X24.0176 Y127.9580
G1 X24.0176 Y127.9580 Z-0.2886 F150.0
G1 X24.0176 Y146.5580 F750.0
G1 X5.4176 Y146.5580 F750.0
G1 X5.4176 Y127.9580 F750.0
G1 X24.0176 Y127.9580 F750.0
G0 Z5.0000
G0 X21.8176 Y130.1580
G1 X21.8176 Y130.1580 Z-1.0051 F150.0
G1 X21.8176 Y144.3580 F750.0
G1 X7.6176 Y144.3580 F750.0
G1 X7.6176 Y130.1580 F750.0
G1 X21.8176 Y130.1580 F750.0
G0 Z5.0000
G0 X19.6176 Y132.3580
G1 X19.6176 Y132.3580 Z-2.0853 F150.0
G1 X19.6176 Y142.1580 F750.0
G1 X9.8176 Y142.1580 F750.0
G1 X9.8176 Y132.3580 F750.0
G1 X19.6176 Y132.3580 F750.0
G0 Z5.0000
G0 X17.4176 Y134.5580
G1 X17.4176 Y134.5580 Z-3.5000 F150.0
G1 X17.4176 Y139.9580 F750.0
G1 X12.0176 Y139.9580 F750.0
G1 X12.0176 Y134.5580 F750.0
G1 X17.4176 Y134.5580 F750.0
G0 Z5.0000
G0 X15.5176 Y137.2580
G1 X15.5176 Y137.2580 Z-3.5000 F150.0
G3 X15.5176 Y137.2580 I-0.8000 J0.0000 F750.0
( Mulde ix=1 iy=4 center 45.353 137.258 )
G0 Z5.0000
G0 X56.8527 Y146.9580
G1 X56.8527 Y146.9580 Z-0.0000 F150.0
G1 X56.7913 Y147.4239 F750.0
G1 X56.6115 Y147.8580 F750.0
G1 X56.3255 Y148.2308 F750.0
G1 X55.9527 Y148.5169 F750.0
G1 X55.5185 Y148.6967 F750.0
G1 X55.0527 Y148.7580 F750.0
G1 X35.6527 Y148.7580 F750.0
G1 X35.1868 Y148.6967 F750.0
G1 X34.7527 Y148.5169 F750.0
G1 X34.3799 Y148.2308 F750.0
G1 X34.0938 Y147.8580 F750.0
G1 X33.9140 Y147.4239 F750.0
G1 X33.8527 Y146.9580 F750.0
G1 X33.8527 Y127.5580 F750.0
G1 X33.9140 Y127.0921 F750.0
G1 X34.0938 Y126.6580 F750.0
G1 X34.3799 Y126.2852 F750.0
G1 X34.7527 Y125.9992 F750.0
G1 X35.1868 Y125.8193 F750.0
G1 X35.6527 Y125.7580 F750.0
G1 X55.0527 Y125.7580 F750.0
G1 X55.5185 Y125.8193 F750.0
G1 X55.9527 Y125.9992 F750.0
G1 X56.3255 Y126.2852 F750.0
G1 X56.6115 Y126.6580 F750.0
G1 X56.7913 Y127.0921 F750.0
G1 X56.8527 Y127.5580 F750.0
G1 X56.8527 Y146.9580 F750.0
G0 Z5.0000
G0 X54.6527 Y127.9580
G1 X54.6527 Y127.9580 Z-0.2886 F150.0
G1 X54.6527 Y146.5580 F750.0
G1 X36.0527 Y146.5580 F750.0
G1 X36.0527 Y127.9580 F750.0
G1 X54.6527 Y127.9580 F750.0
G0 Z5.0000
G0 X52.4527 Y130.1580
G1 X52.4527 Y130.1580 Z-1.0051 F150.0
G1 X52.4527 Y144.3580 F750.0
G1 X38.2527 Y144.3580 F750.0
G1 X38.2527 Y130.1580 F750.0
G1 X52.4527 Y130.1580 F750.0
G0 Z5.0000
G0 X50.2527 Y132.3580
G1 X50.2527 Y132.3580 Z-2.0853 F150.0
G1 X50.2527 Y142.1580 F750.0
G1 X40.4527 Y142.1580 F750.0
G1 X40.4527 Y132.3580 F750.0
G1 X50.2527 Y132.3580 F750.0
G0 Z5.0000
G0 X48.0527 Y134.5580
G1 X48.0527 Y134.5580 Z-3.5000 F150.0
G1 X48.0527 Y139.9580 F750.0
G1 X42.6527 Y139.9580 F750.0
G1 X42.6527 Y134.5580 F750.0
G1 X48.0527 Y134.5580 F750.0
G0 Z5.0000
G0 X46.1527 Y137.2580
G1 X46.1527 Y137.2580 Z-3.5000 F150.0
G3 X46.1527 Y137.2580 I-0.8000 J0.0000 F750.0
( Mulde ix=2 iy=4 center 75.988 137.258 )
G0 Z5.0000
G0 X87.4878 Y146.9580
G1 X87.4878 Y146.9580 Z-0.0000 F150.0
G1 X87.4265 Y147.4239 F750.0
G1 X87.2466 Y147.8580 F750.0
G1 X86.9606 Y148.2308 F750.0
G1 X86.5878 Y148.5169 F750.0
G1 X86.1537 Y148.6967 F750.0
G1 X85.6878 Y148.7580 F750.0
G1 X66.2878 Y148.7580 F750.0
G1 X65.8219 Y148.6967 F750.0
G1 X65.3878 Y148.5169 F750.0
G1 X65.0150 Y148.2308 F750.0
G1 X64.7289 Y147.8580 F750.0
G1 X64.5491 Y147.4239 F750.0
G1 X64.4878 Y146.9580 F750.0
G1 X64.4878 Y127.5580 F750.0
G1 X64.5491 Y127.0921 F750.0
G1 X64.7289 Y126.6580 F750.0
G1 X65.0150 Y126.2852 F750.0
G1 X65.3878 Y125.9992 F750.0
G1 X65.8219 Y125.8193 F750.0
G1 X66.2878 Y125.7580 F750.0
G1 X85.6878 Y125.7580 F750.0
G1 X86.1537 Y125.8193 F750.0
G1 X86.5878 Y125.9992 F750.0
G1 X86.9606 Y126.2852 F750.0
G1 X87.2466 Y126.6580 F750.0
G1 X87.4265 Y127.0921 F750.0
G1 X87.4878 Y127.5580 F750.0
G1 X87.4878 Y146.9580 F750.0
G0 Z5.0000
G0 X85.2878 Y127.9580
G1 X85.2878 Y127.9580 Z-0.2886 F150.0
G1 X85.2878 Y146.5580 F750.0
G1 X66.6878 Y146.5580 F750.0
G1 X66.6878 Y127.9580 F750.0
G1 X85.2878 Y127.9580 F750.0
G0 Z5.0000
G0 X83.0878 Y130.1580
G1 X83.0878 Y130.1580 Z-1.0051 F150.0
G1 X83.0878 Y144.3580 F750.0
G1 X68.8878 Y144.3580 F750.0
G1 X68.8878 Y130.1580 F750.0
G1 X83.0878 Y130.1580 F750.0
G0 Z5.0000
G0 X80.8878 Y132.3580
G1 X80.8878 Y132.3580 Z-2.0853 F150.0
G1 X80.8878 Y142.1580 F750.0
G1 X71.0878 Y142.1580 F750.0
G1 X71.0878 Y132.3580 F750.0
G1 X80.8878 Y132.3580 F750.0
G0 Z5.0000
G0 X78.6878 Y134.5580
G1 X78.6878 Y134.5580 Z-3.5000 F150.0
G1 X78.6878 Y139.9580 F750.0
G1 X73.2878 Y139.9580 F750.0
G1 X73.2878 Y134.5580 F750.0
G1 X78.6878 Y134.5580 F750.0
G0 Z5.0000
G0 X76.7878 Y137.2580
G1 X76.7878 Y137.2580 Z-3.5000 F150.0
G3 X76.7878 Y137.2580 I-0.8000 J0.0000 F750.0
( Mulde ix=3 iy=4 center 106.623 137.258 )
G0 Z5.0000
G0 X118.1229 Y146.9580
G1 X118.1229 Y146.9580 Z-0.0000 F150.0
G1 X118.0616 Y147.4239 F750.0
G1 X117.8817 Y147.8580 F750.0
G1 X117.5957 Y148.2308 F750.0
G1 X117.2229 Y148.5169 F750.0
G1 X116.7888 Y148.6967 F750.0
G1 X116.3229 Y148.7580 F750.0
G1 X96.9229 Y148.7580 F750.0
G1 X96.4570 Y148.6967 F750.0
G1 X96.0229 Y148.5169 F750.0
G1 X95.6501 Y148.2308 F750.0
G1 X95.3641 Y147.8580 F750.0
G1 X95.1842 Y147.4239 F750.0
G1 X95.1229 Y146.9580 F750.0
G1 X95.1229 Y127.5580 F750.0
G1 X95.1842 Y127.0921 F750.0
G1 X95.3641 Y126.6580 F750.0
G1 X95.6501 Y126.2852 F750.0
G1 X96.0229 Y125.9992 F750.0
G1 X96.4570 Y125.8193 F750.0
G1 X96.9229 Y125.7580 F750.0
G1 X116.3229 Y125.7580 F750.0
G1 X116.7888 Y125.8193 F750.0
G1 X117.2229 Y125.9992 F750.0
G1 X117.5957 Y126.2852 F750.0
G1 X117.8817 Y126.6580 F750.0
G1 X118.0616 Y127.0921 F750.0
G1 X118.1229 Y127.5580 F750.0
G1 X118.1229 Y146.9580 F750.0
G0 Z5.0000
G0 X115.9229 Y127.9580
G1 X115.9229 Y127.9580 Z-0.2886 F150.0
G1 X115.9229 Y146.5580 F750.0
G1 X97.3229 Y146.5580 F750.0
G1 X97.3229 Y127.9580 F750.0
G1 X115.9229 Y127.9580 F750.0
G0 Z5.0000
G0 X113.7229 Y130.1580
G1 X113.7229 Y130.1580 Z-1.0051 F150.0
G1 X113.7229 Y144.3580 F750.0
G1 X99.5229 Y144.3580 F750.0
G1 X99.5229 Y130.1580 F750.0
G1 X113.7229 Y130.1580 F750.0
G0 Z5.0000
G0 X111.5229 Y132.3580
G1 X111.5229 Y132.3580 Z-2.0853 F150.0
G1 X111.5229 Y142.1580 F750.0
G1 X101.7229 Y142.1580 F750.0
G1 X101.7229 Y132.3580 F750.0
G1 X111.5229 Y132.3580 F750.0
G0 Z5.0000
G0 X109.3229 Y134.5580
G1 X109.3229 Y134.5580 Z-3.5000 F150.0
G1 X109.3229 Y139.9580 F750.0
G1 X103.9229 Y139.9580 F750.0
G1 X103.9229 Y134.5580 F750.0
G1 X109.3229 Y134.5580 F750.0
G0 Z5.0000
G0 X107.4229 Y137.2580
G1 X107.4229 Y137.2580 Z-3.5000 F150.0
G3 X107.4229 Y137.2580 I-0.8000 J0.0000 F750.0
( Mulde ix=4 iy=4 center 137.258 137.258 )
G0 Z5.0000
G0 X148.7580 Y146.9580
G1 X148.7580 Y146.9580 Z-0.0000 F150.0
G1 X148.6967 Y147.4239 F750.0
G1 X148.5169 Y147.8580 F750.0
G1 X148.2308 Y148.2308 F750.0
G1 X147.8580 Y148.5169 F750.0
G1 X147.4239 Y148.6967 F750.0
G1 X146.9580 Y148.7580 F750.0
G1 X127.5580 Y148.7580 F750.0
G1 X127.0921 Y148.6967 F750.0
G1 X126.6580 Y148.5169 F750.0
G1 X126.2852 Y148.2308 F750.0
G1 X125.9992 Y147.8580 F750.0
G1 X125.8193 Y147.4239 F750.0
G1 X125.7580 Y146.9580 F750.0
G1 X125.7580 Y127.5580 F750.0
G1 X125.8193 Y127.0921 F750.0
G1 X125.9992 Y126.6580 F750.0
G1 X126.2852 Y126.2852 F750.0
G1 X126.6580 Y125.9992 F750.0
G1 X127.0921 Y125.8193 F750.0
G1 X127.5580 Y125.7580 F750.0
G1 X146.9580 Y125.7580 F750.0
G1 X147.4239 Y125.8193 F750.0
G1 X147.8580 Y125.9992 F750.0
G1 X148.2308 Y126.2852 F750.0
G1 X148.5169 Y126.6580 F750.0
G1 X148.6967 Y127.0921 F750.0
G1 X148.7580 Y127.5580 F750.0
G1 X148.7580 Y146.9580 F750.0
G0 Z5.0000
G0 X146.5580 Y127.9580
G1 X146.5580 Y127.9580 Z-0.2886 F150.0
G1 X146.5580 Y146.5580 F750.0
G1 X127.9580 Y146.5580 F750.0
G1 X127.9580 Y127.9580 F750.0
G1 X146.5580 Y127.9580 F750.0
G0 Z5.0000
G0 X144.3580 Y130.1580
G1 X144.3580 Y130.1580 Z-1.0051 F150.0
G1 X144.3580 Y144.3580 F750.0
G1 X130.1580 Y144.3580 F750.0
G1 X130.1580 Y130.1580 F750.0
G1 X144.3580 Y130.1580 F750.0
G0 Z5.0000
G0 X142.1580 Y132.3580
G1 X142.1580 Y132.3580 Z-2.0853 F150.0
G1 X142.1580 Y142.1580 F750.0
G1 X132.3580 Y142.1580 F750.0
G1 X132.3580 Y132.3580 F750.0
G1 X142.1580 Y132.3580 F750.0
G0 Z5.0000
G0 X139.9580 Y134.5580
G1 X139.9580 Y134.5580 Z-3.5000 F150.0
G1 X139.9580 Y139.9580 F750.0
G1 X134.5580 Y139.9580 F750.0
G1 X134.5580 Y134.5580 F750.0
G1 X139.9580 Y134.5580 F750.0
G0 Z5.0000
G0 X138.0580 Y137.2580
G1 X138.0580 Y137.2580 Z-3.5000 F150.0
G3 X138.0580 Y137.2580 I-0.8000 J0.0000 F750.0
( Mulde ix=5 iy=4 center 167.893 137.258 )
G0 Z5.0000
G0 X179.3931 Y146.9580
G1 X179.3931 Y146.9580 Z-0.0000 F150.0
G1 X179.3318 Y147.4239 F750.0
G1 X179.1520 Y147.8580 F750.0
G1 X178.8659 Y148.2308 F750.0
G1 X178.4931 Y148.5169 F750.0
G1 X178.0590 Y148.6967 F750.0
G1 X177.5931 Y148.7580 F750.0
G1 X158.1931 Y148.7580 F750.0
G1 X157.7273 Y148.6967 F750.0
G1 X157.2931 Y148.5169 F750.0
G1 X156.9203 Y148.2308 F750.0
G1 X156.6343 Y147.8580 F750.0
G1 X156.4545 Y147.4239 F750.0
G1 X156.3931 Y146.9580 F750.0
G1 X156.3931 Y127.5580 F750.0
G1 X156.4545 Y127.0921 F750.0
G1 X156.6343 Y126.6580 F750.0
G1 X156.9203 Y126.2852 F750.0
G1 X157.2931 Y125.9992 F750.0
G1 X157.7273 Y125.8193 F750.0
G1 X158.1931 Y125.7580 F750.0
G1 X177.5931 Y125.7580 F750.0
G1 X178.0590 Y125.8193 F750.0
G1 X178.4931 Y125.9992 F750.0
G1 X178.8659 Y126.2852 F750.0
G1 X179.1520 Y126.6580 F750.0
G1 X179.3318 Y127.0921 F750.0
G1 X179.3931 Y127.5580 F750.0
G1 X179.3931 Y146.9580 F750.0
G0 Z5.0000
G0 X177.1931 Y127.9580
G1 X177.1931 Y127.9580 Z-0.2886 F150.0
G1 X177.1931 Y146.5580 F750.0
G1 X158.5931 Y146.5580 F750.0
G1 X158.5931 Y127.9580 F750.0
G1 X177.1931 Y127.9580 F750.0
G0 Z5.0000
G0 X174.9931 Y130.1580
G1 X174.9931 Y130.1580 Z-1.0051 F150.0
G1 X174.9931 Y144.3580 F750.0
G1 X160.7931 Y144.3580 F750.0
G1 X160.7931 Y130.1580 F750.0
G1 X174.9931 Y130.1580 F750.0
G0 Z5.0000
G0 X172.7931 Y132.3580
G1 X172.7931 Y132.3580 Z-2.0853 F150.0
G1 X172.7931 Y142.1580 F750.0
G1 X162.9931 Y142.1580 F750.0
G1 X162.9931 Y132.3580 F750.0
G1 X172.7931 Y132.3580 F750.0
G0 Z5.0000
G0 X170.5931 Y134.5580
G1 X170.5931 Y134.5580 Z-3.5000 F150.0
G1 X170.5931 Y139.9580 F750.0
G1 X165.1931 Y139.9580 F750.0
G1 X165.1931 Y134.5580 F750.0
G1 X170.5931 Y134.5580 F750.0
G0 Z5.0000
G0 X168.6931 Y137.2580
G1 X168.6931 Y137.2580 Z-3.5000 F150.0
G3 X168.6931 Y137.2580 I-0.8000 J0.0000 F750.0
( Mulde ix=5 iy=5 center 167.893 167.893 )
G0 Z5.0000
G0 X179.3931 Y177.5931
G1 X179.3931 Y177.5931 Z-0.0000 F150.0
G1 X179.3318 Y178.0590 F750.0
G1 X179.1520 Y178.4931 F750.0
G1 X178.8659 Y178.8659 F750.0
G1 X178.4931 Y179.1520 F750.0
G1 X178.0590 Y179.3318 F750.0
G1 X177.5931 Y179.3931 F750.0
G1 X158.1931 Y179.3931 F750.0
G1 X157.7273 Y179.3318 F750.0
G1 X157.2931 Y179.1520 F750.0
G1 X156.9203 Y178.8659 F750.0
G1 X156.6343 Y178.4931 F750.0
G1 X156.4545 Y178.0590 F750.0
G1 X156.3931 Y177.5931 F750.0
G1 X156.3931 Y158.1931 F750.0
G1 X156.4545 Y157.7273 F750.0
G1 X156.6343 Y157.2931 F750.0
G1 X156.9203 Y156.9203 F750.0
G1 X157.2931 Y156.6343 F750.0
G1 X157.7273 Y156.4545 F750.0
G1 X158.1931 Y156.3931 F750.0
G1 X177.5931 Y156.3931 F750.0
G1 X178.0590 Y156.4545 F750.0
G1 X178.4931 Y156.6343 F750.0
G1 X178.8659 Y156.9203 F750.0
G1 X179.1520 Y157.2931 F750.0
G1 X179.3318 Y157.7273 F750.0
G1 X179.3931 Y158.1931 F750.0
G1 X179.3931 Y177.5931 F750.0
G0 Z5.0000
G0 X177.1931 Y158.5931
G1 X177.1931 Y158.5931 Z-0.2886 F150.0
G1 X177.1931 Y177.1931 F750.0
G1 X158.5931 Y177.1931 F750.0
G1 X158.5931 Y158.5931 F750.0
G1 X177.1931 Y158.5931 F750.0
G0 Z5.0000
G0 X174.9931 Y160.7931
G1 X174.9931 Y160.7931 Z-1.0051 F150.0
G1 X174.9931 Y174.9931 F750.0
G1 X160.7931 Y174.9931 F750.0
G1 X160.7931 Y160.7931 F750.0
G1 X174.9931 Y160.7931 F750.0
G0 Z5.0000
G0 X172.7931 Y162.9931
G1 X172.7931 Y162.9931 Z-2.0853 F150.0
G1 X172.7931 Y172.7931 F750.0
G1 X162.9931 Y172.7931 F750.0
G1 X162.9931 Y162.9931 F750.0
G1 X172.7931 Y162.9931 F750.0
G0 Z5.0000
G0 X170.5931 Y165.1931
G1 X170.5931 Y165.1931 Z-3.5000 F150.0
G1 X170.5931 Y170.5931 F750.0
G1 X165.1931 Y170.5931 F750.0
G1 X165.1931 Y165.1931 F750.0
G1 X170.5931 Y165.1931 F750.0
G0 Z5.0000
G0 X168.6931 Y167.8931
G1 X168.6931 Y167.8931 Z-3.5000 F150.0
G3 X168.6931 Y167.8931 I-0.8000 J0.0000 F750.0
( Mulde ix=4 iy=5 center 137.258 167.893 )
G0 Z5.0000
G0 X148.7580 Y177.5931
G1 X148.7580 Y177.5931 Z-0.0000 F150.0
G1 X148.6967 Y178.0590 F750.0
G1 X148.5169 Y178.4931 F750.0
G1 X148.2308 Y178.8659 F750.0
G1 X147.8580 Y179.1520 F750.0
G1 X147.4239 Y179.3318 F750.0
G1 X146.9580 Y179.3931 F750.0
G1 X127.5580 Y179.3931 F750.0
G1 X127.0921 Y179.3318 F750.0
G1 X126.6580 Y179.1520 F750.0
G1 X126.2852 Y178.8659 F750.0
G1 X125.9992 Y178.4931 F750.0
G1 X125.8193 Y178.0590 F750.0
G1 X125.7580 Y177.5931 F750.0
G1 X125.7580 Y158.1931 F750.0
G1 X125.8193 Y157.7273 F750.0
G1 X125.9992 Y157.2931 F750.0
G1 X126.2852 Y156.9203 F750.0
G1 X126.6580 Y156.6343 F750.0
G1 X127.0921 Y156.4545 F750.0
G1 X127.5580 Y156.3931 F750.0
G1 X146.9580 Y156.3931 F750.0
G1 X147.4239 Y156.4545 F750.0
G1 X147.8580 Y156.6343 F750.0
G1 X148.2308 Y156.9203 F750.0
G1 X148.5169 Y157.2931 F750.0
G1 X148.6967 Y157.7273 F750.0
G1 X148.7580 Y158.1931 F750.0
G1 X148.7580 Y177.5931 F750.0
G0 Z5.0000
G0 X146.5580 Y158.5931
G1 X146.5580 Y158.5931 Z-0.2886 F150.0
G1 X146.5580 Y177.1931 F750.0
G1 X127.9580 Y177.1931 F750.0
G1 X127.9580 Y158.5931 F750.0
G1 X146.5580 Y158.5931 F750.0
G0 Z5.0000
G0 X144.3580 Y160.7931
G1 X144.3580 Y160.7931 Z-1.0051 F150.0
G1 X144.3580 Y174.9931 F750.0
G1 X130.1580 Y174.9931 F750.0
G1 X130.1580 Y160.7931 F750.0
G1 X144.3580 Y160.7931 F750.0
G0 Z5.0000
G0 X142.1580 Y162.9931
G1 X142.1580 Y162.9931 Z-2.0853 F150.0
G1 X142.1580 Y172.7931 F750.0
G1 X132.3580 Y172.7931 F750.0
G1 X132.3580 Y162.9931 F750.0
G1 X142.1580 Y162.9931 F750.0
G0 Z5.0000
G0 X139.9580 Y165.1931
G1 X139.9580 Y165.1931 Z-3.5000 F150.0
G1 X139.9580 Y170.5931 F750.0
G1 X134.5580 Y170.5931 F750.0
G1 X134.5580 Y165.1931 F750.0
G1 X139.9580 Y165.1931 F750.0
G0 Z5.0000
G0 X138.0580 Y167.8931
G1 X138.0580 Y167.8931 Z-3.5000 F150.0
G3 X138.0580 Y167.8931 I-0.8000 J0.0000 F750.0
( Mulde ix=3 iy=5 center 106.623 167.893 )
G0 Z5.0000
G0 X118.1229 Y177.5931
G1 X118.1229 Y177.5931 Z-0.0000 F150.0
G1 X118.0616 Y178.0590 F750.0
G1 X117.8817 Y178.4931 F750.0
G1 X117.5957 Y178.8659 F750.0
G1 X117.2229 Y179.1520 F750.0
G1 X116.7888 Y179.3318 F750.0
G1 X116.3229 Y179.3931 F750.0
G1 X96.9229 Y179.3931 F750.0
G1 X96.4570 Y179.3318 F750.0
G1 X96.0229 Y179.1520 F750.0
G1 X95.6501 Y178.8659 F750.0
G1 X95.3641 Y178.4931 F750.0
G1 X95.1842 Y178.0590 F750.0
G1 X95.1229 Y177.5931 F750.0
G1 X95.1229 Y158.1931 F750.0
G1 X95.1842 Y157.7273 F750.0
G1 X95.3641 Y157.2931 F750.0
G1 X95.6501 Y156.9203 F750.0
G1 X96.0229 Y156.6343 F750.0
G1 X96.4570 Y156.4545 F750.0
G1 X96.9229 Y156.3931 F750.0
G1 X116.3229 Y156.3931 F750.0
G1 X116.7888 Y156.4545 F750.0
G1 X117.2229 Y156.6343 F750.0
G1 X117.5957 Y156.9203 F750.0
G1 X117.8817 Y157.2931 F750.0
G1 X118.0616 Y157.7273 F750.0
G1 X118.1229 Y158.1931 F750.0
G1 X118.1229 Y177.5931 F750.0
G0 Z5.0000
G0 X115.9229 Y158.5931
G1 X115.9229 Y158.5931 Z-0.2886 F150.0
G1 X115.9229 Y177.1931 F750.0
G1 X97.3229 Y177.1931 F750.0
G1 X97.3229 Y158.5931 F750.0
G1 X115.9229 Y158.5931 F750.0
G0 Z5.0000
G0 X113.7229 Y160.7931
G1 X113.7229 Y160.7931 Z-1.0051 F150.0
G1 X113.7229 Y174.9931 F750.0
G1 X99.5229 Y174.9931 F750.0
G1 X99.5229 Y160.7931 F750.0
G1 X113.7229 Y160.7931 F750.0
G0 Z5.0000
G0 X111.5229 Y162.9931
G1 X111.5229 Y162.9931 Z-2.0853 F150.0
G1 X111.5229 Y172.7931 F750.0
G1 X101.7229 Y172.7931 F750.0
G1 X101.7229 Y162.9931 F750.0
G1 X111.5229 Y162.9931 F750.0
G0 Z5.0000
G0 X109.3229 Y165.1931
G1 X109.3229 Y165.1931 Z-3.5000 F150.0
G1 X109.3229 Y170.5931 F750.0
G1 X103.9229 Y170.5931 F750.0
G1 X103.9229 Y165.1931 F750.0
G1 X109.3229 Y165.1931 F750.0
G0 Z5.0000
G0 X107.4229 Y167.8931
G1 X107.4229 Y167.8931 Z-3.5000 F150.0
G3 X107.4229 Y167.8931 I-0.8000 J0.0000 F750.0
( Mulde ix=2 iy=5 center 75.988 167.893 )
G0 Z5.0000
G0 X87.4878 Y177.5931
G1 X87.4878 Y177.5931 Z-0.0000 F150.0
G1 X87.4265 Y178.0590 F750.0
G1 X87.2466 Y178.4931 F750.0
G1 X86.9606 Y178.8659 F750.0
G1 X86.5878 Y179.1520 F750.0
G1 X86.1537 Y179.3318 F750.0
G1 X85.6878 Y179.3931 F750.0
G1 X66.2878 Y179.3931 F750.0
G1 X65.8219 Y179.3318 F750.0
G1 X65.3878 Y179.1520 F750.0
G1 X65.0150 Y178.8659 F750.0
G1 X64.7289 Y178.4931 F750.0
G1 X64.5491 Y178.0590 F750.0
G1 X64.4878 Y177.5931 F750.0
G1 X64.4878 Y158.1931 F750.0
G1 X64.5491 Y157.7273 F750.0
G1 X64.7289 Y157.2931 F750.0
G1 X65.0150 Y156.9203 F750.0
G1 X65.3878 Y156.6343 F750.0
G1 X65.8219 Y156.4545 F750.0
G1 X66.2878 Y156.3931 F750.0
G1 X85.6878 Y156.3931 F750.0
G1 X86.1537 Y156.4545 F750.0
G1 X86.5878 Y156.6343 F750.0
G1 X86.9606 Y156.9203 F750.0
G1 X87.2466 Y157.2931 F750.0
G1 X87.4265 Y157.7273 F750.0
G1 X87.4878 Y158.1931 F750.0
G1 X87.4878 Y177.5931 F750.0
G0 Z5.0000
G0 X85.2878 Y158.5931
G1 X85.2878 Y158.5931 Z-0.2886 F150.0
G1 X85.2878 Y177.1931 F750.0
G1 X66.6878 Y177.1931 F750.0
G1 X66.6878 Y158.5931 F750.0
G1 X85.2878 Y158.5931 F750.0
G0 Z5.0000
G0 X83.0878 Y160.7931
G1 X83.0878 Y160.7931 Z-1.0051 F150.0
G1 X83.0878 Y174.9931 F750.0
G1 X68.8878 Y174.9931 F750.0
G1 X68.8878 Y160.7931 F750.0
G1 X83.0878 Y160.7931 F750.0
G0 Z5.0000
G0 X80.8878 Y162.9931
G1 X80.8878 Y162.9931 Z-2.0853 F150.0
G1 X80.8878 Y172.7931 F750.0
G1 X71.0878 Y172.7931 F750.0
G1 X71.0878 Y162.9931 F750.0
G1 X80.8878 Y162.9931 F750.0
G0 Z5.0000
G0 X78.6878 Y165.1931
G1 X78.6878 Y165.1931 Z-3.5000 F150.0
G1 X78.6878 Y170.5931 F750.0
G1 X73.2878 Y170.5931 F750.0
G1 X73.2878 Y165.1931 F750.0
G1 X78.6878 Y165.1931 F750.0
G0 Z5.0000
G0 X76.7878 Y167.8931
G1 X76.7878 Y167.8931 Z-3.5000 F150.0
G3 X76.7878 Y167.8931 I-0.8000 J0.0000 F750.0
( Mulde ix=1 iy=5 center 45.353 167.893 )
G0 Z5.0000
G0 X56.8527 Y177.5931
G1 X56.8527 Y177.5931 Z-0.0000 F150.0
G1 X56.7913 Y178.0590 F750.0
G1 X56.6115 Y178.4931 F750.0
G1 X56.3255 Y178.8659 F750.0
G1 X55.9527 Y179.1520 F750.0
G1 X55.5185 Y179.3318 F750.0
G1 X55.0527 Y179.3931 F750.0
G1 X35.6527 Y179.3931 F750.0
G1 X35.1868 Y179.3318 F750.0
G1 X34.7527 Y179.1520 F750.0
G1 X34.3799 Y178.8659 F750.0
G1 X34.0938 Y178.4931 F750.0
G1 X33.9140 Y178.0590 F750.0
G1 X33.8527 Y177.5931 F750.0
G1 X33.8527 Y158.1931 F750.0
G1 X33.9140 Y157.7273 F750.0
G1 X34.0938 Y157.2931 F750.0
G1 X34.3799 Y156.9203 F750.0
G1 X34.7527 Y156.6343 F750.0
G1 X35.1868 Y156.4545 F750.0
G1 X35.6527 Y156.3931 F750.0
G1 X55.0527 Y156.3931 F750.0
G1 X55.5185 Y156.4545 F750.0
G1 X55.9527 Y156.6343 F750.0
G1 X56.3255 Y156.9203 F750.0
G1 X56.6115 Y157.2931 F750.0
G1 X56.7913 Y157.7273 F750.0
G1 X56.8527 Y158.1931 F750.0
G1 X56.8527 Y177.5931 F750.0
G0 Z5.0000
G0 X54.6527 Y158.5931
G1 X54.6527 Y158.5931 Z-0.2886 F150.0
G1 X54.6527 Y177.1931 F750.0
G1 X36.0527 Y177.1931 F750.0
G1 X36.0527 Y158.5931 F750.0
G1 X54.6527 Y158.5931 F750.0
G0 Z5.0000
G0 X52.4527 Y160.7931
G1 X52.4527 Y160.7931 Z-1.0051 F150.0
G1 X52.4527 Y174.9931 F750.0
G1 X38.2527 Y174.9931 F750.0
G1 X38.2527 Y160.7931 F750.0
G1 X52.4527 Y160.7931 F750.0
G0 Z5.0000
G0 X50.2527 Y162.9931
G1 X50.2527 Y162.9931 Z-2.0853 F150.0
G1 X50.2527 Y172.7931 F750.0
G1 X40.4527 Y172.7931 F750.0
G1 X40.4527 Y162.9931 F750.0
G1 X50.2527 Y162.9931 F750.0
G0 Z5.0000
G0 X48.0527 Y165.1931
G1 X48.0527 Y165.1931 Z-3.5000 F150.0
G1 X48.0527 Y170.5931 F750.0
G1 X42.6527 Y170.5931 F750.0
G1 X42.6527 Y165.1931 F750.0
G1 X48.0527 Y165.1931 F750.0
G0 Z5.0000
G0 X46.1527 Y167.8931
G1 X46.1527 Y167.8931 Z-3.5000 F150.0
G3 X46.1527 Y167.8931 I-0.8000 J0.0000 F750.0
( Mulde ix=0 iy=5 center 14.718 167.893 )
G0 Z5.0000
G0 X26.2176 Y177.5931
G1 X26.2176 Y177.5931 Z-0.0000 F150.0
G1 X26.1562 Y178.0590 F750.0
G1 X25.9764 Y178.4931 F750.0
G1 X25.6903 Y178.8659 F750.0
G1 X25.3176 Y179.1520 F750.0
G1 X24.8834 Y179.3318 F750.0
G1 X24.4176 Y179.3931 F750.0
G1 X5.0176 Y179.3931 F750.0
G1 X4.5517 Y179.3318 F750.0
G1 X4.1176 Y179.1520 F750.0
G1 X3.7448 Y178.8659 F750.0
G1 X3.4587 Y178.4931 F750.0
G1 X3.2789 Y178.0590 F750.0
G1 X3.2176 Y177.5931 F750.0
G1 X3.2176 Y158.1931 F750.0
G1 X3.2789 Y157.7273 F750.0
G1 X3.4587 Y157.2931 F750.0
G1 X3.7448 Y156.9203 F750.0
G1 X4.1176 Y156.6343 F750.0
G1 X4.5517 Y156.4545 F750.0
G1 X5.0176 Y156.3931 F750.0
G1 X24.4176 Y156.3931 F750.0
G1 X24.8834 Y156.4545 F750.0
G1 X25.3176 Y156.6343 F750.0
G1 X25.6903 Y156.9203 F750.0
G1 X25.9764 Y157.2931 F750.0
G1 X26.1562 Y157.7273 F750.0
G1 X26.2176 Y158.1931 F750.0
G1 X26.2176 Y177.5931 F750.0
G0 Z5.0000
G0 X24.0176 Y158.5931
G1 X24.0176 Y158.5931 Z-0.2886 F150.0
G1 X24.0176 Y177.1931 F750.0
G1 X5.4176 Y177.1931 F750.0
G1 X5.4176 Y158.5931 F750.0
G1 X24.0176 Y158.5931 F750.0
G0 Z5.0000
G0 X21.8176 Y160.7931
G1 X21.8176 Y160.7931 Z-1.0051 F150.0
G1 X21.8176 Y174.9931 F750.0
G1 X7.6176 Y174.9931 F750.0
G1 X7.6176 Y160.7931 F750.0
G1 X21.8176 Y160.7931 F750.0
G0 Z5.0000
G0 X19.6176 Y162.9931
G1 X19.6176 Y162.9931 Z-2.0853 F150.0
G1 X19.6176 Y172.7931 F750.0
G1 X9.8176 Y172.7931 F750.0
G1 X9.8176 Y162.9931 F750.0
G1 X19.6176 Y162.9931 F750.0
G0 Z5.0000
G0 X17.4176 Y165.1931
G1 X17.4176 Y165.1931 Z-3.5000 F150.0
G1 X17.4176 Y170.5931 F750.0
G1 X12.0176 Y170.5931 F750.0
G1 X12.0176 Y165.1931 F750.0
G1 X17.4176 Y165.1931 F750.0
G0 Z5.0000
G0 X15.5176 Y167.8931
G1 X15.5176 Y167.8931 Z-3.5000 F150.0
G3 X15.5176 Y167.8931 I-0.8000 J0.0000 F750.0
G0 Z5.0000
G0 X0 Y0
M5
M2
