( hardware-v2 Mulden 6x6 – LinuxCNC Vorlage )
( Z-Null: Oberflaeche Brett oben; XY-Null: unten-links 200x200 )
( Werkzeug 6 mm angenommen – T/M und tool.tbl anpassen )
G21 G17 G90
G54
M3 S9000
G0 Z5.0000
G0 X0 Y0
( Mulde ix=0 iy=0 center 32.107 14.718 )
G0 Z5.0000
G0 X43.6069 Y14.7176
G1 X43.6069 Y14.7176 Z-1.5000 F150.0
G3 X43.6069 Y14.7176 I-11.5000 J0.0000 F750.0
G0 Z5.0000
G0 X41.4069 Y14.7176
G1 X41.4069 Y14.7176 Z-1.5000 F150.0
G3 X41.4069 Y14.7176 I-9.3000 J0.0000 F750.0
G0 Z5.0000
G0 X39.2069 Y14.7176
G1 X39.2069 Y14.7176 Z-1.5000 F150.0
G3 X39.2069 Y14.7176 I-7.1000 J0.0000 F750.0
G0 Z5.0000
G0 X37.0069 Y14.7176
G1 X37.0069 Y14.7176 Z-1.5000 F150.0
G3 X37.0069 Y14.7176 I-4.9000 J0.0000 F750.0
G0 Z5.0000
G0 X34.8069 Y14.7176
G1 X34.8069 Y14.7176 Z-1.5000 F150.0
G3 X34.8069 Y14.7176 I-2.7000 J0.0000 F750.0
G0 Z5.0000
G0 X43.6069 Y14.7176
G1 X43.6069 Y14.7176 Z-3.0000 F150.0
G3 X43.6069 Y14.7176 I-11.5000 J0.0000 F750.0
G0 Z5.0000
G0 X41.4069 Y14.7176
G1 X41.4069 Y14.7176 Z-3.0000 F150.0
G3 X41.4069 Y14.7176 I-9.3000 J0.0000 F750.0
G0 Z5.0000
G0 X39.2069 Y14.7176
G1 X39.2069 Y14.7176 Z-3.0000 F150.0
G3 X39.2069 Y14.7176 I-7.1000 J0.0000 F750.0
G0 Z5.0000
G0 X37.0069 Y14.7176
G1 X37.0069 Y14.7176 Z-3.0000 F150.0
G3 X37.0069 Y14.7176 I-4.9000 J0.0000 F750.0
G0 Z5.0000
G0 X34.8069 Y14.7176
G1 X34.8069 Y14.7176 Z-3.0000 F150.0
G3 X34.8069 Y14.7176 I-2.7000 J0.0000 F750.0
G0 Z5.0000
G0 X43.6069 Y14.7176
G1 X43.6069 Y14.7176 Z-3.5000 F150.0
G3 X43.6069 Y14.7176 I-11.5000 J0.0000 F750.0
G0 Z5.0000
G0 X41.4069 Y14.7176
G1 X41.4069 Y14.7176 Z-3.5000 F150.0
G3 X41.4069 Y14.7176 I-9.3000 J0.0000 F750.0
G0 Z5.0000
G0 X39.2069 Y14.7176
G1 X39.2069 Y14.7176 Z-3.5000 F150.0
G3 X39.2069 Y14.7176 I-7.1000 J0.0000 F750.0
G0 Z5.0000
G0 X37.0069 Y14.7176
G1 X37.0069 Y14.7176 Z-3.5000 F150.0
G3 X37.0069 Y14.7176 I-4.9000 J0.0000 F750.0
G0 Z5.0000
G0 X34.8069 Y14.7176
G1 X34.8069 Y14.7176 Z-3.5000 F150.0
G3 X34.8069 Y14.7176 I-2.7000 J0.0000 F750.0
( Mulde ix=1 iy=0 center 62.742 14.718 )
G0 Z5.0000
G0 X74.2420 Y14.7176
G1 X74.2420 Y14.7176 Z-1.5000 F150.0
G3 X74.2420 Y14.7176 I-11.5000 J0.0000 F750.0
G0 Z5.0000
G0 X72.0420 Y14.7176
G1 X72.0420 Y14.7176 Z-1.5000 F150.0
G3 X72.0420 Y14.7176 I-9.3000 J0.0000 F750.0
G0 Z5.0000
G0 X69.8420 Y14.7176
G1 X69.8420 Y14.7176 Z-1.5000 F150.0
G3 X69.8420 Y14.7176 I-7.1000 J0.0000 F750.0
G0 Z5.0000
G0 X67.6420 Y14.7176
G1 X67.6420 Y14.7176 Z-1.5000 F150.0
G3 X67.6420 Y14.7176 I-4.9000 J0.0000 F750.0
G0 Z5.0000
G0 X65.4420 Y14.7176
G1 X65.4420 Y14.7176 Z-1.5000 F150.0
G3 X65.4420 Y14.7176 I-2.7000 J0.0000 F750.0
G0 Z5.0000
G0 X74.2420 Y14.7176
G1 X74.2420 Y14.7176 Z-3.0000 F150.0
G3 X74.2420 Y14.7176 I-11.5000 J0.0000 F750.0
G0 Z5.0000
G0 X72.0420 Y14.7176
G1 X72.0420 Y14.7176 Z-3.0000 F150.0
G3 X72.0420 Y14.7176 I-9.3000 J0.0000 F750.0
G0 Z5.0000
G0 X69.8420 Y14.7176
G1 X69.8420 Y14.7176 Z-3.0000 F150.0
G3 X69.8420 Y14.7176 I-7.1000 J0.0000 F750.0
G0 Z5.0000
G0 X67.6420 Y14.7176
G1 X67.6420 Y14.7176 Z-3.0000 F150.0
G3 X67.6420 Y14.7176 I-4.9000 J0.0000 F750.0
G0 Z5.0000
G0 X65.4420 Y14.7176
G1 X65.4420 Y14.7176 Z-3.0000 F150.0
G3 X65.4420 Y14.7176 I-2.7000 J0.0000 F750.0
G0 Z5.0000
G0 X74.2420 Y14.7176
G1 X74.2420 Y14.7176 Z-3.5000 F150.0
G3 X74.2420 Y14.7176 I-11.5000 J0.0000 F750.0
G0 Z5.0000
G0 X72.0420 Y14.7176
G1 X72.0420 Y14.7176 Z-3.5000 F150.0
G3 X72.0420 Y14.7176 I-9.3000 J0.0000 F750.0
G0 Z5.0000
G0 X69.8420 Y14.7176
G1 X69.8420 Y14.7176 Z-3.5000 F150.0
G3 X69.8420 Y14.7176 I-7.1000 J0.0000 F750.0
G0 Z5.0000
G0 X67.6420 Y14.7176
G1 X67.6420 Y14.7176 Z-3.5000 F150.0
G3 X67.6420 Y14.7176 I-4.9000 J0.0000 F750.0
G0 Z5.0000
G0 X65.4420 Y14.7176
G1 X65.4420 Y14.7176 Z-3.5000 F150.0
G3 X65.4420 Y14.7176 I-2.7000 J0.0000 F750.0
( Mulde ix=2 iy=0 center 93.377 14.718 )
G0 Z5.0000
G0 X104.8771 Y14.7176
G1 X104.8771 Y14.7176 Z-1.5000 F150.0
G3 X104.8771 Y14.7176 I-11.5000 J0.0000 F750.0
G0 Z5.0000
G0 X102.6771 Y14.7176
G1 X102.6771 Y14.7176 Z-1.5000 F150.0
G3 X102.6771 Y14.7176 I-9.3000 J0.0000 F750.0
G0 Z5.0000
G0 X100.4771 Y14.7176
G1 X100.4771 Y14.7176 Z-1.5000 F150.0
G3 X100.4771 Y14.7176 I-7.1000 J0.0000 F750.0
G0 Z5.0000
G0 X98.2771 Y14.7176
G1 X98.2771 Y14.7176 Z-1.5000 F150.0
G3 X98.2771 Y14.7176 I-4.9000 J0.0000 F750.0
G0 Z5.0000
G0 X96.0771 Y14.7176
G1 X96.0771 Y14.7176 Z-1.5000 F150.0
G3 X96.0771 Y14.7176 I-2.7000 J0.0000 F750.0
G0 Z5.0000
G0 X104.8771 Y14.7176
G1 X104.8771 Y14.7176 Z-3.0000 F150.0
G3 X104.8771 Y14.7176 I-11.5000 J0.0000 F750.0
G0 Z5.0000
G0 X102.6771 Y14.7176
G1 X102.6771 Y14.7176 Z-3.0000 F150.0
G3 X102.6771 Y14.7176 I-9.3000 J0.0000 F750.0
G0 Z5.0000
G0 X100.4771 Y14.7176
G1 X100.4771 Y14.7176 Z-3.0000 F150.0
G3 X100.4771 Y14.7176 I-7.1000 J0.0000 F750.0
G0 Z5.0000
G0 X98.2771 Y14.7176
G1 X98.2771 Y14.7176 Z-3.0000 F150.0
G3 X98.2771 Y14.7176 I-4.9000 J0.0000 F750.0
G0 Z5.0000
G0 X96.0771 Y14.7176
G1 X96.0771 Y14.7176 Z-3.0000 F150.0
G3 X96.0771 Y14.7176 I-2.7000 J0.0000 F750.0
G0 Z5.0000
G0 X104.8771 Y14.7176
G1 X104.8771 Y14.7176 Z-3.5000 F150.0
G3 X104.8771 Y14.7176 I-11.5000 J0.0000 F750.0
G0 Z5.0000
G0 X102.6771 Y14.7176
G1 X102.6771 Y14.7176 Z-3.5000 F150.0
G3 X102.6771 Y14.7176 I-9.3000 J0.0000 F750.0
G0 Z5.0000
G0 X100.4771 Y14.7176
G1 X100.4771 Y14.7176 Z-3.5000 F150.0
G3 X100.4771 Y14.7176 I-7.1000 J0.0000 F750.0
G0 Z5.0000
G0 X98.2771 Y14.7176
G1 X98.2771 Y14.7176 Z-3.5000 F150.0
G3 X98.2771 Y14.7176 I-4.9000 J0.0000 F750.0
G0 Z5.0000
G0 X96.0771 Y14.7176
G1 X96.0771 Y14.7176 Z-3.5000 F150.0
G3 X96.0771 Y14.7176 I-2.7000 J0.0000 F750.0
( Mulde ix=3 iy=0 center 124.012 14.718 )
G0 Z5.0000
G0 X135.5122 Y14.7176
G1 X135.5122 Y14.7176 Z-1.5000 F150.0
G3 X135.5122 Y14.7176 I-11.5000 J0.0000 F750.0
G0 Z5.0000
G0 X133.3122 Y14.7176
G1 X133.3122 Y14.7176 Z-1.5000 F150.0
G3 X133.3122 Y14.7176 I-9.3000 J0.0000 F750.0
G0 Z5.0000
G0 X131.1122 Y14.7176
G1 X131.1122 Y14.7176 Z-1.5000 F150.0
G3 X131.1122 Y14.7176 I-7.1000 J0.0000 F750.0
G0 Z5.0000
G0 X128.9122 Y14.7176
G1 X128.9122 Y14.7176 Z-1.5000 F150.0
G3 X128.9122 Y14.7176 I-4.9000 J0.0000 F750.0
G0 Z5.0000
G0 X126.7122 Y14.7176
G1 X126.7122 Y14.7176 Z-1.5000 F150.0
G3 X126.7122 Y14.7176 I-2.7000 J0.0000 F750.0
G0 Z5.0000
G0 X135.5122 Y14.7176
G1 X135.5122 Y14.7176 Z-3.0000 F150.0
G3 X135.5122 Y14.7176 I-11.5000 J0.0000 F750.0
G0 Z5.0000
G0 X133.3122 Y14.7176
G1 X133.3122 Y14.7176 Z-3.0000 F150.0
G3 X133.3122 Y14.7176 I-9.3000 J0.0000 F750.0
G0 Z5.0000
G0 X131.1122 Y14.7176
G1 X131.1122 Y14.7176 Z-3.0000 F150.0
G3 X131.1122 Y14.7176 I-7.1000 J0.0000 F750.0
G0 Z5.0000
G0 X128.9122 Y14.7176
G1 X128.9122 Y14.7176 Z-3.0000 F150.0
G3 X128.9122 Y14.7176 I-4.9000 J0.0000 F750.0
G0 Z5.0000
G0 X126.7122 Y14.7176
G1 X126.7122 Y14.7176 Z-3.0000 F150.0
G3 X126.7122 Y14.7176 I-2.7000 J0.0000 F750.0
G0 Z5.0000
G0 X135.5122 Y14.7176
G1 X135.5122 Y14.7176 Z-3.5000 F150.0
G3 X135.5122 Y14.7176 I-11.5000 J0.0000 F750.0
G0 Z5.0000
G0 X133.3122 Y14.7176
G1 X133.3122 Y14.7176 Z-3.5000 F150.0
G3 X133.3122 Y14.7176 I-9.3000 J0.0000 F750.0
G0 Z5.0000
G0 X131.1122 Y14.7176
G1 X131.1122 Y14.7176 Z-3.5000 F150.0
G3 X131.1122 Y14.7176 I-7.1000 J0.0000 F750.0
G0 Z5.0000
G0 X128.9122 Y14.7176
G1 X128.9122 Y14.7176 Z-3.5000 F150.0
G3 X128.9122 Y14.7176 I-4.9000 J0.0000 F750.0
G0 Z5.0000
G0 X126.7122 Y14.7176
G1 X126.7122 Y14.7176 Z-3.5000 F150.0
G3 X126.7122 Y14.7176 I-2.7000 J0.0000 F750.0
( Mulde ix=4 iy=0 center 154.647 14.718 )
G0 Z5.0000
G0 X166.1473 Y14.7176
G1 X166.1473 Y14.7176 Z-1.5000 F150.0
G3 X166.1473 Y14.7176 I-11.5000 J0.0000 F750.0
G0 Z5.0000
G0 X163.9473 Y14.7176
G1 X163.9473 Y14.7176 Z-1.5000 F150.0
G3 X163.9473 Y14.7176 I-9.3000 J0.0000 F750.0
G0 Z5.0000
G0 X161.7473 Y14.7176
G1 X161.7473 Y14.7176 Z-1.5000 F150.0
G3 X161.7473 Y14.7176 I-7.1000 J0.0000 F750.0
G0 Z5.0000
G0 X159.5473 Y14.7176
G1 X159.5473 Y14.7176 Z-1.5000 F150.0
G3 X159.5473 Y14.7176 I-4.9000 J0.0000 F750.0
G0 Z5.0000
G0 X157.3473 Y14.7176
G1 X157.3473 Y14.7176 Z-1.5000 F150.0
G3 X157.3473 Y14.7176 I-2.7000 J0.0000 F750.0
G0 Z5.0000
G0 X166.1473 Y14.7176
G1 X166.1473 Y14.7176 Z-3.0000 F150.0
G3 X166.1473 Y14.7176 I-11.5000 J0.0000 F750.0
G0 Z5.0000
G0 X163.9473 Y14.7176
G1 X163.9473 Y14.7176 Z-3.0000 F150.0
G3 X163.9473 Y14.7176 I-9.3000 J0.0000 F750.0
G0 Z5.0000
G0 X161.7473 Y14.7176
G1 X161.7473 Y14.7176 Z-3.0000 F150.0
G3 X161.7473 Y14.7176 I-7.1000 J0.0000 F750.0
G0 Z5.0000
G0 X159.5473 Y14.7176
G1 X159.5473 Y14.7176 Z-3.0000 F150.0
G3 X159.5473 Y14.7176 I-4.9000 J0.0000 F750.0
G0 Z5.0000
G0 X157.3473 Y14.7176
G1 X157.3473 Y14.7176 Z-3.0000 F150.0
G3 X157.3473 Y14.7176 I-2.7000 J0.0000 F750.0
G0 Z5.0000
G0 X166.1473 Y14.7176
G1 X166.1473 Y14.7176 Z-3.5000 F150.0
G3 X166.1473 Y14.7176 I-11.5000 J0.0000 F750.0
G0 Z5.0000
G0 X163.9473 Y14.7176
G1 X163.9473 Y14.7176 Z-3.5000 F150.0
G3 X163.9473 Y14.7176 I-9.3000 J0.0000 F750.0
G0 Z5.0000
G0 X161.7473 Y14.7176
G1 X161.7473 Y14.7176 Z-3.5000 F150.0
G3 X161.7473 Y14.7176 I-7.1000 J0.0000 F750.0
G0 Z5.0000
G0 X159.5473 Y14.7176
G1 X159.5473 Y14.7176 Z-3.5000 F150.0
G3 X159.5473 Y14.7176 I-4.9000 J0.0000 F750.0
G0 Z5.0000
G0 X157.3473 Y14.7176
G1 X157.3473 Y14.7176 Z-3.5000 F150.0
G3 X157.3473 Y14.7176 I-2.7000 J0.0000 F750.0
( Mulde ix=5 iy=0 center 185.282 14.718 )
G0 Z5.0000
G0 X196.7824 Y14.7176
G1 X196.7824 Y14.7176 Z-1.5000 F150.0
G3 X196.7824 Y14.7176 I-11.5000 J0.0000 F750.0
G0 Z5.0000
G0 X194.5824 Y14.7176
G1 X194.5824 Y14.7176 Z-1.5000 F150.0
G3 X194.5824 Y14.7176 I-9.3000 J0.0000 F750.0
G0 Z5.0000
G0 X192.3824 Y14.7176
G1 X192.3824 Y14.7176 Z-1.5000 F150.0
G3 X192.3824 Y14.7176 I-7.1000 J0.0000 F750.0
G0 Z5.0000
G0 X190.1824 Y14.7176
G1 X190.1824 Y14.7176 Z-1.5000 F150.0
G3 X190.1824 Y14.7176 I-4.9000 J0.0000 F750.0
G0 Z5.0000
G0 X187.9824 Y14.7176
G1 X187.9824 Y14.7176 Z-1.5000 F150.0
G3 X187.9824 Y14.7176 I-2.7000 J0.0000 F750.0
G0 Z5.0000
G0 X196.7824 Y14.7176
G1 X196.7824 Y14.7176 Z-3.0000 F150.0
G3 X196.7824 Y14.7176 I-11.5000 J0.0000 F750.0
G0 Z5.0000
G0 X194.5824 Y14.7176
G1 X194.5824 Y14.7176 Z-3.0000 F150.0
G3 X194.5824 Y14.7176 I-9.3000 J0.0000 F750.0
G0 Z5.0000
G0 X192.3824 Y14.7176
G1 X192.3824 Y14.7176 Z-3.0000 F150.0
G3 X192.3824 Y14.7176 I-7.1000 J0.0000 F750.0
G0 Z5.0000
G0 X190.1824 Y14.7176
G1 X190.1824 Y14.7176 Z-3.0000 F150.0
G3 X190.1824 Y14.7176 I-4.9000 J0.0000 F750.0
G0 Z5.0000
G0 X187.9824 Y14.7176
G1 X187.9824 Y14.7176 Z-3.0000 F150.0
G3 X187.9824 Y14.7176 I-2.7000 J0.0000 F750.0
G0 Z5.0000
G0 X196.7824 Y14.7176
G1 X196.7824 Y14.7176 Z-3.5000 F150.0
G3 X196.7824 Y14.7176 I-11.5000 J0.0000 F750.0
G0 Z5.0000
G0 X194.5824 Y14.7176
G1 X194.5824 Y14.7176 Z-3.5000 F150.0
G3 X194.5824 Y14.7176 I-9.3000 J0.0000 F750.0
G0 Z5.0000
G0 X192.3824 Y14.7176
G1 X192.3824 Y14.7176 Z-3.5000 F150.0
G3 X192.3824 Y14.7176 I-7.1000 J0.0000 F750.0
G0 Z5.0000
G0 X190.1824 Y14.7176
G1 X190.1824 Y14.7176 Z-3.5000 F150.0
G3 X190.1824 Y14.7176 I-4.9000 J0.0000 F750.0
G0 Z5.0000
G0 X187.9824 Y14.7176
G1 X187.9824 Y14.7176 Z-3.5000 F150.0
G3 X187.9824 Y14.7176 I-2.7000 J0.0000 F750.0
( Mulde ix=5 iy=1 center 185.282 45.353 )
G0 Z5.0000
G0 X196.7824 Y45.3527
G1 X196.7824 Y45.3527 Z-1.5000 F150.0
G3 X196.7824 Y45.3527 I-11.5000 J0.0000 F750.0
G0 Z5.0000
G0 X194.5824 Y45.3527
G1 X194.5824 Y45.3527 Z-1.5000 F150.0
G3 X194.5824 Y45.3527 I-9.3000 J0.0000 F750.0
G0 Z5.0000
G0 X192.3824 Y45.3527
G1 X192.3824 Y45.3527 Z-1.5000 F150.0
G3 X192.3824 Y45.3527 I-7.1000 J0.0000 F750.0
G0 Z5.0000
G0 X190.1824 Y45.3527
G1 X190.1824 Y45.3527 Z-1.5000 F150.0
G3 X190.1824 Y45.3527 I-4.9000 J0.0000 F750.0
G0 Z5.0000
G0 X187.9824 Y45.3527
G1 X187.9824 Y45.3527 Z-1.5000 F150.0
G3 X187.9824 Y45.3527 I-2.7000 J0.0000 F750.0
G0 Z5.0000
G0 X196.7824 Y45.3527
G1 X196.7824 Y45.3527 Z-3.0000 F150.0
G3 X196.7824 Y45.3527 I-11.5000 J0.0000 F750.0
G0 Z5.0000
G0 X194.5824 Y45.3527
G1 X194.5824 Y45.3527 Z-3.0000 F150.0
G3 X194.5824 Y45.3527 I-9.3000 J0.0000 F750.0
G0 Z5.0000
G0 X192.3824 Y45.3527
G1 X192.3824 Y45.3527 Z-3.0000 F150.0
G3 X192.3824 Y45.3527 I-7.1000 J0.0000 F750.0
G0 Z5.0000
G0 X190.1824 Y45.3527
G1 X190.1824 Y45.3527 Z-3.0000 F150.0
G3 X190.1824 Y45.3527 I-4.9000 J0.0000 F750.0
G0 Z5.0000
G0 X187.9824 Y45.3527
G1 X187.9824 Y45.3527 Z-3.0000 F150.0
G3 X187.9824 Y45.3527 I-2.7000 J0.0000 F750.0
G0 Z5.0000
G0 X196.7824 Y45.3527
G1 X196.7824 Y45.3527 Z-3.5000 F150.0
G3 X196.7824 Y45.3527 I-11.5000 J0.0000 F750.0
G0 Z5.0000
G0 X194.5824 Y45.3527
G1 X194.5824 Y45.3527 Z-3.5000 F150.0
G3 X194.5824 Y45.3527 I-9.3000 J0.0000 F750.0
G0 Z5.0000
G0 X192.3824 Y45.3527
G1 X192.3824 Y45.3527 Z-3.5000 F150.0
G3 X192.3824 Y45.3527 I-7.1000 J0.0000 F750.0
G0 Z5.0000
G0 X190.1824 Y45.3527
G1 X190.1824 Y45.3527 Z-3.5000 F150.0
G3 X190.1824 Y45.3527 I-4.9000 J0.0000 F750.0
G0 Z5.0000
G0 X187.9824 Y45.3527
G1 X187.9824 Y45.3527 Z-3.5000 F150.0
G3 X187.9824 Y45.3527 I-2.7000 J0.0000 F750.0
( Mulde ix=4 iy=1 center 154.647 45.353 )
G0 Z5.0000
G0 X166.1473 Y45.3527
G1 X166.1473 Y45.3527 Z-1.5000 F150.0
G3 X166.1473 Y45.3527 I-11.5000 J0.0000 F750.0
G0 Z5.0000
G0 X163.9473 Y45.3527
G1 X163.9473 Y45.3527 Z-1.5000 F150.0
G3 X163.9473 Y45.3527 I-9.3000 J0.0000 F750.0
G0 Z5.0000
G0 X161.7473 Y45.3527
G1 X161.7473 Y45.3527 Z-1.5000 F150.0
G3 X161.7473 Y45.3527 I-7.1000 J0.0000 F750.0
G0 Z5.0000
G0 X159.5473 Y45.3527
G1 X159.5473 Y45.3527 Z-1.5000 F150.0
G3 X159.5473 Y45.3527 I-4.9000 J0.0000 F750.0
G0 Z5.0000
G0 X157.3473 Y45.3527
G1 X157.3473 Y45.3527 Z-1.5000 F150.0
G3 X157.3473 Y45.3527 I-2.7000 J0.0000 F750.0
G0 Z5.0000
G0 X166.1473 Y45.3527
G1 X166.1473 Y45.3527 Z-3.0000 F150.0
G3 X166.1473 Y45.3527 I-11.5000 J0.0000 F750.0
G0 Z5.0000
G0 X163.9473 Y45.3527
G1 X163.9473 Y45.3527 Z-3.0000 F150.0
G3 X163.9473 Y45.3527 I-9.3000 J0.0000 F750.0
G0 Z5.0000
G0 X161.7473 Y45.3527
G1 X161.7473 Y45.3527 Z-3.0000 F150.0
G3 X161.7473 Y45.3527 I-7.1000 J0.0000 F750.0
G0 Z5.0000
G0 X159.5473 Y45.3527
G1 X159.5473 Y45.3527 Z-3.0000 F150.0
G3 X159.5473 Y45.3527 I-4.9000 J0.0000 F750.0
G0 Z5.0000
G0 X157.3473 Y45.3527
G1 X157.3473 Y45.3527 Z-3.0000 F150.0
G3 X157.3473 Y45.3527 I-2.7000 J0.0000 F750.0
G0 Z5.0000
G0 X166.1473 Y45.3527
G1 X166.1473 Y45.3527 Z-3.5000 F150.0
G3 X166.1473 Y45.3527 I-11.5000 J0.0000 F750.0
G0 Z5.0000
G0 X163.9473 Y45.3527
G1 X163.9473 Y45.3527 Z-3.5000 F150.0
G3 X163.9473 Y45.3527 I-9.3000 J0.0000 F750.0
G0 Z5.0000
G0 X161.7473 Y45.3527
G1 X161.7473 Y45.3527 Z-3.5000 F150.0
G3 X161.7473 Y45.3527 I-7.1000 J0.0000 F750.0
G0 Z5.0000
G0 X159.5473 Y45.3527
G1 X159.5473 Y45.3527 Z-3.5000 F150.0
G3 X159.5473 Y45.3527 I-4.9000 J0.0000 F750.0
G0 Z5.0000
G0 X157.3473 Y45.3527
G1 X157.3473 Y45.3527 Z-3.5000 F150.0
G3 X157.3473 Y45.3527 I-2.7000 J0.0000 F750.0
( Mulde ix=3 iy=1 center 124.012 45.353 )
G0 Z5.0000
G0 X135.5122 Y45.3527
G1 X135.5122 Y45.3527 Z-1.5000 F150.0
G3 X135.5122 Y45.3527 I-11.5000 J0.0000 F750.0
G0 Z5.0000
G0 X133.3122 Y45.3527
G1 X133.3122 Y45.3527 Z-1.5000 F150.0
G3 X133.3122 Y45.3527 I-9.3000 J0.0000 F750.0
G0 Z5.0000
G0 X131.1122 Y45.3527
G1 X131.1122 Y45.3527 Z-1.5000 F150.0
G3 X131.1122 Y45.3527 I-7.1000 J0.0000 F750.0
G0 Z5.0000
G0 X128.9122 Y45.3527
G1 X128.9122 Y45.3527 Z-1.5000 F150.0
G3 X128.9122 Y45.3527 I-4.9000 J0.0000 F750.0
G0 Z5.0000
G0 X126.7122 Y45.3527
G1 X126.7122 Y45.3527 Z-1.5000 F150.0
G3 X126.7122 Y45.3527 I-2.7000 J0.0000 F750.0
G0 Z5.0000
G0 X135.5122 Y45.3527
G1 X135.5122 Y45.3527 Z-3.0000 F150.0
G3 X135.5122 Y45.3527 I-11.5000 J0.0000 F750.0
G0 Z5.0000
G0 X133.3122 Y45.3527
G1 X133.3122 Y45.3527 Z-3.0000 F150.0
G3 X133.3122 Y45.3527 I-9.3000 J0.0000 F750.0
G0 Z5.0000
G0 X131.1122 Y45.3527
G1 X131.1122 Y45.3527 Z-3.0000 F150.0
G3 X131.1122 Y45.3527 I-7.1000 J0.0000 F750.0
G0 Z5.0000
G0 X128.9122 Y45.3527
G1 X128.9122 Y45.3527 Z-3.0000 F150.0
G3 X128.9122 Y45.3527 I-4.9000 J0.0000 F750.0
G0 Z5.0000
G0 X126.7122 Y45.3527
G1 X126.7122 Y45.3527 Z-3.0000 F150.0
G3 X126.7122 Y45.3527 I-2.7000 J0.0000 F750.0
G0 Z5.0000
G0 X135.5122 Y45.3527
G1 X135.5122 Y45.3527 Z-3.5000 F150.0
G3 X135.5122 Y45.3527 I-11.5000 J0.0000 F750.0
G0 Z5.0000
G0 X133.3122 Y45.3527
G1 X133.3122 Y45.3527 Z-3.5000 F150.0
G3 X133.3122 Y45.3527 I-9.3000 J0.0000 F750.0
G0 Z5.0000
G0 X131.1122 Y45.3527
G1 X131.1122 Y45.3527 Z-3.5000 F150.0
G3 X131.1122 Y45.3527 I-7.1000 J0.0000 F750.0
G0 Z5.0000
G0 X128.9122 Y45.3527
G1 X128.9122 Y45.3527 Z-3.5000 F150.0
G3 X128.9122 Y45.3527 I-4.9000 J0.0000 F750.0
G0 Z5.0000
G0 X126.7122 Y45.3527
G1 X126.7122 Y45.3527 Z-3.5000 F150.0
G3 X126.7122 Y45.3527 I-2.7000 J0.0000 F750.0
( Mulde ix=2 iy=1 center 93.377 45.353 )
G0 Z5.0000
G0 X104.8771 Y45.3527
G1 X104.8771 Y45.3527 Z-1.5000 F150.0
G3 X104.8771 Y45.3527 I-11.5000 J0.0000 F750.0
G0 Z5.0000
G0 X102.6771 Y45.3527
G1 X102.6771 Y45.3527 Z-1.5000 F150.0
G3 X102.6771 Y45.3527 I-9.3000 J0.0000 F750.0
G0 Z5.0000
G0 X100.4771 Y45.3527
G1 X100.4771 Y45.3527 Z-1.5000 F150.0
G3 X100.4771 Y45.3527 I-7.1000 J0.0000 F750.0
G0 Z5.0000
G0 X98.2771 Y45.3527
G1 X98.2771 Y45.3527 Z-1.5000 F150.0
G3 X98.2771 Y45.3527 I-4.9000 J0.0000 F750.0
G0 Z5.0000
G0 X96.0771 Y45.3527
G1 X96.0771 Y45.3527 Z-1.5000 F150.0
G3 X96.0771 Y45.3527 I-2.7000 J0.0000 F750.0
G0 Z5.0000
G0 X104.8771 Y45.3527
G1 X104.8771 Y45.3527 Z-3.0000 F150.0
G3 X104.8771 Y45.3527 I-11.5000 J0.0000 F750.0
G0 Z5.0000
G0 X102.6771 Y45.3527
G1 X102.6771 Y45.3527 Z-3.0000 F150.0
G3 X102.6771 Y45.3527 I-9.3000 J0.0000 F750.0
G0 Z5.0000
G0 X100.4771 Y45.3527
G1 X100.4771 Y45.3527 Z-3.0000 F150.0
G3 X100.4771 Y45.3527 I-7.1000 J0.0000 F750.0
G0 Z5.0000
G0 X98.2771 Y45.3527
G1 X98.2771 Y45.3527 Z-3.0000 F150.0
G3 X98.2771 Y45.3527 I-4.9000 J0.0000 F750.0
G0 Z5.0000
G0 X96.0771 Y45.3527
G1 X96.0771 Y45.3527 Z-3.0000 F150.0
G3 X96.0771 Y45.3527 I-2.7000 J0.0000 F750.0
G0 Z5.0000
G0 X104.8771 Y45.3527
G1 X104.8771 Y45.3527 Z-3.5000 F150.0
G3 X104.8771 Y45.3527 I-11.5000 J0.0000 F750.0
G0 Z5.0000
G0 X102.6771 Y45.3527
G1 X102.6771 Y45.3527 Z-3.5000 F150.0
G3 X102.6771 Y45.3527 I-9.3000 J0.0000 F750.0
G0 Z5.0000
G0 X100.4771 Y45.3527
G1 X100.4771 Y45.3527 Z-3.5000 F150.0
G3 X100.4771 Y45.3527 I-7.1000 J0.0000 F750.0
G0 Z5.0000
G0 X98.2771 Y45.3527
G1 X98.2771 Y45.3527 Z-3.5000 F150.0
G3 X98.2771 Y45.3527 I-4.9000 J0.0000 F750.0
G0 Z5.0000
G0 X96.0771 Y45.3527
G1 X96.0771 Y45.3527 Z-3.5000 F150.0
G3 X96.0771 Y45.3527 I-2.7000 J0.0000 F750.0
( Mulde ix=1 iy=1 center 62.742 45.353 )
G0 Z5.0000
G0 X74.2420 Y45.3527
G1 X74.2420 Y45.3527 Z-1.5000 F150.0
G3 X74.2420 Y45.3527 I-11.5000 J0.0000 F750.0
G0 Z5.0000
G0 X72.0420 Y45.3527
G1 X72.0420 Y45.3527 Z-1.5000 F150.0
G3 X72.0420 Y45.3527 I-9.3000 J0.0000 F750.0
G0 Z5.0000
G0 X69.8420 Y45.3527
G1 X69.8420 Y45.3527 Z-1.5000 F150.0
G3 X69.8420 Y45.3527 I-7.1000 J0.0000 F750.0
G0 Z5.0000
G0 X67.6420 Y45.3527
G1 X67.6420 Y45.3527 Z-1.5000 F150.0
G3 X67.6420 Y45.3527 I-4.9000 J0.0000 F750.0
G0 Z5.0000
G0 X65.4420 Y45.3527
G1 X65.4420 Y45.3527 Z-1.5000 F150.0
G3 X65.4420 Y45.3527 I-2.7000 J0.0000 F750.0
G0 Z5.0000
G0 X74.2420 Y45.3527
G1 X74.2420 Y45.3527 Z-3.0000 F150.0
G3 X74.2420 Y45.3527 I-11.5000 J0.0000 F750.0
G0 Z5.0000
G0 X72.0420 Y45.3527
G1 X72.0420 Y45.3527 Z-3.0000 F150.0
G3 X72.0420 Y45.3527 I-9.3000 J0.0000 F750.0
G0 Z5.0000
G0 X69.8420 Y45.3527
G1 X69.8420 Y45.3527 Z-3.0000 F150.0
G3 X69.8420 Y45.3527 I-7.1000 J0.0000 F750.0
G0 Z5.0000
G0 X67.6420 Y45.3527
G1 X67.6420 Y45.3527 Z-3.0000 F150.0
G3 X67.6420 Y45.3527 I-4.9000 J0.0000 F750.0
G0 Z5.0000
G0 X65.4420 Y45.3527
G1 X65.4420 Y45.3527 Z-3.0000 F150.0
G3 X65.4420 Y45.3527 I-2.7000 J0.0000 F750.0
G0 Z5.0000
G0 X74.2420 Y45.3527
G1 X74.2420 Y45.3527 Z-3.5000 F150.0
G3 X74.2420 Y45.3527 I-11.5000 J0.0000 F750.0
G0 Z5.0000
G0 X72.0420 Y45.3527
G1 X72.0420 Y45.3527 Z-3.5000 F150.0
G3 X72.0420 Y45.3527 I-9.3000 J0.0000 F750.0
G0 Z5.0000
G0 X69.8420 Y45.3527
G1 X69.8420 Y45.3527 Z-3.5000 F150.0
G3 X69.8420 Y45.3527 I-7.1000 J0.0000 F750.0
G0 Z5.0000
G0 X67.6420 Y45.3527
G1 X67.6420 Y45.3527 Z-3.5000 F150.0
G3 X67.6420 Y45.3527 I-4.9000 J0.0000 F750.0
G0 Z5.0000
G0 X65.4420 Y45.3527
G1 X65.4420 Y45.3527 Z-3.5000 F150.0
G3 X65.4420 Y45.3527 I-2.7000 J0.0000 F750.0
( Mulde ix=0 iy=1 center 32.107 45.353 )
G0 Z5.0000
G0 X43.6069 Y45.3527
G1 X43.6069 Y45.3527 Z-1.5000 F150.0
G3 X43.6069 Y45.3527 I-11.5000 J0.0000 F750.0
G0 Z5.0000
G0 X41.4069 Y45.3527
G1 X41.4069 Y45.3527 Z-1.5000 F150.0
G3 X41.4069 Y45.3527 I-9.3000 J0.0000 F750.0
G0 Z5.0000
G0 X39.2069 Y45.3527
G1 X39.2069 Y45.3527 Z-1.5000 F150.0
G3 X39.2069 Y45.3527 I-7.1000 J0.0000 F750.0
G0 Z5.0000
G0 X37.0069 Y45.3527
G1 X37.0069 Y45.3527 Z-1.5000 F150.0
G3 X37.0069 Y45.3527 I-4.9000 J0.0000 F750.0
G0 Z5.0000
G0 X34.8069 Y45.3527
G1 X34.8069 Y45.3527 Z-1.5000 F150.0
G3 X34.8069 Y45.3527 I-2.7000 J0.0000 F750.0
G0 Z5.0000
G0 X43.6069 Y45.3527
G1 X43.6069 Y45.3527 Z-3.0000 F150.0
G3 X43.6069 Y45.3527 I-11.5000 J0.0000 F750.0
G0 Z5.0000
G0 X41.4069 Y45.3527
G1 X41.4069 Y45.3527 Z-3.0000 F150.0
G3 X41.4069 Y45.3527 I-9.3000 J0.0000 F750.0
G0 Z5.0000
G0 X39.2069 Y45.3527
G1 X39.2069 Y45.3527 Z-3.0000 F150.0
G3 X39.2069 Y45.3527 I-7.1000 J0.0000 F750.0
G0 Z5.0000
G0 X37.0069 Y45.3527
G1 X37.0069 Y45.3527 Z-3.0000 F150.0
G3 X37.0069 Y45.3527 I-4.9000 J0.0000 F750.0
G0 Z5.0000
G0 X34.8069 Y45.3527
G1 X34.8069 Y45.3527 Z-3.0000 F150.0
G3 X34.8069 Y45.3527 I-2.7000 J0.0000 F750.0
G0 Z5.0000
G0 X43.6069 Y45.3527
G1 X43.6069 Y45.3527 Z-3.5000 F150.0
G3 X43.6069 Y45.3527 I-11.5000 J0.0000 F750.0
G0 Z5.0000
G0 X41.4069 Y45.3527
G1 X41.4069 Y45.3527 Z-3.5000 F150.0
G3 X41.4069 Y45.3527 I-9.3000 J0.0000 F750.0
G0 Z5.0000
G0 X39.2069 Y45.3527
G1 X39.2069 Y45.3527 Z-3.5000 F150.0
G3 X39.2069 Y45.3527 I-7.1000 J0.0000 F750.0
G0 Z5.0000
G0 X37.0069 Y45.3527
G1 X37.0069 Y45.3527 Z-3.5000 F150.0
G3 X37.0069 Y45.3527 I-4.9000 J0.0000 F750.0
G0 Z5.0000
G0 X34.8069 Y45.3527
G1 X34.8069 Y45.3527 Z-3.5000 F150.0
G3 X34.8069 Y45.3527 I-2.7000 J0.0000 F750.0
( Mulde ix=0 iy=2 center 32.107 75.988 )
G0 Z5.0000
G0 X43.6069 Y75.9878
G1 X43.6069 Y75.9878 Z-1.5000 F150.0
G3 X43.6069 Y75.9878 I-11.5000 J0.0000 F750.0
G0 Z5.0000
G0 X41.4069 Y75.9878
G1 X41.4069 Y75.9878 Z-1.5000 F150.0
G3 X41.4069 Y75.9878 I-9.3000 J0.0000 F750.0
G0 Z5.0000
G0 X39.2069 Y75.9878
G1 X39.2069 Y75.9878 Z-1.5000 F150.0
G3 X39.2069 Y75.9878 I-7.1000 J0.0000 F750.0
G0 Z5.0000
G0 X37.0069 Y75.9878
G1 X37.0069 Y75.9878 Z-1.5000 F150.0
G3 X37.0069 Y75.9878 I-4.9000 J0.0000 F750.0
G0 Z5.0000
G0 X34.8069 Y75.9878
G1 X34.8069 Y75.9878 Z-1.5000 F150.0
G3 X34.8069 Y75.9878 I-2.7000 J0.0000 F750.0
G0 Z5.0000
G0 X43.6069 Y75.9878
G1 X43.6069 Y75.9878 Z-3.0000 F150.0
G3 X43.6069 Y75.9878 I-11.5000 J0.0000 F750.0
G0 Z5.0000
G0 X41.4069 Y75.9878
G1 X41.4069 Y75.9878 Z-3.0000 F150.0
G3 X41.4069 Y75.9878 I-9.3000 J0.0000 F750.0
G0 Z5.0000
G0 X39.2069 Y75.9878
G1 X39.2069 Y75.9878 Z-3.0000 F150.0
G3 X39.2069 Y75.9878 I-7.1000 J0.0000 F750.0
G0 Z5.0000
G0 X37.0069 Y75.9878
G1 X37.0069 Y75.9878 Z-3.0000 F150.0
G3 X37.0069 Y75.9878 I-4.9000 J0.0000 F750.0
G0 Z5.0000
G0 X34.8069 Y75.9878
G1 X34.8069 Y75.9878 Z-3.0000 F150.0
G3 X34.8069 Y75.9878 I-2.7000 J0.0000 F750.0
G0 Z5.0000
G0 X43.6069 Y75.9878
G1 X43.6069 Y75.9878 Z-3.5000 F150.0
G3 X43.6069 Y75.9878 I-11.5000 J0.0000 F750.0
G0 Z5.0000
G0 X41.4069 Y75.9878
G1 X41.4069 Y75.9878 Z-3.5000 F150.0
G3 X41.4069 Y75.9878 I-9.3000 J0.0000 F750.0
G0 Z5.0000
G0 X39.2069 Y75.9878
G1 X39.2069 Y75.9878 Z-3.5000 F150.0
G3 X39.2069 Y75.9878 I-7.1000 J0.0000 F750.0
G0 Z5.0000
G0 X37.0069 Y75.9878
G1 X37.0069 Y75.9878 Z-3.5000 F150.0
G3 X37.0069 Y75.9878 I-4.9000 J0.0000 F750.0
G0 Z5.0000
G0 X34.8069 Y75.9878
G1 X34.8069 Y75.9878 Z-3.5000 F150.0
G3 X34.8069 Y75.9878 I-2.7000 J0.0000 F750.0
( Mulde ix=1 iy=2 center 62.742 75.988 )
G0 Z5.0000
G0 X74.2420 Y75.9878
G1 X74.2420 Y75.9878 Z-1.5000 F150.0
G3 X74.2420 Y75.9878 I-11.5000 J0.0000 F750.0
G0 Z5.0000
G0 X72.0420 Y75.9878
G1 X72.0420 Y75.9878 Z-1.5000 F150.0
G3 X72.0420 Y75.9878 I-9.3000 J0.0000 F750.0
G0 Z5.0000
G0 X69.8420 Y75.9878
G1 X69.8420 Y75.9878 Z-1.5000 F150.0
G3 X69.8420 Y75.9878 I-7.1000 J0.0000 F750.0
G0 Z5.0000
G0 X67.6420 Y75.9878
G1 X67.6420 Y75.9878 Z-1.5000 F150.0
G3 X67.6420 Y75.9878 I-4.9000 J0.0000 F750.0
G0 Z5.0000
G0 X65.4420 Y75.9878
G1 X65.4420 Y75.9878 Z-1.5000 F150.0
G3 X65.4420 Y75.9878 I-2.7000 J0.0000 F750.0
G0 Z5.0000
G0 X74.2420 Y75.9878
G1 X74.2420 Y75.9878 Z-3.0000 F150.0
G3 X74.2420 Y75.9878 I-11.5000 J0.0000 F750.0
G0 Z5.0000
G0 X72.0420 Y75.9878
G1 X72.0420 Y75.9878 Z-3.0000 F150.0
G3 X72.0420 Y75.9878 I-9.3000 J0.0000 F750.0
G0 Z5.0000
G0 X69.8420 Y75.9878
G1 X69.8420 Y75.9878 Z-3.0000 F150.0
G3 X69.8420 Y75.9878 I-7.1000 J0.0000 F750.0
G0 Z5.0000
G0 X67.6420 Y75.9878
G1 X67.6420 Y75.9878 Z-3.0000 F150.0
G3 X67.6420 Y75.9878 I-4.9000 J0.0000 F750.0
G0 Z5.0000
G0 X65.4420 Y75.9878
G1 X65.4420 Y75.9878 Z-3.0000 F150.0
G3 X65.4420 Y75.9878 I-2.7000 J0.0000 F750.0
G0 Z5.0000
G0 X74.2420 Y75.9878
G1 X74.2420 Y75.9878 Z-3.5000 F150.0
G3 X74.2420 Y75.9878 I-11.5000 J0.0000 F750.0
G0 Z5.0000
G0 X72.0420 Y75.9878
G1 X72.0420 Y75.9878 Z-3.5000 F150.0
G3 X72.0420 Y75.9878 I-9.3000 J0.0000 F750.0
G0 Z5.0000
G0 X69.8420 Y75.9878
G1 X69.8420 Y75.9878 Z-3.5000 F150.0
G3 X69.8420 Y75.9878 I-7.1000 J0.0000 F750.0
G0 Z5.0000
G0 X67.6420 Y75.9878
G1 X67.6420 Y75.9878 Z-3.5000 F150.0
G3 X67.6420 Y75.9878 I-4.9000 J0.0000 F750.0
G0 Z5.0000
G0 X65.4420 Y75.9878
G1 X65.4420 Y75.9878 Z-3.5000 F150.0
G3 X65.4420 Y75.9878 I-2.7000 J0.0000 F750.0
( Mulde ix=2 iy=2 center 93.377 75.988 )
G0 Z5.0000
G0 X104.8771 Y75.9878
G1 X104.8771 Y75.9878 Z-1.5000 F150.0
G3 X104.8771 Y75.9878 I-11.5000 J0.0000 F750.0
G0 Z5.0000
G0 X102.6771 Y75.9878
G1 X102.6771 Y75.9878 Z-1.5000 F150.0
G3 X102.6771 Y75.9878 I-9.3000 J0.0000 F750.0
G0 Z5.0000
G0 X100.4771 Y75.9878
G1 X100.4771 Y75.9878 Z-1.5000 F150.0
G3 X100.4771 Y75.9878 I-7.1000 J0.0000 F750.0
G0 Z5.0000
G0 X98.2771 Y75.9878
G1 X98.2771 Y75.9878 Z-1.5000 F150.0
G3 X98.2771 Y75.9878 I-4.9000 J0.0000 F750.0
G0 Z5.0000
G0 X96.0771 Y75.9878
G1 X96.0771 Y75.9878 Z-1.5000 F150.0
G3 X96.0771 Y75.9878 I-2.7000 J0.0000 F750.0
G0 Z5.0000
G0 X104.8771 Y75.9878
G1 X104.8771 Y75.9878 Z-3.0000 F150.0
G3 X104.8771 Y75.9878 I-11.5000 J0.0000 F750.0
G0 Z5.0000
G0 X102.6771 Y75.9878
G1 X102.6771 Y75.9878 Z-3.0000 F150.0
G3 X102.6771 Y75.9878 I-9.3000 J0.0000 F750.0
G0 Z5.0000
G0 X100.4771 Y75.9878
G1 X100.4771 Y75.9878 Z-3.0000 F150.0
G3 X100.4771 Y75.9878 I-7.1000 J0.0000 F750.0
G0 Z5.0000
G0 X98.2771 Y75.9878
G1 X98.2771 Y75.9878 Z-3.0000 F150.0
G3 X98.2771 Y75.9878 I-4.9000 J0.0000 F750.0
G0 Z5.0000
G0 X96.0771 Y75.9878
G1 X96.0771 Y75.9878 Z-3.0000 F150.0
G3 X96.0771 Y75.9878 I-2.7000 J0.0000 F750.0
G0 Z5.0000
G0 X104.8771 Y75.9878
G1 X104.8771 Y75.9878 Z-3.5000 F150.0
G3 X104.8771 Y75.9878 I-11.5000 J0.0000 F750.0
G0 Z5.0000
G0 X102.6771 Y75.9878
G1 X102.6771 Y75.9878 Z-3.5000 F150.0
G3 X102.6771 Y75.9878 I-9.3000 J0.0000 F750.0
G0 Z5.0000
G0 X100.4771 Y75.9878
G1 X100.4771 Y75.9878 Z-3.5000 F150.0
G3 X100.4771 Y75.9878 I-7.1000 J0.0000 F750.0
G0 Z5.0000
G0 X98.2771 Y75.9878
G1 X98.2771 Y75.9878 Z-3.5000 F150.0
G3 X98.2771 Y75.9878 I-4.9000 J0.0000 F750.0
G0 Z5.0000
G0 X96.0771 Y75.9878
G1 X96.0771 Y75.9878 Z-3.5000 F150.0
G3 X96.0771 Y75.9878 I-2.7000 J0.0000 F750.0
( Mulde ix=3 iy=2 center 124.012 75.988 )
G0 Z5.0000
G0 X135.5122 Y75.9878
G1 X135.5122 Y75.9878 Z-1.5000 F150.0
G3 X135.5122 Y75.9878 I-11.5000 J0.0000 F750.0
G0 Z5.0000
G0 X133.3122 Y75.9878
G1 X133.3122 Y75.9878 Z-1.5000 F150.0
G3 X133.3122 Y75.9878 I-9.3000 J0.0000 F750.0
G0 Z5.0000
G0 X131.1122 Y75.9878
G1 X131.1122 Y75.9878 Z-1.5000 F150.0
G3 X131.1122 Y75.9878 I-7.1000 J0.0000 F750.0
G0 Z5.0000
G0 X128.9122 Y75.9878
G1 X128.9122 Y75.9878 Z-1.5000 F150.0
G3 X128.9122 Y75.9878 I-4.9000 J0.0000 F750.0
G0 Z5.0000
G0 X126.7122 Y75.9878
G1 X126.7122 Y75.9878 Z-1.5000 F150.0
G3 X126.7122 Y75.9878 I-2.7000 J0.0000 F750.0
G0 Z5.0000
G0 X135.5122 Y75.9878
G1 X135.5122 Y75.9878 Z-3.0000 F150.0
G3 X135.5122 Y75.9878 I-11.5000 J0.0000 F750.0
G0 Z5.0000
G0 X133.3122 Y75.9878
G1 X133.3122 Y75.9878 Z-3.0000 F150.0
G3 X133.3122 Y75.9878 I-9.3000 J0.0000 F750.0
G0 Z5.0000
G0 X131.1122 Y75.9878
G1 X131.1122 Y75.9878 Z-3.0000 F150.0
G3 X131.1122 Y75.9878 I-7.1000 J0.0000 F750.0
G0 Z5.0000
G0 X128.9122 Y75.9878
G1 X128.9122 Y75.9878 Z-3.0000 F150.0
G3 X128.9122 Y75.9878 I-4.9000 J0.0000 F750.0
G0 Z5.0000
G0 X126.7122 Y75.9878
G1 X126.7122 Y75.9878 Z-3.0000 F150.0
G3 X126.7122 Y75.9878 I-2.7000 J0.0000 F750.0
G0 Z5.0000
G0 X135.5122 Y75.9878
G1 X135.5122 Y75.9878 Z-3.5000 F150.0
G3 X135.5122 Y75.9878 I-11.5000 J0.0000 F750.0
G0 Z5.0000
G0 X133.3122 Y75.9878
G1 X133.3122 Y75.9878 Z-3.5000 F150.0
G3 X133.3122 Y75.9878 I-9.3000 J0.0000 F750.0
G0 Z5.0000
G0 X131.1122 Y75.9878
G1 X131.1122 Y75.9878 Z-3.5000 F150.0
G3 X131.1122 Y75.9878 I-7.1000 J0.0000 F750.0
G0 Z5.0000
G0 X128.9122 Y75.9878
G1 X128.9122 Y75.9878 Z-3.5000 F150.0
G3 X128.9122 Y75.9878 I-4.9000 J0.0000 F750.0
G0 Z5.0000
G0 X126.7122 Y75.9878
G1 X126.7122 Y75.9878 Z-3.5000 F150.0
G3 X126.7122 Y75.9878 I-2.7000 J0.0000 F750.0
( Mulde ix=4 iy=2 center 154.647 75.988 )
G0 Z5.0000
G0 X166.1473 Y75.9878
G1 X166.1473 Y75.9878 Z-1.5000 F150.0
G3 X166.1473 Y75.9878 I-11.5000 J0.0000 F750.0
G0 Z5.0000
G0 X163.9473 Y75.9878
G1 X163.9473 Y75.9878 Z-1.5000 F150.0
G3 X163.9473 Y75.9878 I-9.3000 J0.0000 F750.0
G0 Z5.0000
G0 X161.7473 Y75.9878
G1 X161.7473 Y75.9878 Z-1.5000 F150.0
G3 X161.7473 Y75.9878 I-7.1000 J0.0000 F750.0
G0 Z5.0000
G0 X159.5473 Y75.9878
G1 X159.5473 Y75.9878 Z-1.5000 F150.0
G3 X159.5473 Y75.9878 I-4.9000 J0.0000 F750.0
G0 Z5.0000
G0 X157.3473 Y75.9878
G1 X157.3473 Y75.9878 Z-1.5000 F150.0
G3 X157.3473 Y75.9878 I-2.7000 J0.0000 F750.0
G0 Z5.0000
G0 X166.1473 Y75.9878
G1 X166.1473 Y75.9878 Z-3.0000 F150.0
G3 X166.1473 Y75.9878 I-11.5000 J0.0000 F750.0
G0 Z5.0000
G0 X163.9473 Y75.9878
G1 X163.9473 Y75.9878 Z-3.0000 F150.0
G3 X163.9473 Y75.9878 I-9.3000 J0.0000 F750.0
G0 Z5.0000
G0 X161.7473 Y75.9878
G1 X161.7473 Y75.9878 Z-3.0000 F150.0
G3 X161.7473 Y75.9878 I-7.1000 J0.0000 F750.0
G0 Z5.0000
G0 X159.5473 Y75.9878
G1 X159.5473 Y75.9878 Z-3.0000 F150.0
G3 X159.5473 Y75.9878 I-4.9000 J0.0000 F750.0
G0 Z5.0000
G0 X157.3473 Y75.9878
G1 X157.3473 Y75.9878 Z-3.0000 F150.0
G3 X157.3473 Y75.9878 I-2.7000 J0.0000 F750.0
G0 Z5.0000
G0 X166.1473 Y75.9878
G1 X166.1473 Y75.9878 Z-3.5000 F150.0
G3 X166.1473 Y75.9878 I-11.5000 J0.0000 F750.0
G0 Z5.0000
G0 X163.9473 Y75.9878
G1 X163.9473 Y75.9878 Z-3.5000 F150.0
G3 X163.9473 Y75.9878 I-9.3000 J0.0000 F750.0
G0 Z5.0000
G0 X161.7473 Y75.9878
G1 X161.7473 Y75.9878 Z-3.5000 F150.0
G3 X161.7473 Y75.9878 I-7.1000 J0.0000 F750.0
G0 Z5.0000
G0 X159.5473 Y75.9878
G1 X159.5473 Y75.9878 Z-3.5000 F150.0
G3 X159.5473 Y75.9878 I-4.9000 J0.0000 F750.0
G0 Z5.0000
G0 X157.3473 Y75.9878
G1 X157.3473 Y75.9878 Z-3.5000 F150.0
G3 X157.3473 Y75.9878 I-2.7000 J0.0000 F750.0
( Mulde ix=5 iy=2 center 185.282 75.988 )
G0 Z5.0000
G0 X196.7824 Y75.9878
G1 X196.7824 Y75.9878 Z-1.5000 F150.0
G3 X196.7824 Y75.9878 I-11.5000 J0.0000 F750.0
G0 Z5.0000
G0 X194.5824 Y75.9878
G1 X194.5824 Y75.9878 Z-1.5000 F150.0
G3 X194.5824 Y75.9878 I-9.3000 J0.0000 F750.0
G0 Z5.0000
G0 X192.3824 Y75.9878
G1 X192.3824 Y75.9878 Z-1.5000 F150.0
G3 X192.3824 Y75.9878 I-7.1000 J0.0000 F750.0
G0 Z5.0000
G0 X190.1824 Y75.9878
G1 X190.1824 Y75.9878 Z-1.5000 F150.0
G3 X190.1824 Y75.9878 I-4.9000 J0.0000 F750.0
G0 Z5.0000
G0 X187.9824 Y75.9878
G1 X187.9824 Y75.9878 Z-1.5000 F150.0
G3 X187.9824 Y75.9878 I-2.7000 J0.0000 F750.0
G0 Z5.0000
G0 X196.7824 Y75.9878
G1 X196.7824 Y75.9878 Z-3.0000 F150.0
G3 X196.7824 Y75.9878 I-11.5000 J0.0000 F750.0
G0 Z5.0000
G0 X194.5824 Y75.9878
G1 X194.5824 Y75.9878 Z-3.0000 F150.0
G3 X194.5824 Y75.9878 I-9.3000 J0.0000 F750.0
G0 Z5.0000
G0 X192.3824 Y75.9878
G1 X192.3824 Y75.9878 Z-3.0000 F150.0
G3 X192.3824 Y75.9878 I-7.1000 J0.0000 F750.0
G0 Z5.0000
G0 X190.1824 Y75.9878
G1 X190.1824 Y75.9878 Z-3.0000 F150.0
G3 X190.1824 Y75.9878 I-4.9000 J0.0000 F750.0
G0 Z5.0000
G0 X187.9824 Y75.9878
G1 X187.9824 Y75.9878 Z-3.0000 F150.0
G3 X187.9824 Y75.9878 I-2.7000 J0.0000 F750.0
G0 Z5.0000
G0 X196.7824 Y75.9878
G1 X196.7824 Y75.9878 Z-3.5000 F150.0
G3 X196.7824 Y75.9878 I-11.5000 J0.0000 F750.0
G0 Z5.0000
G0 X194.5824 Y75.9878
G1 X194.5824 Y75.9878 Z-3.5000 F150.0
G3 X194.5824 Y75.9878 I-9.3000 J0.0000 F750.0
G0 Z5.0000
G0 X192.3824 Y75.9878
G1 X192.3824 Y75.9878 Z-3.5000 F150.0
G3 X192.3824 Y75.9878 I-7.1000 J0.0000 F750.0
G0 Z5.0000
G0 X190.1824 Y75.9878
G1 X190.1824 Y75.9878 Z-3.5000 F150.0
G3 X190.1824 Y75.9878 I-4.9000 J0.0000 F750.0
G0 Z5.0000
G0 X187.9824 Y75.9878
G1 X187.9824 Y75.9878 Z-3.5000 F150.0
G3 X187.9824 Y75.9878 I-2.7000 J0.0000 F750.0
( Mulde ix=5 iy=3 center 185.282 106.623 )
G0 Z5.0000
G0 X196.7824 Y106.6229
G1 X196.7824 Y106.6229 Z-1.5000 F150.0
G3 X196.7824 Y106.6229 I-11.5000 J0.0000 F750.0
G0 Z5.0000
G0 X194.5824 Y106.6229
G1 X194.5824 Y106.6229 Z-1.5000 F150.0
G3 X194.5824 Y106.6229 I-9.3000 J0.0000 F750.0
G0 Z5.0000
G0 X192.3824 Y106.6229
G1 X192.3824 Y106.6229 Z-1.5000 F150.0
G3 X192.3824 Y106.6229 I-7.1000 J0.0000 F750.0
G0 Z5.0000
G0 X190.1824 Y106.6229
G1 X190.1824 Y106.6229 Z-1.5000 F150.0
G3 X190.1824 Y106.6229 I-4.9000 J0.0000 F750.0
G0 Z5.0000
G0 X187.9824 Y106.6229
G1 X187.9824 Y106.6229 Z-1.5000 F150.0
G3 X187.9824 Y106.6229 I-2.7000 J0.0000 F750.0
G0 Z5.0000
G0 X196.7824 Y106.6229
G1 X196.7824 Y106.6229 Z-3.0000 F150.0
G3 X196.7824 Y106.6229 I-11.5000 J0.0000 F750.0
G0 Z5.0000
G0 X194.5824 Y106.6229
G1 X194.5824 Y106.6229 Z-3.0000 F150.0
G3 X194.5824 Y106.6229 I-9.3000 J0.0000 F750.0
G0 Z5.0000
G0 X192.3824 Y106.6229
G1 X192.3824 Y106.6229 Z-3.0000 F150.0
G3 X192.3824 Y106.6229 I-7.1000 J0.0000 F750.0
G0 Z5.0000
G0 X190.1824 Y106.6229
G1 X190.1824 Y106.6229 Z-3.0000 F150.0
G3 X190.1824 Y106.6229 I-4.9000 J0.0000 F750.0
G0 Z5.0000
G0 X187.9824 Y106.6229
G1 X187.9824 Y106.6229 Z-3.0000 F150.0
G3 X187.9824 Y106.6229 I-2.7000 J0.0000 F750.0
G0 Z5.0000
G0 X196.7824 Y106.6229
G1 X196.7824 Y106.6229 Z-3.5000 F150.0
G3 X196.7824 Y106.6229 I-11.5000 J0.0000 F750.0
G0 Z5.0000
G0 X194.5824 Y106.6229
G1 X194.5824 Y106.6229 Z-3.5000 F150.0
G3 X194.5824 Y106.6229 I-9.3000 J0.0000 F750.0
G0 Z5.0000
G0 X192.3824 Y106.6229
G1 X192.3824 Y106.6229 Z-3.5000 F150.0
G3 X192.3824 Y106.6229 I-7.1000 J0.0000 F750.0
G0 Z5.0000
G0 X190.1824 Y106.6229
G1 X190.1824 Y106.6229 Z-3.5000 F150.0
G3 X190.1824 Y106.6229 I-4.9000 J0.0000 F750.0
G0 Z5.0000
G0 X187.9824 Y106.6229
G1 X187.9824 Y106.6229 Z-3.5000 F150.0
G3 X187.9824 Y106.6229 I-2.7000 J0.0000 F750.0
( Mulde ix=4 iy=3 center 154.647 106.623 )
G0 Z5.0000
G0 X166.1473 Y106.6229
G1 X166.1473 Y106.6229 Z-1.5000 F150.0
G3 X166.1473 Y106.6229 I-11.5000 J0.0000 F750.0
G0 Z5.0000
G0 X163.9473 Y106.6229
G1 X163.9473 Y106.6229 Z-1.5000 F150.0
G3 X163.9473 Y106.6229 I-9.3000 J0.0000 F750.0
G0 Z5.0000
G0 X161.7473 Y106.6229
G1 X161.7473 Y106.6229 Z-1.5000 F150.0
G3 X161.7473 Y106.6229 I-7.1000 J0.0000 F750.0
G0 Z5.0000
G0 X159.5473 Y106.6229
G1 X159.5473 Y106.6229 Z-1.5000 F150.0
G3 X159.5473 Y106.6229 I-4.9000 J0.0000 F750.0
G0 Z5.0000
G0 X157.3473 Y106.6229
G1 X157.3473 Y106.6229 Z-1.5000 F150.0
G3 X157.3473 Y106.6229 I-2.7000 J0.0000 F750.0
G0 Z5.0000
G0 X166.1473 Y106.6229
G1 X166.1473 Y106.6229 Z-3.0000 F150.0
G3 X166.1473 Y106.6229 I-11.5000 J0.0000 F750.0
G0 Z5.0000
G0 X163.9473 Y106.6229
G1 X163.9473 Y106.6229 Z-3.0000 F150.0
G3 X163.9473 Y106.6229 I-9.3000 J0.0000 F750.0
G0 Z5.0000
G0 X161.7473 Y106.6229
G1 X161.7473 Y106.6229 Z-3.0000 F150.0
G3 X161.7473 Y106.6229 I-7.1000 J0.0000 F750.0
G0 Z5.0000
G0 X159.5473 Y106.6229
G1 X159.5473 Y106.6229 Z-3.0000 F150.0
G3 X159.5473 Y106.6229 I-4.9000 J0.0000 F750.0
G0 Z5.0000
G0 X157.3473 Y106.6229
G1 X157.3473 Y106.6229 Z-3.0000 F150.0
G3 X157.3473 Y106.6229 I-2.7000 J0.0000 F750.0
G0 Z5.0000
G0 X166.1473 Y106.6229
G1 X166.1473 Y106.6229 Z-3.5000 F150.0
G3 X166.1473 Y106.6229 I-11.5000 J0.0000 F750.0
G0 Z5.0000
G0 X163.9473 Y106.6229
G1 X163.9473 Y106.6229 Z-3.5000 F150.0
G3 X163.9473 Y106.6229 I-9.3000 J0.0000 F750.0
G0 Z5.0000
G0 X161.7473 Y106.6229
G1 X161.7473 Y106.6229 Z-3.5000 F150.0
G3 X161.7473 Y106.6229 I-7.1000 J0.0000 F750.0
G0 Z5.0000
G0 X159.5473 Y106.6229
G1 X159.5473 Y106.6229 Z-3.5000 F150.0
G3 X159.5473 Y106.6229 I-4.9000 J0.0000 F750.0
G0 Z5.0000
G0 X157.3473 Y106.6229
G1 X157.3473 Y106.6229 Z-3.5000 F150.0
G3 X157.3473 Y106.6229 I-2.7000 J0.0000 F750.0
( Mulde ix=3 iy=3 center 124.012 106.623 )
G0 Z5.0000
G0 X135.5122 Y106.6229
G1 X135.5122 Y106.6229 Z-1.5000 F150.0
G3 X135.5122 Y106.6229 I-11.5000 J0.0000 F750.0
G0 Z5.0000
G0 X133.3122 Y106.6229
G1 X133.3122 Y106.6229 Z-1.5000 F150.0
G3 X133.3122 Y106.6229 I-9.3000 J0.0000 F750.0
G0 Z5.0000
G0 X131.1122 Y106.6229
G1 X131.1122 Y106.6229 Z-1.5000 F150.0
G3 X131.1122 Y106.6229 I-7.1000 J0.0000 F750.0
G0 Z5.0000
G0 X128.9122 Y106.6229
G1 X128.9122 Y106.6229 Z-1.5000 F150.0
G3 X128.9122 Y106.6229 I-4.9000 J0.0000 F750.0
G0 Z5.0000
G0 X126.7122 Y106.6229
G1 X126.7122 Y106.6229 Z-1.5000 F150.0
G3 X126.7122 Y106.6229 I-2.7000 J0.0000 F750.0
G0 Z5.0000
G0 X135.5122 Y106.6229
G1 X135.5122 Y106.6229 Z-3.0000 F150.0
G3 X135.5122 Y106.6229 I-11.5000 J0.0000 F750.0
G0 Z5.0000
G0 X133.3122 Y106.6229
G1 X133.3122 Y106.6229 Z-3.0000 F150.0
G3 X133.3122 Y106.6229 I-9.3000 J0.0000 F750.0
G0 Z5.0000
G0 X131.1122 Y106.6229
G1 X131.1122 Y106.6229 Z-3.0000 F150.0
G3 X131.1122 Y106.6229 I-7.1000 J0.0000 F750.0
G0 Z5.0000
G0 X128.9122 Y106.6229
G1 X128.9122 Y106.6229 Z-3.0000 F150.0
G3 X128.9122 Y106.6229 I-4.9000 J0.0000 F750.0
G0 Z5.0000
G0 X126.7122 Y106.6229
G1 X126.7122 Y106.6229 Z-3.0000 F150.0
G3 X126.7122 Y106.6229 I-2.7000 J0.0000 F750.0
G0 Z5.0000
G0 X135.5122 Y106.6229
G1 X135.5122 Y106.6229 Z-3.5000 F150.0
G3 X135.5122 Y106.6229 I-11.5000 J0.0000 F750.0
G0 Z5.0000
G0 X133.3122 Y106.6229
G1 X133.3122 Y106.6229 Z-3.5000 F150.0
G3 X133.3122 Y106.6229 I-9.3000 J0.0000 F750.0
G0 Z5.0000
G0 X131.1122 Y106.6229
G1 X131.1122 Y106.6229 Z-3.5000 F150.0
G3 X131.1122 Y106.6229 I-7.1000 J0.0000 F750.0
G0 Z5.0000
G0 X128.9122 Y106.6229
G1 X128.9122 Y106.6229 Z-3.5000 F150.0
G3 X128.9122 Y106.6229 I-4.9000 J0.0000 F750.0
G0 Z5.0000
G0 X126.7122 Y106.6229
G1 X126.7122 Y106.6229 Z-3.5000 F150.0
G3 X126.7122 Y106.6229 I-2.7000 J0.0000 F750.0
( Mulde ix=2 iy=3 center 93.377 106.623 )
G0 Z5.0000
G0 X104.8771 Y106.6229
G1 X104.8771 Y106.6229 Z-1.5000 F150.0
G3 X104.8771 Y106.6229 I-11.5000 J0.0000 F750.0
G0 Z5.0000
G0 X102.6771 Y106.6229
G1 X102.6771 Y106.6229 Z-1.5000 F150.0
G3 X102.6771 Y106.6229 I-9.3000 J0.0000 F750.0
G0 Z5.0000
G0 X100.4771 Y106.6229
G1 X100.4771 Y106.6229 Z-1.5000 F150.0
G3 X100.4771 Y106.6229 I-7.1000 J0.0000 F750.0
G0 Z5.0000
G0 X98.2771 Y106.6229
G1 X98.2771 Y106.6229 Z-1.5000 F150.0
G3 X98.2771 Y106.6229 I-4.9000 J0.0000 F750.0
G0 Z5.0000
G0 X96.0771 Y106.6229
G1 X96.0771 Y106.6229 Z-1.5000 F150.0
G3 X96.0771 Y106.6229 I-2.7000 J0.0000 F750.0
G0 Z5.0000
G0 X104.8771 Y106.6229
G1 X104.8771 Y106.6229 Z-3.0000 F150.0
G3 X104.8771 Y106.6229 I-11.5000 J0.0000 F750.0
G0 Z5.0000
G0 X102.6771 Y106.6229
G1 X102.6771 Y106.6229 Z-3.0000 F150.0
G3 X102.6771 Y106.6229 I-9.3000 J0.0000 F750.0
G0 Z5.0000
G0 X100.4771 Y106.6229
G1 X100.4771 Y106.6229 Z-3.0000 F150.0
G3 X100.4771 Y106.6229 I-7.1000 J0.0000 F750.0
G0 Z5.0000
G0 X98.2771 Y106.6229
G1 X98.2771 Y106.6229 Z-3.0000 F150.0
G3 X98.2771 Y106.6229 I-4.9000 J0.0000 F750.0
G0 Z5.0000
G0 X96.0771 Y106.6229
G1 X96.0771 Y106.6229 Z-3.0000 F150.0
G3 X96.0771 Y106.6229 I-2.7000 J0.0000 F750.0
G0 Z5.0000
G0 X104.8771 Y106.6229
G1 X104.8771 Y106.6229 Z-3.5000 F150.0
G3 X104.8771 Y106.6229 I-11.5000 J0.0000 F750.0
G0 Z5.0000
G0 X102.6771 Y106.6229
G1 X102.6771 Y106.6229 Z-3.5000 F150.0
G3 X102.6771 Y106.6229 I-9.3000 J0.0000 F750.0
G0 Z5.0000
G0 X100.4771 Y106.6229
G1 X100.4771 Y106.6229 Z-3.5000 F150.0
G3 X100.4771 Y106.6229 I-7.1000 J0.0000 F750.0
G0 Z5.0000
G0 X98.2771 Y106.6229
G1 X98.2771 Y106.6229 Z-3.5000 F150.0
G3 X98.2771 Y106.6229 I-4.9000 J0.0000 F750.0
G0 Z5.0000
G0 X96.0771 Y106.6229
G1 X96.0771 Y106.6229 Z-3.5000 F150.0
G3 X96.0771 Y106.6229 I-2.7000 J0.0000 F750.0
( Mulde ix=1 iy=3 center 62.742 106.623 )
G0 Z5.0000
G0 X74.2420 Y106.6229
G1 X74.2420 Y106.6229 Z-1.5000 F150.0
G3 X74.2420 Y106.6229 I-11.5000 J0.0000 F750.0
G0 Z5.0000
G0 X72.0420 Y106.6229
G1 X72.0420 Y106.6229 Z-1.5000 F150.0
G3 X72.0420 Y106.6229 I-9.3000 J0.0000 F750.0
G0 Z5.0000
G0 X69.8420 Y106.6229
G1 X69.8420 Y106.6229 Z-1.5000 F150.0
G3 X69.8420 Y106.6229 I-7.1000 J0.0000 F750.0
G0 Z5.0000
G0 X67.6420 Y106.6229
G1 X67.6420 Y106.6229 Z-1.5000 F150.0
G3 X67.6420 Y106.6229 I-4.9000 J0.0000 F750.0
G0 Z5.0000
G0 X65.4420 Y106.6229
G1 X65.4420 Y106.6229 Z-1.5000 F150.0
G3 X65.4420 Y106.6229 I-2.7000 J0.0000 F750.0
G0 Z5.0000
G0 X74.2420 Y106.6229
G1 X74.2420 Y106.6229 Z-3.0000 F150.0
G3 X74.2420 Y106.6229 I-11.5000 J0.0000 F750.0
G0 Z5.0000
G0 X72.0420 Y106.6229
G1 X72.0420 Y106.6229 Z-3.0000 F150.0
G3 X72.0420 Y106.6229 I-9.3000 J0.0000 F750.0
G0 Z5.0000
G0 X69.8420 Y106.6229
G1 X69.8420 Y106.6229 Z-3.0000 F150.0
G3 X69.8420 Y106.6229 I-7.1000 J0.0000 F750.0
G0 Z5.0000
G0 X67.6420 Y106.6229
G1 X67.6420 Y106.6229 Z-3.0000 F150.0
G3 X67.6420 Y106.6229 I-4.9000 J0.0000 F750.0
G0 Z5.0000
G0 X65.4420 Y106.6229
G1 X65.4420 Y106.6229 Z-3.0000 F150.0
G3 X65.4420 Y106.6229 I-2.7000 J0.0000 F750.0
G0 Z5.0000
G0 X74.2420 Y106.6229
G1 X74.2420 Y106.6229 Z-3.5000 F150.0
G3 X74.2420 Y106.6229 I-11.5000 J0.0000 F750.0
G0 Z5.0000
G0 X72.0420 Y106.6229
G1 X72.0420 Y106.6229 Z-3.5000 F150.0
G3 X72.0420 Y106.6229 I-9.3000 J0.0000 F750.0
G0 Z5.0000
G0 X69.8420 Y106.6229
G1 X69.8420 Y106.6229 Z-3.5000 F150.0
G3 X69.8420 Y106.6229 I-7.1000 J0.0000 F750.0
G0 Z5.0000
G0 X67.6420 Y106.6229
G1 X67.6420 Y106.6229 Z-3.5000 F150.0
G3 X67.6420 Y106.6229 I-4.9000 J0.0000 F750.0
G0 Z5.0000
G0 X65.4420 Y106.6229
G1 X65.4420 Y106.6229 Z-3.5000 F150.0
G3 X65.4420 Y106.6229 I-2.7000 J0.0000 F750.0
( Mulde ix=0 iy=3 center 32.107 106.623 )
G0 Z5.0000
G0 X43.6069 Y106.6229
G1 X43.6069 Y106.6229 Z-1.5000 F150.0
G3 X43.6069 Y106.6229 I-11.5000 J0.0000 F750.0
G0 Z5.0000
G0 X41.4069 Y106.6229
G1 X41.4069 Y106.6229 Z-1.5000 F150.0
G3 X41.4069 Y106.6229 I-9.3000 J0.0000 F750.0
G0 Z5.0000
G0 X39.2069 Y106.6229
G1 X39.2069 Y106.6229 Z-1.5000 F150.0
G3 X39.2069 Y106.6229 I-7.1000 J0.0000 F750.0
G0 Z5.0000
G0 X37.0069 Y106.6229
G1 X37.0069 Y106.6229 Z-1.5000 F150.0
G3 X37.0069 Y106.6229 I-4.9000 J0.0000 F750.0
G0 Z5.0000
G0 X34.8069 Y106.6229
G1 X34.8069 Y106.6229 Z-1.5000 F150.0
G3 X34.8069 Y106.6229 I-2.7000 J0.0000 F750.0
G0 Z5.0000
G0 X43.6069 Y106.6229
G1 X43.6069 Y106.6229 Z-3.0000 F150.0
G3 X43.6069 Y106.6229 I-11.5000 J0.0000 F750.0
G0 Z5.0000
G0 X41.4069 Y106.6229
G1 X41.4069 Y106.6229 Z-3.0000 F150.0
G3 X41.4069 Y106.6229 I-9.3000 J0.0000 F750.0
G0 Z5.0000
G0 X39.2069 Y106.6229
G1 X39.2069 Y106.6229 Z-3.0000 F150.0
G3 X39.2069 Y106.6229 I-7.1000 J0.0000 F750.0
G0 Z5.0000
G0 X37.0069 Y106.6229
G1 X37.0069 Y106.6229 Z-3.0000 F150.0
G3 X37.0069 Y106.6229 I-4.9000 J0.0000 F750.0
G0 Z5.0000
G0 X34.8069 Y106.6229
G1 X34.8069 Y106.6229 Z-3.0000 F150.0
G3 X34.8069 Y106.6229 I-2.7000 J0.0000 F750.0
G0 Z5.0000
G0 X43.6069 Y106.6229
G1 X43.6069 Y106.6229 Z-3.5000 F150.0
G3 X43.6069 Y106.6229 I-11.5000 J0.0000 F750.0
G0 Z5.0000
G0 X41.4069 Y106.6229
G1 X41.4069 Y106.6229 Z-3.5000 F150.0
G3 X41.4069 Y106.6229 I-9.3000 J0.0000 F750.0
G0 Z5.0000
G0 X39.2069 Y106.6229
G1 X39.2069 Y106.6229 Z-3.5000 F150.0
G3 X39.2069 Y106.6229 I-7.1000 J0.0000 F750.0
G0 Z5.0000
G0 X37.0069 Y106.6229
G1 X37.0069 Y106.6229 Z-3.5000 F150.0
G3 X37.0069 Y106.6229 I-4.9000 J0.0000 F750.0
G0 Z5.0000
G0 X34.8069 Y106.6229
G1 X34.8069 Y106.6229 Z-3.5000 F150.0
G3 X34.8069 Y106.6229 I-2.7000 J0.0000 F750.0
( Mulde ix=0 iy=4 center 32.107 137.258 )
G0 Z5.0000
G0 X43.6069 Y137.2580
G1 X43.6069 Y137.2580 Z-1.5000 F150.0
G3 X43.6069 Y137.2580 I-11.5000 J0.0000 F750.0
G0 Z5.0000
G0 X41.4069 Y137.2580
G1 X41.4069 Y137.2580 Z-1.5000 F150.0
G3 X41.4069 Y137.2580 I-9.3000 J0.0000 F750.0
G0 Z5.0000
G0 X39.2069 Y137.2580
G1 X39.2069 Y137.2580 Z-1.5000 F150.0
G3 X39.2069 Y137.2580 I-7.1000 J0.0000 F750.0
G0 Z5.0000
G0 X37.0069 Y137.2580
G1 X37.0069 Y137.2580 Z-1.5000 F150.0
G3 X37.0069 Y137.2580 I-4.9000 J0.0000 F750.0
G0 Z5.0000
G0 X34.8069 Y137.2580
G1 X34.8069 Y137.2580 Z-1.5000 F150.0
G3 X34.8069 Y137.2580 I-2.7000 J0.0000 F750.0
G0 Z5.0000
G0 X43.6069 Y137.2580
G1 X43.6069 Y137.2580 Z-3.0000 F150.0
G3 X43.6069 Y137.2580 I-11.5000 J0.0000 F750.0
G0 Z5.0000
G0 X41.4069 Y137.2580
G1 X41.4069 Y137.2580 Z-3.0000 F150.0
G3 X41.4069 Y137.2580 I-9.3000 J0.0000 F750.0
G0 Z5.0000
G0 X39.2069 Y137.2580
G1 X39.2069 Y137.2580 Z-3.0000 F150.0
G3 X39.2069 Y137.2580 I-7.1000 J0.0000 F750.0
G0 Z5.0000
G0 X37.0069 Y137.2580
G1 X37.0069 Y137.2580 Z-3.0000 F150.0
G3 X37.0069 Y137.2580 I-4.9000 J0.0000 F750.0
G0 Z5.0000
G0 X34.8069 Y137.2580
G1 X34.8069 Y137.2580 Z-3.0000 F150.0
G3 X34.8069 Y137.2580 I-2.7000 J0.0000 F750.0
G0 Z5.0000
G0 X43.6069 Y137.2580
G1 X43.6069 Y137.2580 Z-3.5000 F150.0
G3 X43.6069 Y137.2580 I-11.5000 J0.0000 F750.0
G0 Z5.0000
G0 X41.4069 Y137.2580
G1 X41.4069 Y137.2580 Z-3.5000 F150.0
G3 X41.4069 Y137.2580 I-9.3000 J0.0000 F750.0
G0 Z5.0000
G0 X39.2069 Y137.2580
G1 X39.2069 Y137.2580 Z-3.5000 F150.0
G3 X39.2069 Y137.2580 I-7.1000 J0.0000 F750.0
G0 Z5.0000
G0 X37.0069 Y137.2580
G1 X37.0069 Y137.2580 Z-3.5000 F150.0
G3 X37.0069 Y137.2580 I-4.9000 J0.0000 F750.0
G0 Z5.0000
G0 X34.8069 Y137.2580
G1 X34.8069 Y137.2580 Z-3.5000 F150.0
G3 X34.8069 Y137.2580 I-2.7000 J0.0000 F750.0
( Mulde ix=1 iy=4 center 62.742 137.258 )
G0 Z5.0000
G0 X74.2420 Y137.2580
G1 X74.2420 Y137.2580 Z-1.5000 F150.0
G3 X74.2420 Y137.2580 I-11.5000 J0.0000 F750.0
G0 Z5.0000
G0 X72.0420 Y137.2580
G1 X72.0420 Y137.2580 Z-1.5000 F150.0
G3 X72.0420 Y137.2580 I-9.3000 J0.0000 F750.0
G0 Z5.0000
G0 X69.8420 Y137.2580
G1 X69.8420 Y137.2580 Z-1.5000 F150.0
G3 X69.8420 Y137.2580 I-7.1000 J0.0000 F750.0
G0 Z5.0000
G0 X67.6420 Y137.2580
G1 X67.6420 Y137.2580 Z-1.5000 F150.0
G3 X67.6420 Y137.2580 I-4.9000 J0.0000 F750.0
G0 Z5.0000
G0 X65.4420 Y137.2580
G1 X65.4420 Y137.2580 Z-1.5000 F150.0
G3 X65.4420 Y137.2580 I-2.7000 J0.0000 F750.0
G0 Z5.0000
G0 X74.2420 Y137.2580
G1 X74.2420 Y137.2580 Z-3.0000 F150.0
G3 X74.2420 Y137.2580 I-11.5000 J0.0000 F750.0
G0 Z5.0000
G0 X72.0420 Y137.2580
G1 X72.0420 Y137.2580 Z-3.0000 F150.0
G3 X72.0420 Y137.2580 I-9.3000 J0.0000 F750.0
G0 Z5.0000
G0 X69.8420 Y137.2580
G1 X69.8420 Y137.2580 Z-3.0000 F150.0
G3 X69.8420 Y137.2580 I-7.1000 J0.0000 F750.0
G0 Z5.0000
G0 X67.6420 Y137.2580
G1 X67.6420 Y137.2580 Z-3.0000 F150.0
G3 X67.6420 Y137.2580 I-4.9000 J0.0000 F750.0
G0 Z5.0000
G0 X65.4420 Y137.2580
G1 X65.4420 Y137.2580 Z-3.0000 F150.0
G3 X65.4420 Y137.2580 I-2.7000 J0.0000 F750.0
G0 Z5.0000
G0 X74.2420 Y137.2580
G1 X74.2420 Y137.2580 Z-3.5000 F150.0
G3 X74.2420 Y137.2580 I-11.5000 J0.0000 F750.0
G0 Z5.0000
G0 X72.0420 Y137.2580
G1 X72.0420 Y137.2580 Z-3.5000 F150.0
G3 X72.0420 Y137.2580 I-9.3000 J0.0000 F750.0
G0 Z5.0000
G0 X69.8420 Y137.2580
G1 X69.8420 Y137.2580 Z-3.5000 F150.0
G3 X69.8420 Y137.2580 I-7.1000 J0.0000 F750.0
G0 Z5.0000
G0 X67.6420 Y137.2580
G1 X67.6420 Y137.2580 Z-3.5000 F150.0
G3 X67.6420 Y137.2580 I-4.9000 J0.0000 F750.0
G0 Z5.0000
G0 X65.4420 Y137.2580
G1 X65.4420 Y137.2580 Z-3.5000 F150.0
G3 X65.4420 Y137.2580 I-2.7000 J0.0000 F750.0
( Mulde ix=2 iy=4 center 93.377 137.258 )
G0 Z5.0000
G0 X104.8771 Y137.2580
G1 X104.8771 Y137.2580 Z-1.5000 F150.0
G3 X104.8771 Y137.2580 I-11.5000 J0.0000 F750.0
G0 Z5.0000
G0 X102.6771 Y137.2580
G1 X102.6771 Y137.2580 Z-1.5000 F150.0
G3 X102.6771 Y137.2580 I-9.3000 J0.0000 F750.0
G0 Z5.0000
G0 X100.4771 Y137.2580
G1 X100.4771 Y137.2580 Z-1.5000 F150.0
G3 X100.4771 Y137.2580 I-7.1000 J0.0000 F750.0
G0 Z5.0000
G0 X98.2771 Y137.2580
G1 X98.2771 Y137.2580 Z-1.5000 F150.0
G3 X98.2771 Y137.2580 I-4.9000 J0.0000 F750.0
G0 Z5.0000
G0 X96.0771 Y137.2580
G1 X96.0771 Y137.2580 Z-1.5000 F150.0
G3 X96.0771 Y137.2580 I-2.7000 J0.0000 F750.0
G0 Z5.0000
G0 X104.8771 Y137.2580
G1 X104.8771 Y137.2580 Z-3.0000 F150.0
G3 X104.8771 Y137.2580 I-11.5000 J0.0000 F750.0
G0 Z5.0000
G0 X102.6771 Y137.2580
G1 X102.6771 Y137.2580 Z-3.0000 F150.0
G3 X102.6771 Y137.2580 I-9.3000 J0.0000 F750.0
G0 Z5.0000
G0 X100.4771 Y137.2580
G1 X100.4771 Y137.2580 Z-3.0000 F150.0
G3 X100.4771 Y137.2580 I-7.1000 J0.0000 F750.0
G0 Z5.0000
G0 X98.2771 Y137.2580
G1 X98.2771 Y137.2580 Z-3.0000 F150.0
G3 X98.2771 Y137.2580 I-4.9000 J0.0000 F750.0
G0 Z5.0000
G0 X96.0771 Y137.2580
G1 X96.0771 Y137.2580 Z-3.0000 F150.0
G3 X96.0771 Y137.2580 I-2.7000 J0.0000 F750.0
G0 Z5.0000
G0 X104.8771 Y137.2580
G1 X104.8771 Y137.2580 Z-3.5000 F150.0
G3 X104.8771 Y137.2580 I-11.5000 J0.0000 F750.0
G0 Z5.0000
G0 X102.6771 Y137.2580
G1 X102.6771 Y137.2580 Z-3.5000 F150.0
G3 X102.6771 Y137.2580 I-9.3000 J0.0000 F750.0
G0 Z5.0000
G0 X100.4771 Y137.2580
G1 X100.4771 Y137.2580 Z-3.5000 F150.0
G3 X100.4771 Y137.2580 I-7.1000 J0.0000 F750.0
G0 Z5.0000
G0 X98.2771 Y137.2580
G1 X98.2771 Y137.2580 Z-3.5000 F150.0
G3 X98.2771 Y137.2580 I-4.9000 J0.0000 F750.0
G0 Z5.0000
G0 X96.0771 Y137.2580
G1 X96.0771 Y137.2580 Z-3.5000 F150.0
G3 X96.0771 Y137.2580 I-2.7000 J0.0000 F750.0
( Mulde ix=3 iy=4 center 124.012 137.258 )
G0 Z5.0000
G0 X135.5122 Y137.2580
G1 X135.5122 Y137.2580 Z-1.5000 F150.0
G3 X135.5122 Y137.2580 I-11.5000 J0.0000 F750.0
G0 Z5.0000
G0 X133.3122 Y137.2580
G1 X133.3122 Y137.2580 Z-1.5000 F150.0
G3 X133.3122 Y137.2580 I-9.3000 J0.0000 F750.0
G0 Z5.0000
G0 X131.1122 Y137.2580
G1 X131.1122 Y137.2580 Z-1.5000 F150.0
G3 X131.1122 Y137.2580 I-7.1000 J0.0000 F750.0
G0 Z5.0000
G0 X128.9122 Y137.2580
G1 X128.9122 Y137.2580 Z-1.5000 F150.0
G3 X128.9122 Y137.2580 I-4.9000 J0.0000 F750.0
G0 Z5.0000
G0 X126.7122 Y137.2580
G1 X126.7122 Y137.2580 Z-1.5000 F150.0
G3 X126.7122 Y137.2580 I-2.7000 J0.0000 F750.0
G0 Z5.0000
G0 X135.5122 Y137.2580
G1 X135.5122 Y137.2580 Z-3.0000 F150.0
G3 X135.5122 Y137.2580 I-11.5000 J0.0000 F750.0
G0 Z5.0000
G0 X133.3122 Y137.2580
G1 X133.3122 Y137.2580 Z-3.0000 F150.0
G3 X133.3122 Y137.2580 I-9.3000 J0.0000 F750.0
G0 Z5.0000
G0 X131.1122 Y137.2580
G1 X131.1122 Y137.2580 Z-3.0000 F150.0
G3 X131.1122 Y137.2580 I-7.1000 J0.0000 F750.0
G0 Z5.0000
G0 X128.9122 Y137.2580
G1 X128.9122 Y137.2580 Z-3.0000 F150.0
G3 X128.9122 Y137.2580 I-4.9000 J0.0000 F750.0
G0 Z5.0000
G0 X126.7122 Y137.2580
G1 X126.7122 Y137.2580 Z-3.0000 F150.0
G3 X126.7122 Y137.2580 I-2.7000 J0.0000 F750.0
G0 Z5.0000
G0 X135.5122 Y137.2580
G1 X135.5122 Y137.2580 Z-3.5000 F150.0
G3 X135.5122 Y137.2580 I-11.5000 J0.0000 F750.0
G0 Z5.0000
G0 X133.3122 Y137.2580
G1 X133.3122 Y137.2580 Z-3.5000 F150.0
G3 X133.3122 Y137.2580 I-9.3000 J0.0000 F750.0
G0 Z5.0000
G0 X131.1122 Y137.2580
G1 X131.1122 Y137.2580 Z-3.5000 F150.0
G3 X131.1122 Y137.2580 I-7.1000 J0.0000 F750.0
G0 Z5.0000
G0 X128.9122 Y137.2580
G1 X128.9122 Y137.2580 Z-3.5000 F150.0
G3 X128.9122 Y137.2580 I-4.9000 J0.0000 F750.0
G0 Z5.0000
G0 X126.7122 Y137.2580
G1 X126.7122 Y137.2580 Z-3.5000 F150.0
G3 X126.7122 Y137.2580 I-2.7000 J0.0000 F750.0
( Mulde ix=4 iy=4 center 154.647 137.258 )
G0 Z5.0000
G0 X166.1473 Y137.2580
G1 X166.1473 Y137.2580 Z-1.5000 F150.0
G3 X166.1473 Y137.2580 I-11.5000 J0.0000 F750.0
G0 Z5.0000
G0 X163.9473 Y137.2580
G1 X163.9473 Y137.2580 Z-1.5000 F150.0
G3 X163.9473 Y137.2580 I-9.3000 J0.0000 F750.0
G0 Z5.0000
G0 X161.7473 Y137.2580
G1 X161.7473 Y137.2580 Z-1.5000 F150.0
G3 X161.7473 Y137.2580 I-7.1000 J0.0000 F750.0
G0 Z5.0000
G0 X159.5473 Y137.2580
G1 X159.5473 Y137.2580 Z-1.5000 F150.0
G3 X159.5473 Y137.2580 I-4.9000 J0.0000 F750.0
G0 Z5.0000
G0 X157.3473 Y137.2580
G1 X157.3473 Y137.2580 Z-1.5000 F150.0
G3 X157.3473 Y137.2580 I-2.7000 J0.0000 F750.0
G0 Z5.0000
G0 X166.1473 Y137.2580
G1 X166.1473 Y137.2580 Z-3.0000 F150.0
G3 X166.1473 Y137.2580 I-11.5000 J0.0000 F750.0
G0 Z5.0000
G0 X163.9473 Y137.2580
G1 X163.9473 Y137.2580 Z-3.0000 F150.0
G3 X163.9473 Y137.2580 I-9.3000 J0.0000 F750.0
G0 Z5.0000
G0 X161.7473 Y137.2580
G1 X161.7473 Y137.2580 Z-3.0000 F150.0
G3 X161.7473 Y137.2580 I-7.1000 J0.0000 F750.0
G0 Z5.0000
G0 X159.5473 Y137.2580
G1 X159.5473 Y137.2580 Z-3.0000 F150.0
G3 X159.5473 Y137.2580 I-4.9000 J0.0000 F750.0
G0 Z5.0000
G0 X157.3473 Y137.2580
G1 X157.3473 Y137.2580 Z-3.0000 F150.0
G3 X157.3473 Y137.2580 I-2.7000 J0.0000 F750.0
G0 Z5.0000
G0 X166.1473 Y137.2580
G1 X166.1473 Y137.2580 Z-3.5000 F150.0
G3 X166.1473 Y137.2580 I-11.5000 J0.0000 F750.0
G0 Z5.0000
G0 X163.9473 Y137.2580
G1 X163.9473 Y137.2580 Z-3.5000 F150.0
G3 X163.9473 Y137.2580 I-9.3000 J0.0000 F750.0
G0 Z5.0000
G0 X161.7473 Y137.2580
G1 X161.7473 Y137.2580 Z-3.5000 F150.0
G3 X161.7473 Y137.2580 I-7.1000 J0.0000 F750.0
G0 Z5.0000
G0 X159.5473 Y137.2580
G1 X159.5473 Y137.2580 Z-3.5000 F150.0
G3 X159.5473 Y137.2580 I-4.9000 J0.0000 F750.0
G0 Z5.0000
G0 X157.3473 Y137.2580
G1 X157.3473 Y137.2580 Z-3.5000 F150.0
G3 X157.3473 Y137.2580 I-2.7000 J0.0000 F750.0
( Mulde ix=5 iy=4 center 185.282 137.258 )
G0 Z5.0000
G0 X196.7824 Y137.2580
G1 X196.7824 Y137.2580 Z-1.5000 F150.0
G3 X196.7824 Y137.2580 I-11.5000 J0.0000 F750.0
G0 Z5.0000
G0 X194.5824 Y137.2580
G1 X194.5824 Y137.2580 Z-1.5000 F150.0
G3 X194.5824 Y137.2580 I-9.3000 J0.0000 F750.0
G0 Z5.0000
G0 X192.3824 Y137.2580
G1 X192.3824 Y137.2580 Z-1.5000 F150.0
G3 X192.3824 Y137.2580 I-7.1000 J0.0000 F750.0
G0 Z5.0000
G0 X190.1824 Y137.2580
G1 X190.1824 Y137.2580 Z-1.5000 F150.0
G3 X190.1824 Y137.2580 I-4.9000 J0.0000 F750.0
G0 Z5.0000
G0 X187.9824 Y137.2580
G1 X187.9824 Y137.2580 Z-1.5000 F150.0
G3 X187.9824 Y137.2580 I-2.7000 J0.0000 F750.0
G0 Z5.0000
G0 X196.7824 Y137.2580
G1 X196.7824 Y137.2580 Z-3.0000 F150.0
G3 X196.7824 Y137.2580 I-11.5000 J0.0000 F750.0
G0 Z5.0000
G0 X194.5824 Y137.2580
G1 X194.5824 Y137.2580 Z-3.0000 F150.0
G3 X194.5824 Y137.2580 I-9.3000 J0.0000 F750.0
G0 Z5.0000
G0 X192.3824 Y137.2580
G1 X192.3824 Y137.2580 Z-3.0000 F150.0
G3 X192.3824 Y137.2580 I-7.1000 J0.0000 F750.0
G0 Z5.0000
G0 X190.1824 Y137.2580
G1 X190.1824 Y137.2580 Z-3.0000 F150.0
G3 X190.1824 Y137.2580 I-4.9000 J0.0000 F750.0
G0 Z5.0000
G0 X187.9824 Y137.2580
G1 X187.9824 Y137.2580 Z-3.0000 F150.0
G3 X187.9824 Y137.2580 I-2.7000 J0.0000 F750.0
G0 Z5.0000
G0 X196.7824 Y137.2580
G1 X196.7824 Y137.2580 Z-3.5000 F150.0
G3 X196.7824 Y137.2580 I-11.5000 J0.0000 F750.0
G0 Z5.0000
G0 X194.5824 Y137.2580
G1 X194.5824 Y137.2580 Z-3.5000 F150.0
G3 X194.5824 Y137.2580 I-9.3000 J0.0000 F750.0
G0 Z5.0000
G0 X192.3824 Y137.2580
G1 X192.3824 Y137.2580 Z-3.5000 F150.0
G3 X192.3824 Y137.2580 I-7.1000 J0.0000 F750.0
G0 Z5.0000
G0 X190.1824 Y137.2580
G1 X190.1824 Y137.2580 Z-3.5000 F150.0
G3 X190.1824 Y137.2580 I-4.9000 J0.0000 F750.0
G0 Z5.0000
G0 X187.9824 Y137.2580
G1 X187.9824 Y137.2580 Z-3.5000 F150.0
G3 X187.9824 Y137.2580 I-2.7000 J0.0000 F750.0
( Mulde ix=5 iy=5 center 185.282 167.893 )
G0 Z5.0000
G0 X196.7824 Y167.8931
G1 X196.7824 Y167.8931 Z-1.5000 F150.0
G3 X196.7824 Y167.8931 I-11.5000 J0.0000 F750.0
G0 Z5.0000
G0 X194.5824 Y167.8931
G1 X194.5824 Y167.8931 Z-1.5000 F150.0
G3 X194.5824 Y167.8931 I-9.3000 J0.0000 F750.0
G0 Z5.0000
G0 X192.3824 Y167.8931
G1 X192.3824 Y167.8931 Z-1.5000 F150.0
G3 X192.3824 Y167.8931 I-7.1000 J0.0000 F750.0
G0 Z5.0000
G0 X190.1824 Y167.8931
G1 X190.1824 Y167.8931 Z-1.5000 F150.0
G3 X190.1824 Y167.8931 I-4.9000 J0.0000 F750.0
G0 Z5.0000
G0 X187.9824 Y167.8931
G1 X187.9824 Y167.8931 Z-1.5000 F150.0
G3 X187.9824 Y167.8931 I-2.7000 J0.0000 F750.0
G0 Z5.0000
G0 X196.7824 Y167.8931
G1 X196.7824 Y167.8931 Z-3.0000 F150.0
G3 X196.7824 Y167.8931 I-11.5000 J0.0000 F750.0
G0 Z5.0000
G0 X194.5824 Y167.8931
G1 X194.5824 Y167.8931 Z-3.0000 F150.0
G3 X194.5824 Y167.8931 I-9.3000 J0.0000 F750.0
G0 Z5.0000
G0 X192.3824 Y167.8931
G1 X192.3824 Y167.8931 Z-3.0000 F150.0
G3 X192.3824 Y167.8931 I-7.1000 J0.0000 F750.0
G0 Z5.0000
G0 X190.1824 Y167.8931
G1 X190.1824 Y167.8931 Z-3.0000 F150.0
G3 X190.1824 Y167.8931 I-4.9000 J0.0000 F750.0
G0 Z5.0000
G0 X187.9824 Y167.8931
G1 X187.9824 Y167.8931 Z-3.0000 F150.0
G3 X187.9824 Y167.8931 I-2.7000 J0.0000 F750.0
G0 Z5.0000
G0 X196.7824 Y167.8931
G1 X196.7824 Y167.8931 Z-3.5000 F150.0
G3 X196.7824 Y167.8931 I-11.5000 J0.0000 F750.0
G0 Z5.0000
G0 X194.5824 Y167.8931
G1 X194.5824 Y167.8931 Z-3.5000 F150.0
G3 X194.5824 Y167.8931 I-9.3000 J0.0000 F750.0
G0 Z5.0000
G0 X192.3824 Y167.8931
G1 X192.3824 Y167.8931 Z-3.5000 F150.0
G3 X192.3824 Y167.8931 I-7.1000 J0.0000 F750.0
G0 Z5.0000
G0 X190.1824 Y167.8931
G1 X190.1824 Y167.8931 Z-3.5000 F150.0
G3 X190.1824 Y167.8931 I-4.9000 J0.0000 F750.0
G0 Z5.0000
G0 X187.9824 Y167.8931
G1 X187.9824 Y167.8931 Z-3.5000 F150.0
G3 X187.9824 Y167.8931 I-2.7000 J0.0000 F750.0
( Mulde ix=4 iy=5 center 154.647 167.893 )
G0 Z5.0000
G0 X166.1473 Y167.8931
G1 X166.1473 Y167.8931 Z-1.5000 F150.0
G3 X166.1473 Y167.8931 I-11.5000 J0.0000 F750.0
G0 Z5.0000
G0 X163.9473 Y167.8931
G1 X163.9473 Y167.8931 Z-1.5000 F150.0
G3 X163.9473 Y167.8931 I-9.3000 J0.0000 F750.0
G0 Z5.0000
G0 X161.7473 Y167.8931
G1 X161.7473 Y167.8931 Z-1.5000 F150.0
G3 X161.7473 Y167.8931 I-7.1000 J0.0000 F750.0
G0 Z5.0000
G0 X159.5473 Y167.8931
G1 X159.5473 Y167.8931 Z-1.5000 F150.0
G3 X159.5473 Y167.8931 I-4.9000 J0.0000 F750.0
G0 Z5.0000
G0 X157.3473 Y167.8931
G1 X157.3473 Y167.8931 Z-1.5000 F150.0
G3 X157.3473 Y167.8931 I-2.7000 J0.0000 F750.0
G0 Z5.0000
G0 X166.1473 Y167.8931
G1 X166.1473 Y167.8931 Z-3.0000 F150.0
G3 X166.1473 Y167.8931 I-11.5000 J0.0000 F750.0
G0 Z5.0000
G0 X163.9473 Y167.8931
G1 X163.9473 Y167.8931 Z-3.0000 F150.0
G3 X163.9473 Y167.8931 I-9.3000 J0.0000 F750.0
G0 Z5.0000
G0 X161.7473 Y167.8931
G1 X161.7473 Y167.8931 Z-3.0000 F150.0
G3 X161.7473 Y167.8931 I-7.1000 J0.0000 F750.0
G0 Z5.0000
G0 X159.5473 Y167.8931
G1 X159.5473 Y167.8931 Z-3.0000 F150.0
G3 X159.5473 Y167.8931 I-4.9000 J0.0000 F750.0
G0 Z5.0000
G0 X157.3473 Y167.8931
G1 X157.3473 Y167.8931 Z-3.0000 F150.0
G3 X157.3473 Y167.8931 I-2.7000 J0.0000 F750.0
G0 Z5.0000
G0 X166.1473 Y167.8931
G1 X166.1473 Y167.8931 Z-3.5000 F150.0
G3 X166.1473 Y167.8931 I-11.5000 J0.0000 F750.0
G0 Z5.0000
G0 X163.9473 Y167.8931
G1 X163.9473 Y167.8931 Z-3.5000 F150.0
G3 X163.9473 Y167.8931 I-9.3000 J0.0000 F750.0
G0 Z5.0000
G0 X161.7473 Y167.8931
G1 X161.7473 Y167.8931 Z-3.5000 F150.0
G3 X161.7473 Y167.8931 I-7.1000 J0.0000 F750.0
G0 Z5.0000
G0 X159.5473 Y167.8931
G1 X159.5473 Y167.8931 Z-3.5000 F150.0
G3 X159.5473 Y167.8931 I-4.9000 J0.0000 F750.0
G0 Z5.0000
G0 X157.3473 Y167.8931
G1 X157.3473 Y167.8931 Z-3.5000 F150.0
G3 X157.3473 Y167.8931 I-2.7000 J0.0000 F750.0
( Mulde ix=3 iy=5 center 124.012 167.893 )
G0 Z5.0000
G0 X135.5122 Y167.8931
G1 X135.5122 Y167.8931 Z-1.5000 F150.0
G3 X135.5122 Y167.8931 I-11.5000 J0.0000 F750.0
G0 Z5.0000
G0 X133.3122 Y167.8931
G1 X133.3122 Y167.8931 Z-1.5000 F150.0
G3 X133.3122 Y167.8931 I-9.3000 J0.0000 F750.0
G0 Z5.0000
G0 X131.1122 Y167.8931
G1 X131.1122 Y167.8931 Z-1.5000 F150.0
G3 X131.1122 Y167.8931 I-7.1000 J0.0000 F750.0
G0 Z5.0000
G0 X128.9122 Y167.8931
G1 X128.9122 Y167.8931 Z-1.5000 F150.0
G3 X128.9122 Y167.8931 I-4.9000 J0.0000 F750.0
G0 Z5.0000
G0 X126.7122 Y167.8931
G1 X126.7122 Y167.8931 Z-1.5000 F150.0
G3 X126.7122 Y167.8931 I-2.7000 J0.0000 F750.0
G0 Z5.0000
G0 X135.5122 Y167.8931
G1 X135.5122 Y167.8931 Z-3.0000 F150.0
G3 X135.5122 Y167.8931 I-11.5000 J0.0000 F750.0
G0 Z5.0000
G0 X133.3122 Y167.8931
G1 X133.3122 Y167.8931 Z-3.0000 F150.0
G3 X133.3122 Y167.8931 I-9.3000 J0.0000 F750.0
G0 Z5.0000
G0 X131.1122 Y167.8931
G1 X131.1122 Y167.8931 Z-3.0000 F150.0
G3 X131.1122 Y167.8931 I-7.1000 J0.0000 F750.0
G0 Z5.0000
G0 X128.9122 Y167.8931
G1 X128.9122 Y167.8931 Z-3.0000 F150.0
G3 X128.9122 Y167.8931 I-4.9000 J0.0000 F750.0
G0 Z5.0000
G0 X126.7122 Y167.8931
G1 X126.7122 Y167.8931 Z-3.0000 F150.0
G3 X126.7122 Y167.8931 I-2.7000 J0.0000 F750.0
G0 Z5.0000
G0 X135.5122 Y167.8931
G1 X135.5122 Y167.8931 Z-3.5000 F150.0
G3 X135.5122 Y167.8931 I-11.5000 J0.0000 F750.0
G0 Z5.0000
G0 X133.3122 Y167.8931
G1 X133.3122 Y167.8931 Z-3.5000 F150.0
G3 X133.3122 Y167.8931 I-9.3000 J0.0000 F750.0
G0 Z5.0000
G0 X131.1122 Y167.8931
G1 X131.1122 Y167.8931 Z-3.5000 F150.0
G3 X131.1122 Y167.8931 I-7.1000 J0.0000 F750.0
G0 Z5.0000
G0 X128.9122 Y167.8931
G1 X128.9122 Y167.8931 Z-3.5000 F150.0
G3 X128.9122 Y167.8931 I-4.9000 J0.0000 F750.0
G0 Z5.0000
G0 X126.7122 Y167.8931
G1 X126.7122 Y167.8931 Z-3.5000 F150.0
G3 X126.7122 Y167.8931 I-2.7000 J0.0000 F750.0
( Mulde ix=2 iy=5 center 93.377 167.893 )
G0 Z5.0000
G0 X104.8771 Y167.8931
G1 X104.8771 Y167.8931 Z-1.5000 F150.0
G3 X104.8771 Y167.8931 I-11.5000 J0.0000 F750.0
G0 Z5.0000
G0 X102.6771 Y167.8931
G1 X102.6771 Y167.8931 Z-1.5000 F150.0
G3 X102.6771 Y167.8931 I-9.3000 J0.0000 F750.0
G0 Z5.0000
G0 X100.4771 Y167.8931
G1 X100.4771 Y167.8931 Z-1.5000 F150.0
G3 X100.4771 Y167.8931 I-7.1000 J0.0000 F750.0
G0 Z5.0000
G0 X98.2771 Y167.8931
G1 X98.2771 Y167.8931 Z-1.5000 F150.0
G3 X98.2771 Y167.8931 I-4.9000 J0.0000 F750.0
G0 Z5.0000
G0 X96.0771 Y167.8931
G1 X96.0771 Y167.8931 Z-1.5000 F150.0
G3 X96.0771 Y167.8931 I-2.7000 J0.0000 F750.0
G0 Z5.0000
G0 X104.8771 Y167.8931
G1 X104.8771 Y167.8931 Z-3.0000 F150.0
G3 X104.8771 Y167.8931 I-11.5000 J0.0000 F750.0
G0 Z5.0000
G0 X102.6771 Y167.8931
G1 X102.6771 Y167.8931 Z-3.0000 F150.0
G3 X102.6771 Y167.8931 I-9.3000 J0.0000 F750.0
G0 Z5.0000
G0 X100.4771 Y167.8931
G1 X100.4771 Y167.8931 Z-3.0000 F150.0
G3 X100.4771 Y167.8931 I-7.1000 J0.0000 F750.0
G0 Z5.0000
G0 X98.2771 Y167.8931
G1 X98.2771 Y167.8931 Z-3.0000 F150.0
G3 X98.2771 Y167.8931 I-4.9000 J0.0000 F750.0
G0 Z5.0000
G0 X96.0771 Y167.8931
G1 X96.0771 Y167.8931 Z-3.0000 F150.0
G3 X96.0771 Y167.8931 I-2.7000 J0.0000 F750.0
G0 Z5.0000
G0 X104.8771 Y167.8931
G1 X104.8771 Y167.8931 Z-3.5000 F150.0
G3 X104.8771 Y167.8931 I-11.5000 J0.0000 F750.0
G0 Z5.0000
G0 X102.6771 Y167.8931
G1 X102.6771 Y167.8931 Z-3.5000 F150.0
G3 X102.6771 Y167.8931 I-9.3000 J0.0000 F750.0
G0 Z5.0000
G0 X100.4771 Y167.8931
G1 X100.4771 Y167.8931 Z-3.5000 F150.0
G3 X100.4771 Y167.8931 I-7.1000 J0.0000 F750.0
G0 Z5.0000
G0 X98.2771 Y167.8931
G1 X98.2771 Y167.8931 Z-3.5000 F150.0
G3 X98.2771 Y167.8931 I-4.9000 J0.0000 F750.0
G0 Z5.0000
G0 X96.0771 Y167.8931
G1 X96.0771 Y167.8931 Z-3.5000 F150.0
G3 X96.0771 Y167.8931 I-2.7000 J0.0000 F750.0
( Mulde ix=1 iy=5 center 62.742 167.893 )
G0 Z5.0000
G0 X74.2420 Y167.8931
G1 X74.2420 Y167.8931 Z-1.5000 F150.0
G3 X74.2420 Y167.8931 I-11.5000 J0.0000 F750.0
G0 Z5.0000
G0 X72.0420 Y167.8931
G1 X72.0420 Y167.8931 Z-1.5000 F150.0
G3 X72.0420 Y167.8931 I-9.3000 J0.0000 F750.0
G0 Z5.0000
G0 X69.8420 Y167.8931
G1 X69.8420 Y167.8931 Z-1.5000 F150.0
G3 X69.8420 Y167.8931 I-7.1000 J0.0000 F750.0
G0 Z5.0000
G0 X67.6420 Y167.8931
G1 X67.6420 Y167.8931 Z-1.5000 F150.0
G3 X67.6420 Y167.8931 I-4.9000 J0.0000 F750.0
G0 Z5.0000
G0 X65.4420 Y167.8931
G1 X65.4420 Y167.8931 Z-1.5000 F150.0
G3 X65.4420 Y167.8931 I-2.7000 J0.0000 F750.0
G0 Z5.0000
G0 X74.2420 Y167.8931
G1 X74.2420 Y167.8931 Z-3.0000 F150.0
G3 X74.2420 Y167.8931 I-11.5000 J0.0000 F750.0
G0 Z5.0000
G0 X72.0420 Y167.8931
G1 X72.0420 Y167.8931 Z-3.0000 F150.0
G3 X72.0420 Y167.8931 I-9.3000 J0.0000 F750.0
G0 Z5.0000
G0 X69.8420 Y167.8931
G1 X69.8420 Y167.8931 Z-3.0000 F150.0
G3 X69.8420 Y167.8931 I-7.1000 J0.0000 F750.0
G0 Z5.0000
G0 X67.6420 Y167.8931
G1 X67.6420 Y167.8931 Z-3.0000 F150.0
G3 X67.6420 Y167.8931 I-4.9000 J0.0000 F750.0
G0 Z5.0000
G0 X65.4420 Y167.8931
G1 X65.4420 Y167.8931 Z-3.0000 F150.0
G3 X65.4420 Y167.8931 I-2.7000 J0.0000 F750.0
G0 Z5.0000
G0 X74.2420 Y167.8931
G1 X74.2420 Y167.8931 Z-3.5000 F150.0
G3 X74.2420 Y167.8931 I-11.5000 J0.0000 F750.0
G0 Z5.0000
G0 X72.0420 Y167.8931
G1 X72.0420 Y167.8931 Z-3.5000 F150.0
G3 X72.0420 Y167.8931 I-9.3000 J0.0000 F750.0
G0 Z5.0000
G0 X69.8420 Y167.8931
G1 X69.8420 Y167.8931 Z-3.5000 F150.0
G3 X69.8420 Y167.8931 I-7.1000 J0.0000 F750.0
G0 Z5.0000
G0 X67.6420 Y167.8931
G1 X67.6420 Y167.8931 Z-3.5000 F150.0
G3 X67.6420 Y167.8931 I-4.9000 J0.0000 F750.0
G0 Z5.0000
G0 X65.4420 Y167.8931
G1 X65.4420 Y167.8931 Z-3.5000 F150.0
G3 X65.4420 Y167.8931 I-2.7000 J0.0000 F750.0
( Mulde ix=0 iy=5 center 32.107 167.893 )
G0 Z5.0000
G0 X43.6069 Y167.8931
G1 X43.6069 Y167.8931 Z-1.5000 F150.0
G3 X43.6069 Y167.8931 I-11.5000 J0.0000 F750.0
G0 Z5.0000
G0 X41.4069 Y167.8931
G1 X41.4069 Y167.8931 Z-1.5000 F150.0
G3 X41.4069 Y167.8931 I-9.3000 J0.0000 F750.0
G0 Z5.0000
G0 X39.2069 Y167.8931
G1 X39.2069 Y167.8931 Z-1.5000 F150.0
G3 X39.2069 Y167.8931 I-7.1000 J0.0000 F750.0
G0 Z5.0000
G0 X37.0069 Y167.8931
G1 X37.0069 Y167.8931 Z-1.5000 F150.0
G3 X37.0069 Y167.8931 I-4.9000 J0.0000 F750.0
G0 Z5.0000
G0 X34.8069 Y167.8931
G1 X34.8069 Y167.8931 Z-1.5000 F150.0
G3 X34.8069 Y167.8931 I-2.7000 J0.0000 F750.0
G0 Z5.0000
G0 X43.6069 Y167.8931
G1 X43.6069 Y167.8931 Z-3.0000 F150.0
G3 X43.6069 Y167.8931 I-11.5000 J0.0000 F750.0
G0 Z5.0000
G0 X41.4069 Y167.8931
G1 X41.4069 Y167.8931 Z-3.0000 F150.0
G3 X41.4069 Y167.8931 I-9.3000 J0.0000 F750.0
G0 Z5.0000
G0 X39.2069 Y167.8931
G1 X39.2069 Y167.8931 Z-3.0000 F150.0
G3 X39.2069 Y167.8931 I-7.1000 J0.0000 F750.0
G0 Z5.0000
G0 X37.0069 Y167.8931
G1 X37.0069 Y167.8931 Z-3.0000 F150.0
G3 X37.0069 Y167.8931 I-4.9000 J0.0000 F750.0
G0 Z5.0000
G0 X34.8069 Y167.8931
G1 X34.8069 Y167.8931 Z-3.0000 F150.0
G3 X34.8069 Y167.8931 I-2.7000 J0.0000 F750.0
G0 Z5.0000
G0 X43.6069 Y167.8931
G1 X43.6069 Y167.8931 Z-3.5000 F150.0
G3 X43.6069 Y167.8931 I-11.5000 J0.0000 F750.0
G0 Z5.0000
G0 X41.4069 Y167.8931
G1 X41.4069 Y167.8931 Z-3.5000 F150.0
G3 X41.4069 Y167.8931 I-9.3000 J0.0000 F750.0
G0 Z5.0000
G0 X39.2069 Y167.8931
G1 X39.2069 Y167.8931 Z-3.5000 F150.0
G3 X39.2069 Y167.8931 I-7.1000 J0.0000 F750.0
G0 Z5.0000
G0 X37.0069 Y167.8931
G1 X37.0069 Y167.8931 Z-3.5000 F150.0
G3 X37.0069 Y167.8931 I-4.9000 J0.0000 F750.0
G0 Z5.0000
G0 X34.8069 Y167.8931
G1 X34.8069 Y167.8931 Z-3.5000 F150.0
G3 X34.8069 Y167.8931 I-2.7000 J0.0000 F750.0
G0 Z5.0000
G0 X0 Y0
M5
M2
